; HEADER_BLOCK_START
; generated by AnycubicSlicerNext 1.3.1 on 2026-02-11 at 10:39:05
; total layer number: 60
; filament_density: 1.24
; filament_diameter: 1.75
; max_z_height: 12.04
; HEADER_BLOCK_END

; THUMBNAIL_BLOCK_START

;
; THUMBNAIL_BLOCK_END

; external perimeters extrusion width = 0.42mm
; perimeters extrusion width = 0.45mm
; infill extrusion width = 0.45mm
; solid infill extrusion width = 0.42mm
; top infill extrusion width = 0.42mm
; first layer extrusion width = 0.50mm

; external perimeters extrusion width = 0.42mm
; perimeters extrusion width = 0.45mm
; infill extrusion width = 0.45mm
; solid infill extrusion width = 0.42mm
; top infill extrusion width = 0.42mm
; first layer extrusion width = 0.50mm

; external perimeters extrusion width = 0.42mm
; perimeters extrusion width = 0.45mm
; infill extrusion width = 0.45mm
; solid infill extrusion width = 0.42mm
; top infill extrusion width = 0.42mm
; first layer extrusion width = 0.50mm

; EXECUTABLE_BLOCK_START
M201 X2000 Y2000 Z800 E2000
M203 X300 Y300 Z8 E100
M204 P2000 R2000 T2000
M205 X10.00 Y10.00 Z2.00 E5.00 ; sets the jerk limits, mm/sec
;TYPE:Custom
G90 ; use absolute coordinates
M83 ; extruder relative mode
M104 S220 ; set extruder temp
M140 S60 ; set bed temp
M190 S60 ; wait for bed temp
M109 S220 ; wait for extruder temp
G28                                        ; move X/Y/Z to min endstops
G1 Z0.28                                   ; lift nozzle a bit 
G92 E0 
G1 Y3 F1800                                    ; zero the extruded length 
G1 X60  E25 F500                       ; Extrude 25mm of filament in a 5cm line. 
G92 E0                                     ; zero the extruded length again 
G1 E-2 F500                                ; Retract a little 
G1 X70 F4000                              ; Quickly wipe away from the filament line
M117
G90
G21
M82 ; use absolute distances for extrusion
G92 E0
; filament start gcode
M106 S0
;LAYER_CHANGE
;Z:0.24
;HEIGHT:0.24
; BEFORE_LAYER_CHANGE 0 @ 0.24mm
G1 E-2.5 F6000
G92 E0
; AFTER_LAYER_CHANGE 0 @ 0.24mm
;_SET_FAN_SPEED_CHANGING_LAYER
M204 P500
; printing object "3118_tankmountangle.stl" id:1588477268224 copy 0
M204 T500
G1 X79.559 Y98.476 F18000
G1 Z.24
G1 E2.5 F6000
;TYPE:Brim
;WIDTH:0.5
G1 F3000
G1 X80.067 Y98.1 E2.52745
G1 X80.887 Y97.697 E2.56708
G1 X81.493 Y97.51 E2.59464
G1 X82.122 Y97.415 E2.62223
G1 X94.435 Y97.402 E3.15673
G1 X95.077 Y97.45 E3.18469
G1 X95.699 Y97.592 E3.21237
G1 X96.145 Y97.757 E3.23303
G1 X96.819 Y98.103 E3.2659
G1 X97.329 Y98.479 E3.29344
G1 X97.779 Y98.928 E3.32103
G1 X98.156 Y99.438 E3.34853
G1 X98.519 Y100.156 E3.38348
G1 X98.746 Y100.864 E3.41573
G1 X98.842 Y101.495 E3.44345
G1 X98.854 Y118.179 E4.16768
G1 X98.806 Y118.821 E4.19564
G1 X98.664 Y119.442 E4.22327
G1 X98.452 Y119.997 E4.24907
G1 X98.153 Y120.562 E4.27681
G1 X97.776 Y121.074 E4.3044
G1 X97.327 Y121.524 E4.33199
G1 X96.819 Y121.9 E4.35944
G1 X96 Y122.303 E4.39908
G1 X95.393 Y122.49 E4.42663
G1 X94.765 Y122.585 E4.45422
G1 X82.451 Y122.598 E4.98873
G1 X81.809 Y122.55 E5.01668
G1 X81.189 Y122.409 E5.04431
G1 X80.634 Y122.196 E5.07011
G1 X80.069 Y121.898 E5.09785
G1 X79.557 Y121.521 E5.12544
G1 X79.107 Y121.072 E5.15303
G1 X78.731 Y120.563 E5.18048
G1 X78.328 Y119.744 E5.22012
G1 X78.14 Y119.138 E5.24767
G1 X78.045 Y118.505 E5.27544
G1 X78.032 Y101.821 E5.99967
G1 X78.08 Y101.179 E6.02763
G1 X78.222 Y100.558 E6.05526
G1 X78.434 Y100.003 E6.08106
G1 X78.733 Y99.438 E6.1088
G1 X79.11 Y98.926 E6.13639
G1 X79.531 Y98.505 E6.16225
G1 X79.848 Y98.823 F18000
G1 F3000
G1 X79.861 Y98.811 E6.16301
G1 X80.313 Y98.48 E6.18733
G1 X81.063 Y98.112 E6.22361
G1 X81.603 Y97.947 E6.24813
G1 X82.146 Y97.865 E6.27194
G1 X94.423 Y97.851 E6.8049
G1 X95.02 Y97.897 E6.83088
G1 X95.562 Y98.02 E6.85501
G1 X95.956 Y98.165 E6.87325
G1 X96.572 Y98.48 E6.90327
G1 X97.043 Y98.828 E6.92868
G1 X97.432 Y99.215 E6.95249
G1 X97.766 Y99.665 E6.97683
G1 X98.098 Y100.317 E7.00861
G1 X98.305 Y100.956 E7.03774
G1 X98.392 Y101.519 E7.06247
G1 X98.405 Y118.157 E7.78472
G1 X98.362 Y118.744 E7.81027
G1 X98.236 Y119.302 E7.83508
G1 X98.039 Y119.819 E7.85909
G1 X97.777 Y120.314 E7.88341
G1 X97.428 Y120.788 E7.90896
G1 X97.025 Y121.189 E7.93363
G1 X96.574 Y121.52 E7.95795
G1 X95.823 Y121.888 E7.99423
G1 X95.283 Y122.053 E8.01875
G1 X94.721 Y122.137 E8.04343
G1 X82.463 Y122.149 E8.57552
G1 X81.886 Y122.106 E8.60063
G1 X81.329 Y121.981 E8.62544
G1 X80.812 Y121.783 E8.64944
G1 X80.317 Y121.522 E8.67376
G1 X79.843 Y121.172 E8.69931
G1 X79.442 Y120.77 E8.72398
G1 X79.11 Y120.318 E8.7483
G1 X78.743 Y119.568 E8.78458
G1 X78.577 Y119.027 E8.8091
G1 X78.493 Y118.461 E8.83396
G1 X78.481 Y101.843 E9.55534
G1 X78.524 Y101.256 E9.58089
G1 X78.65 Y100.698 E9.6057
G1 X78.847 Y100.181 E9.62971
G1 X79.109 Y99.686 E9.65403
G1 X79.458 Y99.212 E9.67957
G1 X79.82 Y98.852 E9.70175
G1 X80.137 Y99.171 F18000
G1 F3000
G1 X80.162 Y99.147 E9.70328
G1 X80.556 Y98.859 E9.72446
G1 X81.239 Y98.527 E9.7574
G1 X81.694 Y98.388 E9.77806
G1 X82.17 Y98.315 E9.79897
G1 X94.412 Y98.3 E10.33037
G1 X94.962 Y98.344 E10.35435
G1 X95.426 Y98.449 E10.37499
G1 X95.769 Y98.574 E10.39083
G1 X96.326 Y98.858 E10.41797
G1 X96.758 Y99.176 E10.44124
G1 X97.097 Y99.517 E10.46214
G1 X97.377 Y99.893 E10.48248
G1 X97.678 Y100.48 E10.5111
G1 X97.864 Y101.05 E10.53712
G1 X97.942 Y101.543 E10.55883
G1 X97.957 Y118.136 E11.27908
G1 X97.918 Y118.668 E11.30226
G1 X97.808 Y119.163 E11.32423
G1 X97.632 Y119.626 E11.34573
G1 X97.401 Y120.066 E11.36733
G1 X97.08 Y120.501 E11.39081
G1 X96.725 Y120.853 E11.41252
G1 X96.33 Y121.141 E11.43371
G1 X95.648 Y121.473 E11.46664
G1 X95.174 Y121.616 E11.48814
G1 X94.677 Y121.689 E11.50991
G1 X82.474 Y121.7 E12.03963
G1 X81.962 Y121.662 E12.06192
G1 X81.468 Y121.552 E12.0839
G1 X81.005 Y121.377 E12.10539
G1 X80.565 Y121.145 E12.12699
G1 X80.129 Y120.824 E12.15047
G1 X79.777 Y120.469 E12.17219
G1 X79.49 Y120.074 E12.19337
G1 X79.158 Y119.392 E12.22631
G1 X79.014 Y118.918 E12.2478
G1 X78.942 Y118.418 E12.26975
G1 X78.929 Y101.864 E12.98833
G1 X78.969 Y101.332 E13.0115
G1 X79.078 Y100.837 E13.03348
G1 X79.254 Y100.374 E13.05497
G1 X79.485 Y99.934 E13.07657
G1 X79.806 Y99.499 E13.10005
G1 X80.108 Y99.199 E13.1185
G1 X80.424 Y99.518 F18000
G1 F3000
G1 X80.446 Y99.496 E13.11984
G1 X80.779 Y99.252 E13.13776
G1 X81.413 Y98.943 E13.16841
G1 X81.803 Y98.825 E13.1861
G1 X82.194 Y98.765 E13.20327
G1 X94.399 Y98.749 E13.73307
G1 X94.904 Y98.79 E13.75503
G1 X95.291 Y98.878 E13.77226
G1 X95.582 Y98.983 E13.78569
G1 X96.08 Y99.236 E13.80993
G1 X96.471 Y99.524 E13.83104
G1 X96.75 Y99.804 E13.84818
G1 X96.988 Y100.122 E13.86542
G1 X97.257 Y100.643 E13.89089
G1 X97.423 Y101.145 E13.91382
G1 X97.492 Y101.569 E13.93246
G1 X97.508 Y118.115 E14.65071
G1 X97.474 Y118.593 E14.67153
G1 X97.379 Y119.024 E14.69069
G1 X97.226 Y119.433 E14.70966
G1 X97.025 Y119.818 E14.72851
G1 X96.732 Y120.215 E14.74988
G1 X96.425 Y120.517 E14.76859
G1 X96.087 Y120.76 E14.78665
G1 X95.473 Y121.057 E14.81626
G1 X95.066 Y121.179 E14.83471
G1 X94.635 Y121.24 E14.85361
G1 X82.496 Y121.252 E15.38055
G1 X82.038 Y121.218 E15.40049
G1 X81.606 Y121.124 E15.41967
G1 X81.197 Y120.97 E15.43864
G1 X80.812 Y120.769 E15.45749
G1 X80.416 Y120.477 E15.47886
G1 X80.114 Y120.169 E15.49757
G1 X79.871 Y119.832 E15.51562
G1 X79.574 Y119.218 E15.54524
G1 X79.452 Y118.81 E15.56369
G1 X79.39 Y118.375 E15.58276
G1 X79.378 Y101.885 E16.29857
G1 X79.413 Y101.407 E16.3194
G1 X79.507 Y100.976 E16.33856
G1 X79.661 Y100.567 E16.35753
G1 X79.862 Y100.182 E16.37638
G1 X80.154 Y99.785 E16.39775
G1 X80.395 Y99.546 E16.4125
G1 X80.711 Y99.865 F18000
G1 F3000
G1 X80.731 Y99.845 E16.4137
G1 X81.002 Y99.645 E16.42834
G1 X81.588 Y99.359 E16.45666
G1 X81.894 Y99.266 E16.47054
G1 X82.219 Y99.215 E16.48482
G1 X94.387 Y99.198 E17.01301
G1 X94.844 Y99.237 E17.03294
G1 X95.156 Y99.308 E17.04683
G1 X95.396 Y99.393 E17.05786
G1 X95.834 Y99.614 E17.07917
G1 X96.185 Y99.872 E17.09809
G1 X96.403 Y100.091 E17.1115
G1 X96.6 Y100.352 E17.12568
G1 X96.838 Y100.808 E17.148
G1 X96.983 Y101.241 E17.16784
G1 X97.041 Y101.594 E17.18337
G1 X97.06 Y118.094 E17.89959
G1 X97.029 Y118.519 E17.9181
G1 X96.95 Y118.888 E17.93446
G1 X96.818 Y119.242 E17.95089
G1 X96.637 Y119.588 E17.96785
G1 X96.385 Y119.927 E17.98618
G1 X96.127 Y120.179 E18.00183
G1 X95.846 Y120.378 E18.01676
G1 X95.3 Y120.641 E18.04308
G1 X94.96 Y120.741 E18.05847
G1 X94.593 Y120.792 E18.07452
G1 X82.517 Y120.803 E18.59873
G1 X82.112 Y120.774 E18.61637
G1 X81.743 Y120.694 E18.63275
G1 X81.388 Y120.563 E18.64918
G1 X81.042 Y120.381 E18.66614
G1 X80.703 Y120.129 E18.68448
G1 X80.452 Y119.871 E18.70012
G1 X80.253 Y119.591 E18.71505
G1 X79.99 Y119.044 E18.74137
G1 X79.89 Y118.704 E18.75676
G1 X79.838 Y118.334 E18.77299
G1 X79.826 Y101.906 E19.48608
G1 X79.857 Y101.481 E19.5046
G1 X79.936 Y101.112 E19.52096
G1 X80.068 Y100.758 E19.53739
G1 X80.249 Y100.412 E19.55434
G1 X80.502 Y100.072 E19.5727
G1 X80.683 Y99.893 E19.58376
G1 X80.969 Y100.252 F18000
G1 F3000
G1 X81.29 Y100.002 E19.60142
G1 X81.609 Y99.834 E19.61704
G1 X81.909 Y99.736 E19.63074
G1 X82.488 Y99.644 E19.6562
G1 X94.399 Y99.644 E20.17325
G1 X94.982 Y99.737 E20.19887
G1 X95.451 Y99.924 E20.2208
G1 X95.914 Y100.252 E20.24543
G1 X96.003 Y100.338 E20.2508
G1 X96.249 Y100.651 E20.26809
G1 X96.374 Y100.872 E20.27908
G1 X96.49 Y101.174 E20.29311
G1 X96.611 Y101.86 E20.32337
G1 X96.611 Y118.144 E21.03022
G1 X96.519 Y118.726 E21.05584
G1 X96.331 Y119.196 E21.07777
G1 X96.003 Y119.659 E21.1024
G1 X95.918 Y119.748 E21.10777
G1 X95.604 Y119.994 E21.12506
G1 X95.384 Y120.118 E21.13605
G1 X95.082 Y120.234 E21.15007
G1 X94.396 Y120.356 E21.18034
G1 X82.487 Y120.356 E21.69727
G1 X81.904 Y120.263 E21.72289
G1 X81.435 Y120.076 E21.74483
G1 X80.972 Y119.748 E21.76945
G1 X80.883 Y119.662 E21.77482
G1 X80.637 Y119.349 E21.79212
G1 X80.512 Y119.128 E21.80311
G1 X80.397 Y118.826 E21.81713
G1 X80.275 Y118.14 E21.84739
G1 X80.287 Y101.688 E22.56155
G1 X80.356 Y101.303 E22.57852
G1 X80.509 Y100.891 E22.5976
G1 X80.718 Y100.54 E22.61533
G1 X80.943 Y100.282 E22.6302
G1 X81.244 Y100.606 F18000
G1 F3000
G1 X81.501 Y100.398 E22.64455
G1 X81.75 Y100.259 E22.65692
G1 X81.976 Y100.179 E22.66735
G1 X82.477 Y100.093 E22.68942
G1 X94.41 Y100.093 E23.20739
G1 X94.919 Y100.181 E23.2298
G1 X95.283 Y100.34 E23.24707
G1 X95.651 Y100.615 E23.267
G1 X95.859 Y100.871 E23.28132
G1 X95.96 Y101.044 E23.29003
G1 X96.047 Y101.248 E23.29963
G1 X96.163 Y101.848 E23.32618
G1 X96.163 Y118.154 E24.034
G1 X96.075 Y118.663 E24.05641
G1 X95.916 Y119.028 E24.07368
G1 X95.641 Y119.395 E24.09361
G1 X95.384 Y119.603 E24.10793
G1 X95.211 Y119.704 E24.11664
G1 X95.008 Y119.792 E24.12624
G1 X94.408 Y119.907 E24.15279
G1 X82.476 Y119.907 E24.6707
G1 X81.968 Y119.819 E24.69311
G1 X81.603 Y119.66 E24.71038
G1 X81.236 Y119.385 E24.73031
G1 X81.028 Y119.129 E24.74463
G1 X80.926 Y118.956 E24.75334
G1 X80.839 Y118.752 E24.76294
G1 X80.723 Y118.152 E24.78949
G1 X80.728 Y101.766 E25.50078
G1 X80.777 Y101.458 E25.51429
G1 X80.893 Y101.122 E25.52975
G1 X81.059 Y100.831 E25.54428
G1 X81.219 Y100.637 E25.55519
G1 X81.528 Y100.953 F18000
G1 F3000
G1 X81.72 Y100.789 E25.56615
G1 X81.909 Y100.678 E25.57566
G1 X82.053 Y100.621 E25.58239
G1 X82.466 Y100.541 E25.60064
G1 X94.421 Y100.541 E26.11961
G1 X94.744 Y100.594 E26.13381
G1 X95.017 Y100.701 E26.14651
G1 X95.306 Y100.901 E26.16179
G1 X95.467 Y101.089 E26.17253
G1 X95.577 Y101.278 E26.18204
G1 X95.635 Y101.423 E26.18877
G1 X95.714 Y101.835 E26.20702
G1 X95.714 Y118.166 E26.91591
G1 X95.662 Y118.489 E26.9301
G1 X95.555 Y118.761 E26.9428
G1 X95.354 Y119.05 E26.95808
G1 X95.166 Y119.211 E26.96882
G1 X94.977 Y119.322 E26.97833
G1 X94.833 Y119.379 E26.98506
G1 X94.42 Y119.459 E27.00331
G1 X82.465 Y119.459 E27.52228
G1 X82.142 Y119.406 E27.53648
G1 X81.87 Y119.299 E27.54918
G1 X81.581 Y119.099 E27.56446
G1 X81.42 Y118.911 E27.5752
G1 X81.309 Y118.722 E27.58471
G1 X81.252 Y118.577 E27.59144
G1 X81.172 Y118.165 E27.60969
G1 X81.172 Y101.832 E28.31866
G1 X81.203 Y101.595 E28.32904
G1 X81.276 Y101.355 E28.33992
G1 X81.454 Y101.044 E28.35549
G1 X81.503 Y100.984 E28.35883
G1 X81.836 Y101.279 F18000
G1 F3000
G1 X81.936 Y101.182 E28.36488
G1 X82.145 Y101.06 E28.37536
G1 X82.453 Y100.99 E28.38909
G1 X94.432 Y100.99 E28.90909
G1 X94.595 Y101.016 E28.91627
G1 X94.769 Y101.074 E28.92422
G1 X94.977 Y101.205 E28.93488
G1 X95.074 Y101.306 E28.94093
G1 X95.196 Y101.514 E28.95141
G1 X95.266 Y101.822 E28.96514
G1 X95.266 Y118.177 E29.67506
G1 X95.239 Y118.34 E29.68223
G1 X95.181 Y118.514 E29.69018
G1 X95.05 Y118.721 E29.70084
G1 X94.95 Y118.818 E29.70689
G1 X94.742 Y118.94 E29.71738
G1 X94.433 Y119.01 E29.7311
G1 X82.454 Y119.01 E30.25111
G1 X82.291 Y118.984 E30.25828
G1 X82.117 Y118.926 E30.26623
G1 X81.909 Y118.795 E30.27689
G1 X81.813 Y118.694 E30.28294
G1 X81.691 Y118.486 E30.29343
G1 X81.62 Y118.178 E30.30715
G1 X81.62 Y101.823 E31.01707
G1 X81.647 Y101.66 E31.02424
G1 X81.705 Y101.486 E31.0322
G1 X81.815 Y101.313 E31.04112
G1 X82.135 Y101.613 F18000
G1 F3000
G1 X82.259 Y101.494 E31.04857
G1 X82.443 Y101.438 E31.05692
G1 X94.443 Y101.438 E31.57782
G1 X94.643 Y101.505 E31.58695
G1 X94.762 Y101.628 E31.5944
G1 X94.817 Y101.813 E31.60275
G1 X94.817 Y118.188 E32.31356
G1 X94.751 Y118.387 E32.32269
G1 X94.627 Y118.506 E32.33014
G1 X94.443 Y118.562 E32.33849
G1 X82.443 Y118.562 E32.85939
G1 X82.244 Y118.495 E32.86852
G1 X82.125 Y118.372 E32.87597
G1 X82.069 Y118.188 E32.88432
G1 X82.069 Y101.813 E33.59513
G1 X82.123 Y101.651 E33.60253
G1 E31.85253 F6000
;WIPE_START
G1 F3000
G1 X82.259 Y101.494 E31.6966
G1 X82.443 Y101.438 E31.55239
G1 X83.043 Y101.438 E31.10253
;WIPE_END
G92 E0
G1 X94.118 Y102.138 F18000
G1 E2.5 F6000
;TYPE:Outer wall
G1 F3000
G1 X94.118 Y117.863 E3.1826
G1 X82.768 Y117.863 E3.67529
G1 X82.768 Y102.138 E4.35789
G1 X94.058 Y102.138 E4.84797
G1 X93.67 Y102.586 F18000
;TYPE:Inner wall
G1 F3000
G1 X93.67 Y117.414 E5.49163
G1 X83.217 Y117.414 E5.94538
G1 X83.217 Y102.586 E6.58904
G1 X93.61 Y102.586 E7.04019
G1 E5.29019 F6000
;WIPE_START
G1 F3000
G1 X93.614 Y103.586 E4.54019
;WIPE_END
G92 E0
G1 X92.625 Y102.721 F18000
G1 E2.5 F6000
;TYPE:Bottom surface
;WIDTH:0.501741
G1 F3000
G1 X93.333 Y103.429 E2.54366
G1 X93.333 Y104.066 E2.57141
G1 X92.19 Y102.922 E2.64187
G1 X91.553 Y102.922 E2.66962
G1 X93.333 Y104.703 E2.77933
G1 X93.333 Y105.339 E2.80707
G1 X90.916 Y102.922 E2.95602
G1 X90.28 Y102.922 E2.98377
G1 X93.333 Y105.976 E3.17195
G1 X93.333 Y106.613 E3.1997
G1 X89.643 Y102.922 E3.42712
G1 X89.006 Y102.922 E3.45487
G1 X93.333 Y107.249 E3.72153
G1 X93.333 Y107.886 E3.74928
G1 X88.369 Y102.922 E4.05519
G1 X87.733 Y102.922 E4.08293
G1 X93.333 Y108.523 E4.42808
G1 X93.333 Y109.16 E4.45583
G1 X87.096 Y102.922 E4.84021
G1 X86.459 Y102.922 E4.86796
G1 X93.333 Y109.796 E5.29158
G1 X93.333 Y110.433 E5.31933
G1 X85.823 Y102.922 E5.7822
G1 X85.186 Y102.922 E5.80994
G1 X93.333 Y111.07 E6.31205
G1 X93.333 Y111.707 E6.33979
G1 X84.549 Y102.922 E6.88114
G1 X83.912 Y102.922 E6.90889
G1 X93.333 Y112.343 E7.48947
G1 X93.333 Y112.98 E7.51722
G1 X83.553 Y103.2 E8.11995
G1 X83.553 Y103.836 E8.1477
G1 X93.333 Y113.617 E8.75043
G1 X93.333 Y114.253 E8.77818
G1 X83.553 Y104.473 E9.38091
G1 X83.553 Y105.11 E9.40866
G1 X93.333 Y114.89 E10.01139
G1 X93.333 Y115.527 E10.03913
G1 X83.553 Y105.747 E10.64187
G1 X83.553 Y106.383 E10.66961
G1 X93.333 Y116.164 E11.27235
G1 X93.333 Y116.8 E11.30009
G1 X83.553 Y107.02 E11.90282
G1 X83.553 Y107.657 E11.93057
G1 X92.974 Y117.078 E12.51115
G1 X92.337 Y117.078 E12.5389
G1 X83.553 Y108.294 E13.08023
G1 X83.553 Y108.93 E13.10798
G1 X91.7 Y117.078 E13.61008
G1 X91.064 Y117.078 E13.63782
G1 X83.553 Y109.567 E14.10068
G1 X83.553 Y110.204 E14.12843
G1 X90.427 Y117.078 E14.55205
G1 X89.79 Y117.078 E14.57979
G1 X83.553 Y110.841 E14.96417
G1 X83.553 Y111.477 E14.99192
G1 X89.153 Y117.078 E15.33705
G1 X88.517 Y117.078 E15.3648
G1 X83.553 Y112.114 E15.6707
G1 X83.553 Y112.751 E15.69845
G1 X87.88 Y117.078 E15.9651
G1 X87.243 Y117.078 E15.99285
G1 X83.553 Y113.387 E16.22027
G1 X83.553 Y114.024 E16.24801
G1 X86.606 Y117.078 E16.43619
G1 X85.97 Y117.078 E16.46394
