; HEADER_BLOCK_START
; generated by AnycubicSlicerNext 1.3.1 on 2026-02-10 at 17:57:25
; total layer number: 10
; filament_density: 1.24
; filament_diameter: 1.75
; max_z_height: 2.04
; HEADER_BLOCK_END

; THUMBNAIL_BLOCK_START

;
; THUMBNAIL_BLOCK_END

; external perimeters extrusion width = 0.42mm
; perimeters extrusion width = 0.45mm
; infill extrusion width = 0.45mm
; solid infill extrusion width = 0.42mm
; top infill extrusion width = 0.42mm
; first layer extrusion width = 0.50mm

; EXECUTABLE_BLOCK_START
M201 X2000 Y2000 Z800 E2000
M203 X300 Y300 Z8 E100
M204 P2000 R2000 T2000
M205 X10.00 Y10.00 Z2.00 E5.00 ; sets the jerk limits, mm/sec
;TYPE:Custom
G90 ; use absolute coordinates
M83 ; extruder relative mode
M104 S220 ; set extruder temp
M140 S60 ; set bed temp
M190 S60 ; wait for bed temp
M109 S220 ; wait for extruder temp
G28                                        ; move X/Y/Z to min endstops
G1 Z0.28                                   ; lift nozzle a bit 
G92 E0 
G1 Y3 F1800                                    ; zero the extruded length 
G1 X60  E25 F500                       ; Extrude 25mm of filament in a 5cm line. 
G92 E0                                     ; zero the extruded length again 
G1 E-2 F500                                ; Retract a little 
G1 X70 F4000                              ; Quickly wipe away from the filament line
M117
G90
G21
M82 ; use absolute distances for extrusion
G92 E0
; filament start gcode
M106 S0
;LAYER_CHANGE
;Z:0.24
;HEIGHT:0.24
; BEFORE_LAYER_CHANGE 0 @ 0.24mm
G1 E-2.5 F6000
G92 E0
; AFTER_LAYER_CHANGE 0 @ 0.24mm
;_SET_FAN_SPEED_CHANGING_LAYER
M204 P500
; printing object "3118_seat-3.stl" id:0 copy 0
M204 T500
G1 X87.774 Y86.031 F18000
G1 Z.24
G1 E2.5 F6000
;TYPE:Brim
;WIDTH:0.5
G1 F3000
G1 X88.171 Y85.658 E2.52363
G1 X88.627 Y85.316 E2.54838
G1 X88.964 Y85.102 E2.56569
G1 X89.295 Y84.93 E2.58191
G1 X89.797 Y84.714 E2.60562
G1 X90.176 Y84.593 E2.62288
G1 X90.733 Y84.464 E2.6477
G1 X91.101 Y84.415 E2.66384
G1 X91.651 Y84.384 E2.68774
G1 X103.149 Y84.383 E3.18686
G1 X103.791 Y84.431 E3.21482
G1 X104.412 Y84.573 E3.24245
G1 X104.967 Y84.785 E3.26826
G1 X105.356 Y84.99 E3.28733
G1 X105.502 Y85.012 E3.29373
G1 X105.63 Y84.939 E3.30014
G1 X105.683 Y84.82 E3.30581
G1 X105.87 Y83.32 E3.3714
G1 X105.872 Y81.927 E3.43188
G1 X105.92 Y81.285 E3.45983
G1 X106.062 Y80.663 E3.48752
G1 X106.227 Y80.217 E3.50818
G1 X106.559 Y79.57 E3.53972
G1 X106.794 Y78.983 E3.56718
G1 X107.08 Y78.391 E3.59574
G1 X107.509 Y77.672 E3.63206
G1 X107.946 Y77.067 E3.66444
G1 X108.433 Y76.5 E3.6969
G1 X108.913 Y76.022 E3.72631
G1 X109.26 Y75.721 E3.74625
G1 X109.846 Y75.275 E3.77824
G1 X110.476 Y74.873 E3.81066
G1 X111.138 Y74.526 E3.84308
G1 X111.826 Y74.236 E3.87551
G1 X112.544 Y74.002 E3.90831
G1 X113.265 Y73.832 E3.94047
G1 X113.622 Y73.771 E3.95618
G1 X114.369 Y73.691 E3.98878
G1 X114.941 Y73.671 E4.01361
G1 X129.06 Y73.675 E4.6265
G1 X129.792 Y73.72 E4.65835
G1 X130.165 Y73.767 E4.67466
G1 X130.901 Y73.907 E4.70719
G1 X131.621 Y74.107 E4.73961
G1 X132.321 Y74.367 E4.77204
G1 X132.997 Y74.685 E4.80446
G1 X133.644 Y75.058 E4.83689
G1 X134.257 Y75.484 E4.86931
G1 X134.833 Y75.96 E4.90174
G1 X135.367 Y76.483 E4.93416
G1 X135.855 Y77.049 E4.96659
G1 X136.294 Y77.653 E4.99901
G1 X136.68 Y78.292 E5.03144
G1 X137.013 Y78.962 E5.06388
G1 X137.25 Y79.552 E5.09152
G1 X137.648 Y80.362 E5.1307
G1 X137.836 Y80.969 E5.15825
G1 X137.931 Y81.598 E5.18588
G1 X137.945 Y83.32 E5.26065
G1 X139.733 Y97.656 E5.88778
G1 X139.779 Y98.404 E5.92028
G1 X139.779 Y98.784 E5.93677
G1 X139.729 Y99.542 E5.96974
G1 X139.682 Y99.904 E5.98562
G1 X139.538 Y100.65 E6.01859
G1 X139.442 Y101.017 E6.03507
G1 X139.203 Y101.738 E6.06804
G1 X139.066 Y102.078 E6.08393
G1 X138.739 Y102.763 E6.1169
G1 X138.552 Y103.097 E6.13348
G1 X138.359 Y103.41 E6.14946
G1 X137.922 Y104.028 E6.18233
G1 X137.434 Y104.607 E6.2152
G1 X136.904 Y105.138 E6.24776
G1 X136.323 Y105.628 E6.28073
G1 X136.018 Y105.854 E6.29721
G1 X135.382 Y106.264 E6.33006
G1 X134.651 Y106.648 E6.36592
G1 X134.55 Y106.756 E6.37233
G1 X134.538 Y106.903 E6.37874
G1 X134.658 Y107.049 E6.38692
G1 X135.105 Y107.264 E6.40845
G1 X135.751 Y107.634 E6.44079
G1 X136.365 Y108.059 E6.47318
G1 X136.648 Y108.282 E6.48884
G1 X137.207 Y108.78 E6.52133
G1 X137.469 Y109.047 E6.53757
G1 X137.96 Y109.611 E6.57006
G1 X138.18 Y109.898 E6.58571
G1 X138.597 Y110.519 E6.6182
G1 X138.785 Y110.842 E6.63444
G1 X139.121 Y111.511 E6.66694
G1 X139.262 Y111.843 E6.68259
G1 X139.512 Y112.546 E6.71498
G1 X139.701 Y113.266 E6.74727
G1 X139.829 Y114.001 E6.77966
G1 X139.871 Y114.373 E6.7959
G1 X139.906 Y115.117 E6.82824
G1 X139.864 Y116.055 E6.86901
G1 X137.945 Y135.253 E7.7065
G1 X137.943 Y137.535 E7.80559
G1 X137.895 Y138.178 E7.83355
G1 X137.754 Y138.8 E7.86123
G1 X137.588 Y139.247 E7.88194
G1 X137.402 Y139.626 E7.90027
G1 X137.219 Y140.252 E7.9286
G1 X137.1 Y140.585 E7.94393
G1 X136.812 Y141.256 E7.97563
G1 X136.471 Y141.902 E8.00732
G1 X136.28 Y142.216 E8.02329
G1 X136.046 Y142.561 E8.04139
G1 X135.641 Y143.093 E8.07041
G1 X135.154 Y143.635 E8.10202
G1 X134.626 Y144.135 E8.13361
G1 X134.056 Y144.592 E8.16531
G1 X133.757 Y144.803 E8.1812
G1 X133.133 Y145.187 E8.213
G1 X132.822 Y145.354 E8.22831
G1 X132.159 Y145.659 E8.26001
G1 X131.475 Y145.908 E8.2916
G1 X130.773 Y146.1 E8.3232
G1 X130.058 Y146.234 E8.35479
G1 X129.332 Y146.31 E8.38645
G1 X128.775 Y146.329 E8.41065
G1 X115.049 Y146.33 E9.00649
G1 X114.146 Y146.282 E9.04573
G1 X113.783 Y146.238 E9.06158
G1 X113.066 Y146.105 E9.09327
G1 X112.363 Y145.915 E9.12487
G1 X111.678 Y145.668 E9.15647
G1 X111.014 Y145.364 E9.18817
G1 X110.703 Y145.199 E9.20348
G1 X110.08 Y144.817 E9.23518
G1 X109.493 Y144.387 E9.26675
G1 X108.898 Y143.868 E9.30104
G1 X108.431 Y143.39 E9.33005
G1 X108.191 Y143.113 E9.34595
G1 X107.747 Y142.531 E9.37775
G1 X107.55 Y142.238 E9.39308
G1 X107.196 Y141.638 E9.42331
G1 X106.865 Y140.952 E9.45636
G1 X106.604 Y140.273 E9.48796
G1 X106.407 Y139.605 E9.51819
G1 X106.168 Y139.101 E9.54239
G1 X105.98 Y138.494 E9.56998
G1 X105.885 Y137.865 E9.5976
G1 X105.872 Y135.918 E9.68209
G1 X105.823 Y135.779 E9.6885
G1 X105.697 Y135.701 E9.69491
G1 X105.549 Y135.719 E9.7014
G1 X104.714 Y136.129 E9.74178
G1 X104.108 Y136.317 E9.76933
G1 X103.479 Y136.412 E9.79692
G1 X91.663 Y136.425 E10.30986
G1 X91.264 Y136.406 E10.32717
G1 X90.695 Y136.32 E10.35219
G1 X90.003 Y136.13 E10.38335
G1 X89.308 Y135.81 E10.41654
G1 X88.609 Y135.354 E10.45278
G1 X88.259 Y135.046 E10.47301
G1 X87.831 Y134.569 E10.50083
G1 X87.499 Y134.079 E10.52654
G1 X87.126 Y133.342 E10.56238
G1 X86.903 Y132.603 E10.59589
G1 X86.799 Y131.975 E10.62351
G1 X86.777 Y131.538 E10.6425
G1 X86.777 Y118.363 E11.2144
G1 X86.728 Y118.224 E11.22081
G1 X86.592 Y118.142 E11.22771
G1 X83.837 Y117.657 E11.34913
G1 X83.213 Y117.498 E11.37709
G1 X82.626 Y117.251 E11.40472
G1 X82.117 Y116.945 E11.43052
G1 X81.612 Y116.553 E11.45826
G1 X81.174 Y116.093 E11.48585
G1 X80.808 Y115.573 E11.51344
G1 X80.526 Y115.006 E11.54094
G1 X80.293 Y114.235 E11.57589
G1 X80.192 Y113.499 E11.60814
G1 X80.208 Y112.86 E11.63586
G1 X80.252 Y112.542 E11.64984
G1 X80.505 Y111.106 E11.7131
G1 X80.599 Y110.738 E11.72961
G1 X80.6 Y110.631 E11.73426
G1 X80.505 Y110.233 E11.75199
G1 X80.161 Y108.278 E11.83816
G1 X80.096 Y107.637 E11.86612
G1 X80.128 Y107 E11.8938
G1 X80.213 Y106.532 E11.91446
G1 X80.437 Y105.809 E11.94733
G1 X80.719 Y105.24 E11.97487
G1 X81.083 Y104.719 E12.00246
G1 X81.519 Y104.26 E12.02996
G1 X82.164 Y103.777 E12.06491
G1 X82.821 Y103.431 E12.09716
G1 X83.423 Y103.229 E12.12472
G1 X86.063 Y102.75 E12.24119
G1 X86.191 Y102.678 E12.2476
G1 X86.247 Y102.53 E12.25446
G1 X86.247 Y89.8 E12.80703
G1 X86.278 Y89.251 E12.83092
G1 X86.328 Y88.867 E12.84772
G1 X86.413 Y88.477 E12.86503
G1 X86.579 Y87.932 E12.88978
G1 X86.794 Y87.431 E12.91341
G1 X86.979 Y87.078 E12.93074
G1 X87.18 Y86.763 E12.94696
G1 X87.506 Y86.325 E12.97067
G1 X87.747 Y86.061 E12.9862
G1 X88.079 Y86.363 F18000
G1 F3000
G1 X88.098 Y86.342 E12.9874
G1 X88.466 Y85.997 E13.0093
G1 X88.886 Y85.682 E13.03209
G1 X89.183 Y85.494 E13.04734
G1 X89.492 Y85.333 E13.06248
G1 X89.948 Y85.137 E13.08401
G1 X90.29 Y85.028 E13.09959
G1 X90.82 Y84.905 E13.1232
G1 X91.148 Y84.862 E13.1376
G1 X91.668 Y84.832 E13.16017
G1 X103.137 Y84.832 E13.65806
G1 X103.715 Y84.875 E13.68319
G1 X104.272 Y85.001 E13.708
G1 X104.774 Y85.191 E13.73131
G1 X105.136 Y85.382 E13.74906
G1 X105.3 Y85.435 E13.75653
G1 X105.421 Y85.454 E13.76184
G1 X105.619 Y85.442 E13.77048
G1 X105.844 Y85.332 E13.78134
G1 X105.991 Y85.201 E13.78988
G1 X106.089 Y85.008 E13.79929
G1 X106.129 Y84.865 E13.80572
G1 X106.314 Y83.384 E13.87052
G1 X106.321 Y81.949 E13.93283
G1 X106.364 Y81.362 E13.95838
G1 X106.491 Y80.8 E13.98338
G1 X106.642 Y80.391 E14.00233
G1 X106.955 Y79.78 E14.0321
G1 X107.203 Y79.168 E14.06077
G1 X107.478 Y78.599 E14.08823
G1 X107.881 Y77.924 E14.12234
G1 X108.295 Y77.35 E14.15306
G1 X108.758 Y76.81 E14.18395
G1 X109.215 Y76.354 E14.21197
G1 X109.546 Y76.066 E14.23101
G1 X110.108 Y75.64 E14.2616
G1 X110.697 Y75.265 E14.29191
G1 X111.324 Y74.935 E14.3227
G1 X111.988 Y74.655 E14.35398
G1 X112.671 Y74.433 E14.38514
G1 X113.35 Y74.273 E14.41544
G1 X113.68 Y74.216 E14.42995
G1 X114.406 Y74.139 E14.46163
G1 X114.951 Y74.119 E14.48532
G1 X129.041 Y74.123 E15.09697
G1 X129.746 Y74.167 E15.12761
G1 X130.091 Y74.21 E15.14269
G1 X130.793 Y74.343 E15.17373
G1 X131.477 Y74.533 E15.20452
G1 X132.142 Y74.779 E15.23531
G1 X132.784 Y75.08 E15.2661
G1 X133.399 Y75.434 E15.29689
G1 X133.981 Y75.839 E15.32768
G1 X134.528 Y76.29 E15.35847
G1 X135.035 Y76.786 E15.38926
G1 X135.499 Y77.323 E15.42005
G1 X135.916 Y77.897 E15.45084
G1 X136.284 Y78.503 E15.48163
G1 X136.601 Y79.14 E15.51251
G1 X136.85 Y79.755 E15.54128
G1 X137.233 Y80.539 E15.57917
G1 X137.399 Y81.079 E15.6037
G1 X137.481 Y81.624 E15.62764
G1 X137.501 Y83.383 E15.70401
G1 X139.286 Y97.694 E16.33002
G1 X139.331 Y98.413 E16.3613
G1 X139.33 Y98.764 E16.37654
G1 X139.283 Y99.494 E16.40828
G1 X139.24 Y99.829 E16.42293
G1 X139.101 Y100.546 E16.45466
G1 X139.012 Y100.886 E16.4699
G1 X138.783 Y101.58 E16.50163
G1 X138.657 Y101.893 E16.51628
G1 X138.342 Y102.553 E16.54801
G1 X138.167 Y102.867 E16.56362
G1 X137.982 Y103.166 E16.57889
G1 X137.57 Y103.749 E16.60988
G1 X137.099 Y104.308 E16.64159
G1 X136.595 Y104.811 E16.6725
G1 X136.048 Y105.273 E16.70359
G1 X135.759 Y105.487 E16.7192
G1 X135.161 Y105.873 E16.7501
G1 X134.452 Y106.246 E16.78486
G1 X134.315 Y106.35 E16.79233
G1 X134.232 Y106.439 E16.79764
G1 X134.129 Y106.609 E16.80627
G1 X134.093 Y106.857 E16.81714
G1 X134.117 Y107.051 E16.82563
G1 X134.199 Y107.197 E16.83289
G1 X134.302 Y107.322 E16.83992
G1 X134.477 Y107.459 E16.84955
G1 X134.9 Y107.663 E16.86994
G1 X135.516 Y108.017 E16.9008
G1 X136.095 Y108.417 E16.93134
G1 X136.357 Y108.623 E16.94578
G1 X136.894 Y109.103 E16.97705
G1 X137.137 Y109.349 E16.99206
G1 X137.61 Y109.892 E17.02334
G1 X137.817 Y110.163 E17.03814
G1 X138.214 Y110.754 E17.06905
G1 X138.389 Y111.053 E17.08406
G1 X138.712 Y111.696 E17.11533
G1 X138.846 Y112.01 E17.13013
G1 X139.081 Y112.673 E17.16068
G1 X139.261 Y113.356 E17.19134
G1 X139.385 Y114.06 E17.22236
G1 X139.423 Y114.404 E17.23737
G1 X139.457 Y115.124 E17.26866
G1 X139.416 Y116.027 E17.30789
G1 X137.499 Y135.201 E18.14439
G1 X137.495 Y137.514 E18.24476
G1 X137.448 Y138.121 E18.27118
G1 X137.32 Y138.68 E18.29608
G1 X137.173 Y139.074 E18.31435
G1 X136.969 Y139.511 E18.3353
G1 X136.685 Y140.412 E18.3763
G1 X136.41 Y141.058 E18.40677
G1 X136.083 Y141.676 E18.43713
G1 X135.904 Y141.971 E18.4521
G1 X135.68 Y142.303 E18.46949
G1 X135.291 Y142.81 E18.49723
G1 X134.837 Y143.317 E18.5268
G1 X134.335 Y143.793 E18.5568
G1 X133.789 Y144.231 E18.58716
G1 X133.513 Y144.426 E18.60185
G1 X132.913 Y144.796 E18.63245
G1 X132.619 Y144.954 E18.64693
G1 X131.983 Y145.245 E18.6773
G1 X131.334 Y145.481 E18.7073
G1 X130.677 Y145.661 E18.73683
G1 X129.998 Y145.789 E18.76683
G1 X129.306 Y145.862 E18.79707
G1 X128.765 Y145.881 E18.82056
G1 X115.064 Y145.881 E19.41529
G1 X114.18 Y145.835 E19.45369
G1 X113.847 Y145.794 E19.46826
G1 X113.171 Y145.668 E19.49814
G1 X112.503 Y145.488 E19.52814
G1 X111.843 Y145.25 E19.55862
G1 X111.216 Y144.964 E19.58851
G1 X110.929 Y144.811 E19.60264
G1 X110.326 Y144.441 E19.63336
G1 X109.769 Y144.033 E19.66332
G1 X109.203 Y143.538 E19.69597
G1 X108.764 Y143.089 E19.72322
G1 X108.542 Y142.833 E19.73794
G1 X108.114 Y142.273 E19.76854
G1 X107.596 Y141.433 E19.81136
G1 X107.279 Y140.779 E19.84291
G1 X107.031 Y140.134 E19.87293
G1 X106.84 Y139.487 E19.90218
G1 X106.584 Y138.929 E19.92886
G1 X106.417 Y138.384 E19.9536
G1 X106.334 Y137.839 E19.97751
G1 X106.321 Y135.927 E20.06053
G1 X106.291 Y135.757 E20.06799
G1 X106.25 Y135.642 E20.0733
G1 X106.146 Y135.472 E20.08194
G1 X105.943 Y135.326 E20.09281
G1 X105.76 Y135.26 E20.10124
G1 X105.503 Y135.273 E20.1124
G1 X105.34 Y135.321 E20.11977
G1 X104.538 Y135.714 E20.15856
G1 X103.998 Y135.88 E20.18309
G1 X103.435 Y135.963 E20.20777
G1 X91.676 Y135.976 E20.71821
G1 X91.315 Y135.959 E20.7339
G1 X90.78 Y135.879 E20.75739
G1 X90.168 Y135.71 E20.78497
G1 X89.534 Y135.42 E20.81519
G1 X88.873 Y134.99 E20.84944
G1 X88.57 Y134.721 E20.86703
G1 X88.191 Y134.299 E20.89166
G1 X87.882 Y133.843 E20.91555
G1 X87.541 Y133.163 E20.94858
G1 X87.343 Y132.509 E20.97824
G1 X87.246 Y131.919 E21.00419
G1 X87.226 Y131.523 E21.0214
G1 X87.226 Y118.375 E21.59217
G1 X87.197 Y118.205 E21.59964
G1 X87.157 Y118.089 E21.60495
G1 X87.054 Y117.92 E21.61352
G1 X86.827 Y117.762 E21.62556
G1 X86.658 Y117.699 E21.63341
G1 X83.927 Y117.217 E21.75379
G1 X83.366 Y117.074 E21.77891
G1 X82.838 Y116.854 E21.80372
G1 X82.364 Y116.569 E21.82772
G1 X81.907 Y116.212 E21.85291
G1 X81.516 Y115.8 E21.87759
G1 X81.19 Y115.333 E21.90227
G1 X80.941 Y114.829 E21.92671
G1 X80.735 Y114.149 E21.95752
G1 X80.643 Y113.485 E21.98665
G1 X80.655 Y112.904 E22.01185
G1 X80.695 Y112.614 E22.02458
G1 X80.943 Y111.206 E22.08664
G1 X81.03 Y110.86 E22.10213
G1 X81.047 Y110.642 E22.11159
G1 X80.606 Y108.223 E22.21836
G1 X80.547 Y107.636 E22.24395
G1 X80.574 Y107.061 E22.26895
G1 X80.648 Y106.647 E22.28719
G1 X80.86 Y105.966 E22.31815
G1 X81.112 Y105.462 E22.34262
G1 X81.426 Y105.012 E22.36643
G1 X81.828 Y104.589 E22.39174
G1 X82.396 Y104.164 E22.42255
G1 X82.989 Y103.85 E22.45168
G1 X83.526 Y103.667 E22.4763
G1 X86.132 Y103.194 E22.59128
G1 X86.4 Y103.075 E22.60401
G1 X86.552 Y102.941 E22.61281
G1 X86.614 Y102.827 E22.61845
G1 X86.663 Y102.699 E22.62438
G1 X86.696 Y102.517 E22.63239
G1 X86.696 Y89.816 E23.18373
G1 X86.725 Y89.297 E23.20631
G1 X86.769 Y88.95 E23.22152
G1 X86.849 Y88.585 E23.2377
G1 X87.004 Y88.079 E23.26069
G1 X87.201 Y87.62 E23.28238
G1 X87.365 Y87.308 E23.29767
G1 X87.546 Y87.022 E23.31237
G1 X87.849 Y86.616 E23.33434
G1 X88.052 Y86.392 E23.34748
G1 X88.385 Y86.694 F18000
G1 F3000
G1 X88.414 Y86.661 E23.34938
G1 X88.761 Y86.337 E23.36998
G1 X89.145 Y86.049 E23.39084
G1 X89.412 Y85.881 E23.40452
G1 X89.689 Y85.737 E23.41808
G1 X90.099 Y85.56 E23.43746
G1 X90.404 Y85.462 E23.45136
G1 X90.906 Y85.346 E23.47374
G1 X91.195 Y85.308 E23.48638
G1 X91.684 Y85.281 E23.50764
G1 X103.126 Y85.281 E24.00431
G1 X103.638 Y85.319 E24.02662
G1 X104.133 Y85.429 E24.04863
G1 X104.582 Y85.598 E24.06945
G1 X105.004 Y85.81 E24.08993
G1 X105.238 Y85.879 E24.10055
G1 X105.457 Y85.901 E24.11008
G1 X105.631 Y85.891 E24.11767
G1 X105.829 Y85.839 E24.12654
G1 X106.029 Y85.741 E24.1362
G1 X106.282 Y85.541 E24.15021
G1 X106.394 Y85.396 E24.15816
G1 X106.524 Y85.119 E24.17142
G1 X106.575 Y84.913 E24.18066
G1 X106.758 Y83.448 E24.24477
G1 X106.769 Y81.971 E24.30888
G1 X106.811 Y81.418 E24.33292
G1 X106.92 Y80.936 E24.35437
G1 X107.051 Y80.579 E24.3709
G1 X107.352 Y79.99 E24.3996
G1 X107.611 Y79.354 E24.42944
G1 X107.876 Y78.807 E24.45582
G1 X108.253 Y78.176 E24.48773
G1 X108.645 Y77.632 E24.5168
G1 X109.084 Y77.119 E24.54613
G1 X109.518 Y76.685 E24.57275
G1 X109.833 Y76.412 E24.59087
G1 X110.369 Y76.005 E24.62006
G1 X110.927 Y75.651 E24.64876
G1 X111.511 Y75.343 E24.67743
G1 X112.14 Y75.078 E24.70705
G1 X112.797 Y74.864 E24.73706
G1 X113.436 Y74.713 E24.76554
