; HEADER_BLOCK_START
; generated by AnycubicSlicerNext 1.3.1 on 2026-02-10 at 15:13:33
; total layer number: 67
; filament_density: 1.24
; filament_diameter: 1.75
; max_z_height: 13.44
; HEADER_BLOCK_END

; THUMBNAIL_BLOCK_START

;
; THUMBNAIL_BLOCK_END

; external perimeters extrusion width = 0.42mm
; perimeters extrusion width = 0.45mm
; infill extrusion width = 0.45mm
; solid infill extrusion width = 0.42mm
; top infill extrusion width = 0.42mm
; first layer extrusion width = 0.50mm

; external perimeters extrusion width = 0.42mm
; perimeters extrusion width = 0.45mm
; infill extrusion width = 0.45mm
; solid infill extrusion width = 0.42mm
; top infill extrusion width = 0.42mm
; first layer extrusion width = 0.50mm

; EXECUTABLE_BLOCK_START
M201 X2000 Y2000 Z800 E2000
M203 X300 Y300 Z8 E100
M204 P2000 R2000 T2000
M205 X10.00 Y10.00 Z2.00 E5.00 ; sets the jerk limits, mm/sec
;TYPE:Custom
G90 ; use absolute coordinates
M83 ; extruder relative mode
M104 S220 ; set extruder temp
M140 S60 ; set bed temp
M190 S60 ; wait for bed temp
M109 S220 ; wait for extruder temp
G28                                        ; move X/Y/Z to min endstops
G1 Z0.28                                   ; lift nozzle a bit 
G92 E0 
G1 Y3 F1800                                    ; zero the extruded length 
G1 X60  E25 F500                       ; Extrude 25mm of filament in a 5cm line. 
G92 E0                                     ; zero the extruded length again 
G1 E-2 F500                                ; Retract a little 
G1 X70 F4000                              ; Quickly wipe away from the filament line
M117
G90
G21
M82 ; use absolute distances for extrusion
G92 E0
; filament start gcode
M106 S0
;LAYER_CHANGE
;Z:0.24
;HEIGHT:0.24
; BEFORE_LAYER_CHANGE 0 @ 0.24mm
G1 E-2.5 F6000
G92 E0
; AFTER_LAYER_CHANGE 0 @ 0.24mm
;_SET_FAN_SPEED_CHANGING_LAYER
M204 P500
; printing object "3118_platform.stl" id:0 copy 0
M204 T500
G1 X107.29 Y58.719 F18000
G1 Z.24
G1 E2.5 F6000
;TYPE:Brim
;WIDTH:0.5
G1 F3000
G1 X107.667 Y58.208 E2.52759
G1 X108.116 Y57.758 E2.55519
G1 X108.625 Y57.381 E2.58269
G1 X109.344 Y57.018 E2.61763
G1 X110.051 Y56.791 E2.64988
G1 X110.683 Y56.695 E2.6776
G1 X111.004 Y56.683 E2.69158
G1 X170.992 Y56.683 E5.29554
G1 X171.634 Y56.731 E5.3235
G1 X172.256 Y56.873 E5.35118
G1 X172.702 Y57.038 E5.37184
G1 X173.376 Y57.384 E5.40472
G1 X173.886 Y57.761 E5.43226
G1 X174.336 Y58.21 E5.45985
G1 X174.712 Y58.718 E5.4873
G1 X175.115 Y59.537 E5.52693
G1 X175.303 Y60.144 E5.55448
G1 X175.399 Y60.777 E5.58226
G1 X175.411 Y61.098 E5.59623
G1 X175.411 Y158.898 E9.84156
G1 X175.363 Y159.54 E9.86952
G1 X175.221 Y160.161 E9.89715
G1 X175.009 Y160.716 E9.92295
G1 X174.71 Y161.281 E9.95069
G1 X174.333 Y161.792 E9.97828
G1 X173.884 Y162.242 E10.00587
G1 X173.375 Y162.619 E10.03337
G1 X172.656 Y162.982 E10.06832
G1 X171.949 Y163.209 E10.10057
G1 X171.317 Y163.305 E10.12829
G1 X170.996 Y163.317 E10.14227
G1 X111.008 Y163.317 E12.74623
G1 X110.366 Y163.269 E12.77419
G1 X109.745 Y163.127 E12.80182
G1 X109.19 Y162.915 E12.82762
G1 X108.625 Y162.616 E12.85535
G1 X108.114 Y162.239 E12.88295
G1 X107.664 Y161.79 E12.91054
G1 X107.287 Y161.281 E12.93804
G1 X106.924 Y160.562 E12.97299
G1 X106.697 Y159.855 E13.00524
G1 X106.601 Y159.223 E13.03296
G1 X106.589 Y158.902 E13.04693
G1 X106.589 Y61.102 E17.29226
G1 X106.637 Y60.46 E17.32022
G1 X106.779 Y59.839 E17.34785
G1 X106.991 Y59.284 E17.37365
G1 X107.271 Y58.755 E17.39965
G1 X107.666 Y58.967 F18000
G1 F3000
G1 X108.015 Y58.494 E17.42519
G1 X108.418 Y58.092 E17.44987
G1 X108.872 Y57.759 E17.47432
G1 X109.505 Y57.439 E17.50512
G1 X110.143 Y57.232 E17.53425
G1 X110.717 Y57.144 E17.55945
G1 X111.01 Y57.132 E17.57218
G1 X170.98 Y57.132 E20.17538
G1 X171.577 Y57.178 E20.20137
G1 X172.119 Y57.302 E20.2255
G1 X172.513 Y57.447 E20.24374
G1 X173.129 Y57.762 E20.27376
G1 X173.6 Y58.109 E20.29917
G1 X173.988 Y58.497 E20.32298
G1 X174.32 Y58.943 E20.34713
G1 X174.693 Y59.694 E20.38353
G1 X174.866 Y60.254 E20.40897
G1 X174.95 Y60.811 E20.43343
G1 X174.962 Y61.104 E20.44616
G1 X174.962 Y158.876 E24.69028
G1 X174.919 Y159.463 E24.71583
G1 X174.793 Y160.021 E24.74064
G1 X174.596 Y160.537 E24.76465
G1 X174.334 Y161.033 E24.78897
G1 X173.985 Y161.506 E24.81452
G1 X173.582 Y161.908 E24.83919
G1 X173.128 Y162.241 E24.86364
G1 X172.495 Y162.561 E24.89444
G1 X171.857 Y162.768 E24.92358
G1 X171.283 Y162.856 E24.94878
G1 X170.985 Y162.868 E24.96173
G1 X111.03 Y162.868 E27.56426
G1 X110.443 Y162.825 E27.58982
G1 X109.885 Y162.699 E27.61463
G1 X109.369 Y162.502 E27.63864
G1 X108.873 Y162.24 E27.66296
G1 X108.4 Y161.891 E27.6885
G1 X107.998 Y161.488 E27.71318
G1 X107.665 Y161.034 E27.73763
G1 X107.345 Y160.401 E27.76843
G1 X107.138 Y159.763 E27.79756
G1 X107.05 Y159.189 E27.82276
G1 X107.038 Y158.891 E27.83571
G1 X107.038 Y61.124 E32.07962
G1 X107.081 Y60.537 E32.10517
G1 X107.207 Y59.979 E32.12998
G1 X107.404 Y59.463 E32.15399
G1 X107.647 Y59.003 E32.17657
G1 X108.042 Y59.215 F18000
G1 F3000
G1 X108.363 Y58.78 E32.20005
G1 X108.719 Y58.428 E32.22177
G1 X109.117 Y58.137 E32.24318
G1 X109.667 Y57.86 E32.26991
G1 X110.237 Y57.673 E32.29596
G1 X110.753 Y57.592 E32.31864
G1 X111.017 Y57.58 E32.33008
G1 X170.957 Y57.581 E34.93202
G1 X171.519 Y57.625 E34.95648
G1 X171.983 Y57.731 E34.97712
G1 X172.326 Y57.856 E34.99296
G1 X172.883 Y58.14 E35.0201
G1 X173.314 Y58.457 E35.04337
G1 X173.641 Y58.784 E35.06342
G1 X173.929 Y59.168 E35.08428
G1 X174.27 Y59.851 E35.11742
G1 X174.429 Y60.365 E35.14074
G1 X174.502 Y60.847 E35.16191
G1 X174.514 Y61.111 E35.17337
G1 X174.514 Y158.854 E39.41628
G1 X174.475 Y159.387 E39.43946
G1 X174.365 Y159.881 E39.46144
G1 X174.189 Y160.344 E39.48293
G1 X173.958 Y160.785 E39.50453
G1 X173.637 Y161.22 E39.52801
G1 X173.281 Y161.572 E39.54973
G1 X172.883 Y161.863 E39.57114
G1 X172.333 Y162.14 E39.59787
G1 X171.763 Y162.327 E39.62392
G1 X171.247 Y162.408 E39.64659
G1 X170.973 Y162.42 E39.6585
G1 X111.052 Y162.42 E42.25958
G1 X110.519 Y162.381 E42.28277
G1 X110.025 Y162.271 E42.30475
G1 X109.562 Y162.095 E42.32624
G1 X109.121 Y161.864 E42.34784
G1 X108.686 Y161.543 E42.37132
G1 X108.334 Y161.187 E42.39304
G1 X108.043 Y160.789 E42.41444
G1 X107.766 Y160.239 E42.44118
G1 X107.579 Y159.669 E42.46722
G1 X107.498 Y159.153 E42.4899
G1 X107.486 Y158.879 E42.5018
G1 X107.486 Y61.146 E46.74426
G1 X107.525 Y60.613 E46.76744
G1 X107.635 Y60.119 E46.78942
G1 X107.811 Y59.656 E46.81091
G1 X108.024 Y59.251 E46.83077
G1 X108.419 Y59.463 F18000
G1 F3000
G1 X108.711 Y59.067 E46.85215
G1 X109.018 Y58.764 E46.87087
G1 X109.362 Y58.516 E46.88926
G1 X109.829 Y58.28 E46.912
G1 X110.332 Y58.114 E46.93498
G1 X110.791 Y58.04 E46.95515
G1 X111.023 Y58.029 E46.96526
G1 X170.934 Y58.029 E49.56591
G1 X171.461 Y58.072 E49.58883
G1 X171.847 Y58.16 E49.60605
G1 X172.139 Y58.265 E49.61948
G1 X172.636 Y58.518 E49.64372
G1 X173.029 Y58.806 E49.66484
G1 X173.307 Y59.086 E49.682
G1 X173.539 Y59.395 E49.69876
G1 X173.848 Y60.009 E49.7286
G1 X173.992 Y60.475 E49.74977
G1 X174.054 Y60.883 E49.76769
G1 X174.065 Y61.117 E49.77787
G1 X174.065 Y158.833 E54.01955
G1 X174.03 Y159.312 E54.0404
G1 X173.936 Y159.743 E54.05956
G1 X173.783 Y160.152 E54.07852
G1 X173.581 Y160.537 E54.09737
G1 X173.289 Y160.933 E54.11875
G1 X172.982 Y161.236 E54.13747
G1 X172.638 Y161.484 E54.15586
G1 X172.171 Y161.72 E54.1786
G1 X171.668 Y161.886 E54.20158
G1 X171.21 Y161.96 E54.22173
G1 X170.96 Y161.971 E54.23256
G1 X111.073 Y161.971 E56.83218
G1 X110.594 Y161.936 E56.85302
G1 X110.163 Y161.842 E56.87218
G1 X109.754 Y161.689 E56.89115
G1 X109.369 Y161.487 E56.91
G1 X108.973 Y161.195 E56.93137
G1 X108.67 Y160.888 E56.9501
G1 X108.422 Y160.544 E56.96848
G1 X108.186 Y160.077 E56.99123
G1 X108.02 Y159.574 E57.01421
G1 X107.946 Y159.116 E57.03436
G1 X107.935 Y158.866 E57.04519
G1 X107.935 Y61.167 E61.28617
G1 X107.97 Y60.688 E61.30701
G1 X108.064 Y60.257 E61.32617
G1 X108.217 Y59.848 E61.34514
G1 X108.4 Y59.499 E61.36225
G1 X108.795 Y59.711 F18000
G1 F3000
G1 X109.058 Y59.354 E61.38149
G1 X109.317 Y59.102 E61.39716
G1 X109.605 Y58.896 E61.41255
G1 X110.011 Y58.692 E61.43227
G1 X110.429 Y58.555 E61.45134
G1 X110.83 Y58.488 E61.46899
G1 X111.037 Y58.478 E61.47802
G1 X170.911 Y58.478 E64.07703
G1 X171.402 Y58.518 E64.09842
G1 X171.713 Y58.589 E64.11229
G1 X171.952 Y58.675 E64.12331
G1 X172.391 Y58.896 E64.14462
G1 X172.742 Y59.154 E64.16356
G1 X172.961 Y59.373 E64.17699
G1 X173.149 Y59.623 E64.19055
G1 X173.425 Y60.168 E64.21707
G1 X173.555 Y60.586 E64.23608
G1 X173.606 Y60.92 E64.25078
G1 X173.616 Y61.131 E64.25994
G1 X173.617 Y158.812 E68.5001
G1 X173.586 Y159.238 E68.51864
G1 X173.507 Y159.606 E68.535
G1 X173.375 Y159.961 E68.55143
G1 X173.205 Y160.289 E68.56749
G1 X172.942 Y160.646 E68.58673
G1 X172.683 Y160.898 E68.6024
G1 X172.395 Y161.104 E68.61779
G1 X171.989 Y161.308 E68.63751
G1 X171.571 Y161.445 E68.65658
G1 X171.171 Y161.512 E68.6742
G1 X170.947 Y161.523 E68.68394
G1 X111.094 Y161.523 E71.28205
G1 X110.668 Y161.492 E71.30059
G1 X110.3 Y161.413 E71.31695
G1 X109.945 Y161.281 E71.33338
G1 X109.617 Y161.111 E71.34944
G1 X109.26 Y160.848 E71.36867
G1 X109.008 Y160.589 E71.38435
G1 X108.802 Y160.301 E71.39973
G1 X108.598 Y159.895 E71.41945
G1 X108.461 Y159.477 E71.43853
G1 X108.394 Y159.077 E71.45615
G1 X108.383 Y158.853 E71.46588
G1 X108.383 Y61.188 E75.70537
G1 X108.414 Y60.762 E75.7239
G1 X108.493 Y60.394 E75.74026
G1 X108.625 Y60.039 E75.75669
G1 X108.777 Y59.746 E75.77102
G1 X109.187 Y59.965 F18000
G1 F3000
G1 X109.216 Y59.911 E75.77369
G1 X109.449 Y59.611 E75.79015
G1 X109.767 Y59.338 E75.80837
G1 X110.167 Y59.115 E75.82824
G1 X110.466 Y59.018 E75.84187
G1 X111.045 Y58.926 E75.86733
G1 X170.956 Y58.926 E78.46798
G1 X171.539 Y59.018 E78.4936
G1 X172.008 Y59.206 E78.51554
G1 X172.471 Y59.534 E78.54016
G1 X172.56 Y59.62 E78.54553
G1 X172.806 Y59.933 E78.56283
G1 X172.931 Y60.153 E78.57382
G1 X173.046 Y60.455 E78.58784
G1 X173.168 Y61.141 E78.6181
G1 X173.168 Y158.862 E82.86001
G1 X173.076 Y159.445 E82.88563
G1 X172.888 Y159.914 E82.90757
G1 X172.56 Y160.377 E82.93219
G1 X172.474 Y160.466 E82.93756
G1 X172.161 Y160.712 E82.95486
G1 X171.941 Y160.837 E82.96585
G1 X171.639 Y160.952 E82.97987
G1 X170.953 Y161.074 E83.01013
G1 X111.044 Y161.074 E85.61068
G1 X110.461 Y160.982 E85.6363
G1 X109.992 Y160.794 E85.65823
G1 X109.529 Y160.466 E85.68286
G1 X109.44 Y160.38 E85.68823
G1 X109.194 Y160.067 E85.70552
G1 X109.069 Y159.847 E85.71651
G1 X108.954 Y159.545 E85.73053
G1 X108.832 Y158.859 E85.7608
G1 X108.832 Y61.13 E90.00306
G1 X108.885 Y60.698 E90.02195
G1 X109.011 Y60.296 E90.04023
G1 X109.168 Y60 E90.05478
G1 X109.564 Y60.211 F18000
G1 F3000
G1 X109.617 Y60.111 E90.05968
G1 X109.801 Y59.888 E90.07224
G1 X110.058 Y59.679 E90.08659
G1 X110.307 Y59.541 E90.09896
G1 X110.533 Y59.461 E90.10939
G1 X111.034 Y59.374 E90.13146
G1 X170.967 Y59.374 E92.73304
G1 X171.475 Y59.462 E92.75545
G1 X171.84 Y59.621 E92.77272
G1 X172.208 Y59.897 E92.79265
G1 X172.416 Y60.153 E92.80697
G1 X172.517 Y60.326 E92.81567
G1 X172.604 Y60.529 E92.82528
G1 X172.72 Y61.13 E92.85183
G1 X172.72 Y158.873 E97.09471
G1 X172.632 Y159.381 E97.11712
G1 X172.473 Y159.746 E97.13439
G1 X172.197 Y160.114 E97.15432
G1 X171.941 Y160.322 E97.16864
G1 X171.768 Y160.423 E97.17735
G1 X171.565 Y160.51 E97.18695
G1 X170.964 Y160.626 E97.2135
G1 X111.033 Y160.626 E99.81502
G1 X110.525 Y160.538 E99.83743
G1 X110.16 Y160.379 E99.8547
G1 X109.792 Y160.103 E99.87463
G1 X109.584 Y159.847 E99.88895
G1 X109.483 Y159.674 E99.89766
G1 X109.396 Y159.471 E99.90726
G1 X109.28 Y158.87 E99.93381
G1 X109.28 Y61.122 E104.17694
G1 X109.315 Y60.826 E104.18985
G1 X109.401 Y60.518 E104.20375
G1 X109.545 Y60.246 E104.21711
G1 X109.931 Y60.466 F18000
G1 F3000
G1 X110.011 Y60.325 E104.22415
G1 X110.085 Y60.235 E104.22923
G1 X110.277 Y60.071 E104.24019
G1 X110.466 Y59.96 E104.2497
G1 X110.61 Y59.903 E104.25643
G1 X111.023 Y59.823 E104.27468
G1 X170.978 Y59.823 E106.87726
G1 X171.301 Y59.875 E106.89146
G1 X171.573 Y59.982 E106.90416
G1 X171.863 Y60.183 E106.91944
G1 X172.023 Y60.371 E106.93018
G1 X172.134 Y60.56 E106.93969
G1 X172.191 Y60.704 E106.94642
G1 X172.271 Y61.117 E106.96467
G1 X172.271 Y158.884 E111.20862
G1 X172.219 Y159.207 E111.22281
G1 X172.112 Y159.479 E111.23552
G1 X171.911 Y159.769 E111.25079
G1 X171.723 Y159.929 E111.26153
G1 X171.534 Y160.04 E111.27104
G1 X171.39 Y160.097 E111.27777
G1 X170.977 Y160.177 E111.29602
G1 X111.022 Y160.177 E113.8986
G1 X110.699 Y160.125 E113.9128
G1 X110.427 Y160.018 E113.9255
G1 X110.137 Y159.817 E113.94078
G1 X109.977 Y159.629 E113.95152
G1 X109.866 Y159.44 E113.96103
G1 X109.809 Y159.296 E113.96776
G1 X109.729 Y158.883 E113.98601
G1 X109.729 Y61.114 E118.23004
G1 X109.76 Y60.877 E118.24042
G1 X109.833 Y60.637 E118.2513
G1 X109.911 Y60.501 E118.25809
G1 X110.282 Y60.736 F18000
G1 F3000
G1 X110.393 Y60.56 E118.26709
G1 X110.493 Y60.464 E118.27314
G1 X110.702 Y60.341 E118.28362
G1 X111.01 Y60.271 E118.29735
G1 X170.989 Y60.271 E120.90096
G1 X171.152 Y60.298 E120.90814
G1 X171.326 Y60.356 E120.91609
G1 X171.534 Y60.487 E120.92675
G1 X171.63 Y60.587 E120.9328
G1 X171.753 Y60.796 E120.94328
G1 X171.823 Y61.104 E120.95701
G1 X171.823 Y158.895 E125.20198
G1 X171.796 Y159.058 E125.20916
G1 X171.738 Y159.232 E125.21711
G1 X171.607 Y159.44 E125.22777
G1 X171.507 Y159.536 E125.23382
G1 X171.298 Y159.659 E125.2443
G1 X170.99 Y159.729 E125.25803
G1 X111.011 Y159.729 E127.86164
G1 X110.848 Y159.702 E127.86882
G1 X110.674 Y159.644 E127.87677
G1 X110.466 Y159.513 E127.88743
G1 X110.37 Y159.413 E127.89348
G1 X110.247 Y159.204 E127.90396
G1 X110.177 Y158.896 E127.91769
G1 X110.177 Y61.105 E132.16267
G1 X110.204 Y60.942 E132.16984
G1 X110.261 Y60.77 E132.17772
G1 X110.687 Y60.912 F18000
G1 F3000
G1 X110.692 Y60.894 E132.1785
G1 X110.816 Y60.775 E132.18595
G1 X111 Y60.72 E132.1943
G1 X171 Y60.72 E134.79881
G1 X171.2 Y60.786 E134.80794
G1 X171.319 Y60.91 E134.81539
G1 X171.374 Y61.094 E134.82374
G1 X171.374 Y158.906 E139.06962
G1 X171.308 Y159.106 E139.07875
G1 X171.184 Y159.225 E139.0862
G1 X171 Y159.28 E139.09454
G1 X111 Y159.28 E141.69906
G1 X110.8 Y159.214 E141.70819
G1 X110.681 Y159.09 E141.71564
G1 X110.626 Y158.906 E141.72398
G1 X110.626 Y61.094 E145.96986
G1 X110.674 Y60.95 E145.97647
G1 E144.22647 F6000
;WIPE_START
G1 F3000
G1 X110.692 Y60.894 E144.18295
G1 X110.816 Y60.775 E144.05423
G1 X111 Y60.72 E143.91001
G1 X111.578 Y60.72 E143.47647
;WIPE_END
G92 E0
G1 X111.277 Y158.629 F18000
G1 E2.5 F6000
;TYPE:Outer wall
G1 F3000
G1 X111.25 Y157.903 E2.53152
G1 X111.25 Y136.457 E3.46249
G2 X111.325 Y134.454 I-24.209 J-1.908 E3.54952
G1 X111.325 Y61.419 E6.71985
G1 X170.675 Y61.419 E9.29614
G1 X170.675 Y133.954 E12.44479
G2 X170.75 Y136.457 I27.176 J.438 E12.55351
G1 X170.75 Y157.903 E13.48447
G1 X170.722 Y158.628 E13.51597
G1 X169.995 Y158.656 E13.54755
G1 X112.005 Y158.656 E16.06483
G1 X111.337 Y158.631 E16.09384
G1 E14.34384 F6000
;WIPE_START
G1 F3000
G1 X111.25 Y157.903 E13.79405
G1 X111.25 Y157.636 E13.59383
;WIPE_END
G92 E0
G1 X116.199 Y79.666 F18000
G1 E2.5 F6000
G1 F3000
G1 X125.822 Y70.043 E3.09074
G1 X156.174 Y70.043 E4.40828
G1 X165.799 Y79.666 E4.99909
G1 X165.799 Y123.52 E6.90272
G1 X169.821 Y134.694 E7.41822
G3 X170.532 Y136.924 I-113.21 J37.346 E7.51984
G1 X170.348 Y136.924 E7.52784
G1 X170.348 Y158.256 E8.45383
G1 X111.648 Y158.256 E11.00191
G1 X111.648 Y136.924 E11.9279
G1 X111.465 Y136.924 E11.93585
G3 X112.177 Y134.694 I133.149 J41.293 E12.03748
G1 X116.199 Y123.52 E12.55298
G1 X116.199 Y79.726 E14.45401
G1 E12.70401 F6000
;WIPE_START
G1 F3000
G1 X116.904 Y79.017 E11.95401
;WIPE_END
G92 E0
G1 X111.996 Y133.873 F18000
G1 E2.5 F6000
;TYPE:Inner wall
G1 F3000
G1 X111.773 Y133.834 E2.50982
G1 X111.773 Y61.867 E5.63377
G1 X170.227 Y61.867 E8.17113
G1 X170.227 Y133.839 E11.2953
G1 X170.004 Y133.878 E11.30512
G1 X166.247 Y123.442 E11.78658
G1 X166.247 Y79.48 E13.69489
G1 X156.36 Y69.595 E14.30182
G1 X125.636 Y69.595 E15.63549
G1 X115.751 Y79.48 E16.24236
G1 X115.751 Y123.442 E18.15066
G1 X112.017 Y133.816 E18.62928
G1 E16.87928 F6000
;WIPE_START
G1 F3000
G1 X111.773 Y133.834 E16.69644
