; HEADER_BLOCK_START
; generated by AnycubicSlicerNext 1.3.1 on 2026-02-11 at 02:26:57
; total layer number: 54
; filament_density: 1.24
; filament_diameter: 1.75
; max_z_height: 10.84
; HEADER_BLOCK_END

; THUMBNAIL_BLOCK_START

;
; THUMBNAIL_BLOCK_END

; external perimeters extrusion width = 0.42mm
; perimeters extrusion width = 0.45mm
; infill extrusion width = 0.45mm
; solid infill extrusion width = 0.42mm
; top infill extrusion width = 0.42mm
; support material extrusion width = 0.40mm
; first layer extrusion width = 0.50mm

; external perimeters extrusion width = 0.42mm
; perimeters extrusion width = 0.45mm
; infill extrusion width = 0.45mm
; solid infill extrusion width = 0.42mm
; top infill extrusion width = 0.42mm
; support material extrusion width = 0.40mm
; first layer extrusion width = 0.50mm

; EXECUTABLE_BLOCK_START
M201 X2000 Y2000 Z800 E2000
M203 X300 Y300 Z8 E100
M204 P2000 R2000 T2000
M205 X10.00 Y10.00 Z2.00 E5.00 ; sets the jerk limits, mm/sec
;TYPE:Custom
G90 ; use absolute coordinates
M83 ; extruder relative mode
M104 S220 ; set extruder temp
M140 S60 ; set bed temp
M190 S60 ; wait for bed temp
M109 S220 ; wait for extruder temp
G28                                        ; move X/Y/Z to min endstops
G1 Z0.28                                   ; lift nozzle a bit 
G92 E0 
G1 Y3 F1800                                    ; zero the extruded length 
G1 X60  E25 F500                       ; Extrude 25mm of filament in a 5cm line. 
G92 E0                                     ; zero the extruded length again 
G1 E-2 F500                                ; Retract a little 
G1 X70 F4000                              ; Quickly wipe away from the filament line
M117
G90
G21
M82 ; use absolute distances for extrusion
G92 E0
; filament start gcode
M106 S0
;LAYER_CHANGE
;Z:0.24
;HEIGHT:0.24
; BEFORE_LAYER_CHANGE 0 @ 0.24mm
G1 E-2.5 F6000
G92 E0
; AFTER_LAYER_CHANGE 0 @ 0.24mm
;_SET_FAN_SPEED_CHANGING_LAYER
M204 P500
; printing object "3118_taillamp.stl" id:2125562370304 copy 0
M204 T500
G1 X75.808 Y105.288 F18000
G1 Z.24
G1 E2.5 F6000
;TYPE:Support
;WIDTH:0.5
G1 F3000
G1 X75.808 Y114.712 E2.90908
G1 X75.918 Y115.272 E2.93388
G3 X75.885 Y104.905 I1.22 J-5.188 E3.55232
G1 X75.821 Y105.222 E3.56634
G1 X75.117 Y114.801 F18000
G1 F3000
G1 X75.117 Y105.592 E3.96609
G1 X74.619 Y105.859 E3.99064
G1 X74.619 Y114.307 E4.35734
G3 X74.12 Y113.966 I.691 J-1.542 E4.38371
G1 X74.12 Y106.201 E4.72075
G2 X73.622 Y106.63 I.933 J1.587 E4.74945
G1 X73.622 Y113.537 E5.04924
G3 X73.124 Y112.962 I1.333 J-1.659 E5.08245
G1 X73.124 Y107.205 E5.33232
G2 X72.625 Y108.093 I2.194 J1.815 E5.37674
G1 X72.625 Y112.522 E5.56898
G1 E3.81898 F6000
;WIPE_START
G1 F3000
G1 X72.625 Y111.522 E3.06898
;WIPE_END
G92 E0
G1 X122.106 Y112.75 F18000
G1 E2.5 F6000
G1 F3000
G1 X115.417 Y112.75 E2.79038
G1 X115.417 Y107.25 E3.02913
G1 X122.106 Y107.25 E3.31951
G1 X122.106 Y112.683 E3.55534
G1 X121.462 Y112.548 F18000
G1 F3000
G1 X121.462 Y107.654 E3.7678
G1 X120.963 Y107.654 E3.78944
G1 X120.963 Y112.346 E3.99314
G1 X120.465 Y112.346 E4.01477
G1 X120.465 Y107.654 E4.21847
G1 X119.967 Y107.654 E4.24011
G1 X119.967 Y112.346 E4.44381
G1 X119.468 Y112.346 E4.46544
G1 X119.468 Y107.654 E4.66914
G1 X118.97 Y107.654 E4.69078
G1 X118.97 Y112.346 E4.89448
G1 X118.472 Y112.346 E4.91611
G1 X118.472 Y107.654 E5.11982
G1 X117.973 Y107.654 E5.14145
G1 X117.973 Y112.346 E5.34515
G1 X117.475 Y112.346 E5.36678
G1 X117.475 Y107.654 E5.57049
G1 X116.977 Y107.654 E5.59212
G1 X116.977 Y112.346 E5.79582
G1 X116.478 Y112.346 E5.81745
G1 X116.478 Y107.654 E6.02116
G1 X115.98 Y107.654 E6.04279
G1 X115.98 Y112.548 E6.25525
G1 E4.50525 F6000
;WIPE_START
G1 F3000
G1 X115.98 Y111.548 E3.75525
;WIPE_END
G92 E0
G1 X130.167 Y107.288 F18000
G1 E2.5 F6000
G1 F3000
G1 X130.167 Y112.75 E2.73709
G1 X123.648 Y112.75 E3.02006
G1 X123.675 Y107.25 E3.25881
G1 X130.116 Y107.25 E3.53838
G1 X129.435 Y112.548 F18000
G1 F3000
G1 X129.435 Y107.654 E3.75085
G1 X128.936 Y107.654 E3.77248
G1 X128.936 Y112.346 E3.97618
G1 X128.438 Y112.346 E3.99781
G1 X128.438 Y107.654 E4.20152
G1 X127.94 Y107.654 E4.22315
G1 X127.94 Y112.346 E4.42685
G1 X127.441 Y112.346 E4.44848
G1 X127.441 Y107.654 E4.65219
G1 X126.943 Y107.654 E4.67382
G1 X126.943 Y112.346 E4.87752
G1 X126.445 Y112.346 E4.89916
G1 X126.445 Y107.654 E5.10286
G1 X125.946 Y107.654 E5.12449
G1 X125.946 Y112.346 E5.32819
G1 X125.448 Y112.346 E5.34983
G1 X125.448 Y107.654 E5.55353
G1 X124.95 Y107.654 E5.57516
G1 X124.95 Y112.346 E5.77886
G1 X124.452 Y112.346 E5.8005
G1 X124.452 Y107.452 E6.01296
G1 E4.26296 F6000
;WIPE_START
G1 F3000
G1 X124.452 Y108.452 E3.51296
;WIPE_END
G92 E0
G1 X137.792 Y112.75 F18000
G1 E2.5 F6000
G1 F3000
G1 X131.667 Y112.75 E2.76588
G1 X131.667 Y107.25 E3.00462
G1 X137.792 Y107.25 E3.2705
G1 X137.792 Y112.683 E3.50633
G1 X136.91 Y112.548 F18000
G1 F3000
G1 X136.91 Y107.654 E3.71879
G1 X136.411 Y107.654 E3.74042
G1 X136.411 Y112.346 E3.94413
G1 X135.913 Y112.346 E3.96576
G1 X135.913 Y107.654 E4.16946
G1 X135.415 Y107.654 E4.1911
G1 X135.415 Y112.346 E4.3948
G1 X134.916 Y112.346 E4.41643
G1 X134.916 Y107.654 E4.62013
G1 X134.418 Y107.654 E4.64177
G1 X134.418 Y112.346 E4.84547
G1 X133.92 Y112.346 E4.8671
G1 X133.92 Y107.654 E5.0708
G1 X133.421 Y107.654 E5.09244
G1 X133.421 Y112.346 E5.29614
G1 X132.923 Y112.346 E5.31777
G1 X132.923 Y107.654 E5.52148
G1 X132.425 Y107.654 E5.54311
G1 X132.425 Y112.548 E5.75557
G1 E4.00557 F6000
;WIPE_START
G1 F3000
G1 X132.425 Y111.548 E3.25557
;WIPE_END
G92 E0
G1 X132.428 Y118.152 F18000
G1 E2.5 F6000
;TYPE:Brim
G1 F3000
G1 X115.672 Y118.161 E3.22735
G1 X115.23 Y118.141 E3.24656
G1 X114.516 Y118.039 E3.27786
G1 X113.802 Y117.842 E3.30999
G1 X113.121 Y117.553 E3.34212
G1 X112.484 Y117.177 E3.37423
G1 X111.877 Y116.7 E3.40773
G1 X111.381 Y116.193 E3.43854
G1 X110.935 Y115.602 E3.47067
G1 X110.628 Y115.073 E3.4972
G1 X110.516 Y114.977 E3.50361
G1 X110.368 Y114.972 E3.51002
G1 X110.275 Y115.028 E3.51473
G1 X110.092 Y115.211 E3.52598
G1 X109.583 Y115.588 E3.55348
G1 X108.865 Y115.951 E3.58842
G1 X108.157 Y116.178 E3.62067
G1 X107.526 Y116.274 E3.64839
G1 X86.941 Y116.286 E4.54196
G1 X86.782 Y116.351 E4.54941
G1 X85.333 Y117.8 E4.63837
G1 X84.845 Y118.221 E4.66633
G1 X84.305 Y118.56 E4.69401
G1 X83.843 Y118.772 E4.71609
G1 X83.235 Y118.972 E4.74387
G1 X82.605 Y119.079 E4.7716
G1 X82.203 Y119.098 E4.78907
G1 X81.217 Y119.098 E4.83188
G1 X80.574 Y119.05 E4.85984
G1 X79.954 Y118.909 E4.88747
G1 X79.399 Y118.696 E4.91327
G1 X78.834 Y118.398 E4.94101
G1 X78.322 Y118.021 E4.9686
G1 X77.872 Y117.572 E4.9962
G1 X77.495 Y117.062 E5.0237
G1 X77.132 Y116.344 E5.05864
G1 X76.905 Y115.636 E5.09089
G1 X76.81 Y115.005 E5.11861
G1 X76.798 Y114.683 E5.13259
G1 X76.798 Y105.321 E5.53899
G1 X76.846 Y104.679 E5.56695
G1 X76.987 Y104.057 E5.59464
G1 X77.153 Y103.611 E5.61529
G1 X77.499 Y102.937 E5.64817
G1 X77.875 Y102.426 E5.67571
G1 X78.324 Y101.976 E5.7033
G1 X78.833 Y101.6 E5.7308
G1 X79.552 Y101.236 E5.76575
G1 X80.259 Y101.01 E5.798
G1 X80.891 Y100.914 E5.82572
G1 X81.212 Y100.902 E5.83969
G1 X82.2 Y100.902 E5.88255
G1 X82.842 Y100.95 E5.91051
G1 X83.465 Y101.092 E5.93824
G1 X83.837 Y101.226 E5.9554
G1 X84.513 Y101.558 E5.9881
G1 X85.033 Y101.927 E6.01578
G1 X85.331 Y102.197 E6.03325
G1 X86.782 Y103.649 E6.12233
G1 X86.941 Y103.714 E6.12979
G1 X107.2 Y103.714 E7.00921
G1 X107.842 Y103.762 E7.03717
G1 X108.464 Y103.904 E7.06485
G1 X108.91 Y104.069 E7.08551
G1 X109.584 Y104.415 E7.11839
G1 X110.095 Y104.792 E7.14592
G1 X110.277 Y104.974 E7.1571
G1 X110.41 Y105.038 E7.16351
G1 X110.554 Y105.005 E7.16992
G1 X110.628 Y104.929 E7.17455
G1 X110.99 Y104.317 E7.20541
G1 X111.445 Y103.733 E7.23754
G1 X111.973 Y103.215 E7.26967
G1 X112.565 Y102.768 E7.30185
G1 X113.07 Y102.474 E7.32722
G1 X113.736 Y102.182 E7.3588
G1 X114.438 Y101.977 E7.39053
G1 X115.172 Y101.864 E7.42279
G1 X115.662 Y101.84 E7.44409
G1 X138.783 Y101.839 E8.44773
G1 X139.426 Y101.887 E8.47569
G1 X140.046 Y102.029 E8.50332
G1 X140.601 Y102.241 E8.52912
G1 X141.166 Y102.54 E8.55686
G1 X141.678 Y102.917 E8.58445
G1 X142.128 Y103.366 E8.61205
G1 X142.505 Y103.875 E8.63955
G1 X142.868 Y104.594 E8.67449
G1 X143.095 Y105.301 E8.70674
G1 X143.19 Y105.933 E8.73446
G1 X143.202 Y106.254 E8.74844
G1 X143.202 Y113.742 E9.07345
G1 X143.154 Y114.384 E9.10141
G1 X143.013 Y115.005 E9.12904
G1 X142.8 Y115.56 E9.15484
G1 X142.502 Y116.125 E9.18258
G1 X142.125 Y116.636 E9.21017
G1 X141.676 Y117.086 E9.23777
G1 X141.167 Y117.463 E9.26527
G1 X140.448 Y117.826 E9.30021
G1 X139.741 Y118.053 E9.33246
G1 X139.109 Y118.149 E9.36018
G1 X132.468 Y118.152 E9.64848
G1 X132.467 Y117.703 F18000
G1 F3000
G1 X115.684 Y117.712 E10.37701
G1 X115.265 Y117.693 E10.39525
G1 X114.599 Y117.597 E10.42442
G1 X113.942 Y117.414 E10.45403
G1 X113.331 Y117.155 E10.48284
G1 X112.745 Y116.811 E10.51235
G1 X112.184 Y116.371 E10.54329
G1 X111.727 Y115.906 E10.57158
G1 X111.314 Y115.36 E10.60132
G1 X111.021 Y114.858 E10.62654
G1 X110.911 Y114.726 E10.63401
G1 X110.818 Y114.646 E10.63932
G1 X110.644 Y114.55 E10.64796
G1 X110.401 Y114.525 E10.65858
G1 X110.125 Y114.597 E10.67094
G1 X109.95 Y114.719 E10.68022
G1 X109.79 Y114.877 E10.68994
G1 X109.356 Y115.198 E10.7134
G1 X108.703 Y115.53 E10.74518
G1 X108.065 Y115.737 E10.77432
G1 X107.482 Y115.825 E10.79992
G1 X86.954 Y115.837 E11.69101
G1 X86.757 Y115.876 E11.69973
G1 X86.623 Y115.932 E11.70603
G1 X86.456 Y116.044 E11.71475
G1 X85.031 Y117.468 E11.80219
G1 X84.585 Y117.852 E11.82774
G1 X84.099 Y118.16 E11.85273
G1 X83.685 Y118.351 E11.8725
G1 X83.116 Y118.537 E11.89849
G1 X82.544 Y118.633 E11.92369
G1 X81.24 Y118.65 E11.98028
G1 X80.631 Y118.603 E12.00678
G1 X80.094 Y118.481 E12.03072
G1 X79.577 Y118.283 E12.05473
G1 X79.065 Y118.011 E12.07992
G1 X78.608 Y117.672 E12.1046
G1 X78.207 Y117.27 E12.12927
G1 X77.873 Y116.816 E12.15372
G1 X77.553 Y116.183 E12.18452
G1 X77.347 Y115.544 E12.21366
G1 X77.258 Y114.97 E12.23886
G1 X77.246 Y114.672 E12.2518
G1 X77.246 Y105.343 E12.65679
G1 X77.29 Y104.756 E12.68234
G1 X77.416 Y104.194 E12.70734
G1 X77.561 Y103.799 E12.72559
G1 X77.888 Y103.165 E12.75654
G1 X78.223 Y102.712 E12.78102
G1 X78.611 Y102.324 E12.80483
G1 X79.061 Y101.989 E12.82916
G1 X79.713 Y101.657 E12.86094
G1 X80.373 Y101.446 E12.89101
G1 X80.94 Y101.361 E12.91593
G1 X82.188 Y101.351 E12.97009
G1 X82.765 Y101.394 E12.99521
G1 X83.331 Y101.521 E13.02038
G1 X83.668 Y101.643 E13.03594
G1 X84.273 Y101.94 E13.06521
G1 X84.745 Y102.272 E13.09024
G1 X85.019 Y102.52 E13.10628
G1 X86.456 Y103.956 E13.19448
G1 X86.623 Y104.068 E13.2032
G1 X86.757 Y104.124 E13.2095
G1 X86.954 Y104.163 E13.21823
G1 X107.188 Y104.163 E14.09657
G1 X107.785 Y104.209 E14.12256
G1 X108.327 Y104.333 E14.14669
G1 X108.722 Y104.478 E14.16493
G1 X109.356 Y104.804 E14.19589
G1 X109.793 Y105.127 E14.21949
G1 X109.952 Y105.283 E14.22916
G1 X110.092 Y105.383 E14.23663
G1 X110.202 Y105.436 E14.24194
G1 X110.396 Y105.483 E14.25057
G1 X110.637 Y105.445 E14.2612
G1 X110.884 Y105.307 E14.27348
G1 X111.02 Y105.147 E14.2826
G1 X111.366 Y104.563 E14.31207
G1 X111.787 Y104.026 E14.34165
G1 X112.273 Y103.55 E14.37122
G1 X112.821 Y103.138 E14.40094
G1 X113.28 Y102.871 E14.42402
G1 X113.898 Y102.602 E14.45327
G1 X114.544 Y102.415 E14.48246
G1 X115.211 Y102.312 E14.51176
G1 X115.677 Y102.288 E14.532
G1 X138.762 Y102.288 E15.53408
G1 X139.369 Y102.334 E15.5605
G1 X139.906 Y102.457 E15.58445
G1 X140.423 Y102.654 E15.60845
G1 X140.935 Y102.927 E15.63364
G1 X141.392 Y103.265 E15.65832
G1 X141.793 Y103.668 E15.683
G1 X142.127 Y104.122 E15.70744
G1 X142.447 Y104.755 E15.73824
G1 X142.653 Y105.393 E15.76738
G1 X142.742 Y105.967 E15.79258
G1 X142.754 Y106.265 E15.80553
G1 X142.754 Y113.72 E16.12912
G1 X142.707 Y114.327 E16.15555
G1 X142.579 Y114.883 E16.18031
G1 X142.388 Y115.381 E16.20349
G1 X142.126 Y115.877 E16.22781
G1 X141.79 Y116.335 E16.25249
G1 X141.389 Y116.738 E16.27717
G1 X140.92 Y117.085 E16.30248
G1 X140.287 Y117.405 E16.33328
G1 X139.648 Y117.612 E16.36242
G1 X139.065 Y117.7 E16.38802
G1 X132.507 Y117.703 E16.67268
G1 X132.507 Y117.255 F18000
G1 F3000
G1 X115.697 Y117.264 E17.40237
G1 X115.3 Y117.245 E17.41962
G1 X114.684 Y117.155 E17.44667
G1 X114.099 Y116.992 E17.47302
G1 X113.541 Y116.756 E17.4993
G1 X113.006 Y116.444 E17.52623
G1 X112.491 Y116.041 E17.5546
G1 X112.074 Y115.619 E17.58037
G1 X111.693 Y115.117 E17.60772
G1 X111.36 Y114.565 E17.6357
G1 X111.198 Y114.382 E17.64631
G1 X111.025 Y114.248 E17.65583
G1 X110.871 Y114.164 E17.66343
G1 X110.676 Y114.103 E17.67229
G1 X110.458 Y114.081 E17.68181
G1 X110.277 Y114.094 E17.68969
G1 X110.025 Y114.159 E17.70101
G1 X109.861 Y114.235 E17.70884
G1 X109.131 Y114.806 E17.74908
G1 X108.541 Y115.11 E17.77787
G1 X107.972 Y115.295 E17.80386
G1 X107.438 Y115.377 E17.82732
G1 X86.853 Y115.4 E18.72087
G1 X86.679 Y115.435 E18.72856
G1 X86.459 Y115.515 E18.73876
G1 X86.215 Y115.665 E18.75117
G1 X84.729 Y117.136 E18.84194
G1 X84.325 Y117.484 E18.86509
G1 X83.892 Y117.76 E18.88739
G1 X83.528 Y117.929 E18.9048
G1 X83.019 Y118.097 E18.92809
G1 X82.493 Y118.185 E18.9512
G1 X81.26 Y118.201 E19.00473
G1 X80.689 Y118.156 E19.02961
G1 X80.215 Y118.047 E19.05071
G1 X79.756 Y117.87 E19.07208
G1 X79.297 Y117.625 E19.09469
G1 X78.895 Y117.325 E19.11644
G1 X78.542 Y116.969 E19.1382
G1 X78.252 Y116.57 E19.1596
G1 X77.966 Y116.002 E19.18724
G1 X77.783 Y115.43 E19.21331
G1 X77.706 Y114.934 E19.23506
G1 X77.695 Y114.661 E19.24696
G1 X77.695 Y105.364 E19.65049
G1 X77.734 Y104.832 E19.67368
G1 X77.845 Y104.329 E19.69601
G1 X77.97 Y103.988 E19.7118
G1 X78.276 Y103.394 E19.74079
G1 X78.571 Y102.999 E19.7622
G1 X78.913 Y102.658 E19.78314
G1 X79.289 Y102.379 E19.80348
G1 X79.875 Y102.078 E19.83206
G1 X80.486 Y101.883 E19.85992
G1 X80.985 Y101.809 E19.88183
G1 X82.179 Y101.8 E19.93365
G1 X82.689 Y101.838 E19.95585
G1 X83.197 Y101.951 E19.97844
G1 X83.5 Y102.059 E19.9924
G1 X84.053 Y102.333 E20.01918
G1 X84.457 Y102.618 E20.04067
G1 X84.707 Y102.843 E20.05525
G1 X86.215 Y104.335 E20.14735
G1 X86.459 Y104.485 E20.15976
G1 X86.679 Y104.565 E20.16996
G1 X86.853 Y104.6 E20.17766
G1 X107.176 Y104.612 E21.05984
G1 X107.727 Y104.656 E21.08384
G1 X108.191 Y104.762 E21.10449
G1 X108.533 Y104.886 E21.12029
G1 X109.127 Y105.193 E21.14931
G1 X109.494 Y105.463 E21.16908
G1 X109.698 Y105.653 E21.18119
G1 X109.903 Y105.789 E21.19186
G1 X110.105 Y105.874 E21.20138
G1 X110.275 Y105.916 E21.20898
G1 X110.479 Y105.924 E21.21785
G1 X110.696 Y105.89 E21.22737
G1 X110.867 Y105.831 E21.2352
G1 X111.093 Y105.704 E21.24645
G1 X111.232 Y105.59 E21.25428
G1 X111.411 Y105.367 E21.26668
G1 X111.743 Y104.81 E21.29484
G1 X112.116 Y104.333 E21.32112
G1 X112.56 Y103.897 E21.34814
G1 X113.063 Y103.518 E21.37547
G1 X113.491 Y103.269 E21.39695
G1 X114.059 Y103.022 E21.42386
G1 X114.65 Y102.852 E21.45053
G1 X115.25 Y102.759 E21.47689
G1 X115.692 Y102.737 E21.49609
G1 X138.739 Y102.736 E22.49656
G1 X139.311 Y102.781 E22.52145
G1 X139.785 Y102.89 E22.54256
G1 X140.244 Y103.067 E22.56393
G1 X140.703 Y103.313 E22.58654
G1 X141.105 Y103.613 E22.60829
G1 X141.458 Y103.969 E22.63005
G1 X141.748 Y104.367 E22.65145
G1 X142.026 Y104.917 E22.67819
G1 X142.212 Y105.487 E22.70423
G1 X142.294 Y106.003 E22.72691
G1 X142.306 Y106.277 E22.73881
G1 X142.306 Y113.697 E23.06092
G1 X142.261 Y114.269 E23.0858
G1 X142.146 Y114.76 E23.1077
G1 X141.975 Y115.202 E23.12828
G1 X141.749 Y115.629 E23.14924
G1 X141.454 Y116.035 E23.17102
G1 X141.102 Y116.391 E23.19273
G1 X140.674 Y116.707 E23.21585
G1 X140.125 Y116.984 E23.24254
G1 X139.555 Y117.17 E23.26856
G1 X139.021 Y117.252 E23.29201
G1 X132.547 Y117.255 E23.57304
G1 X132.547 Y116.806 F18000
G1 F3000
G1 X115.711 Y116.815 E24.30387
G1 X115.337 Y116.797 E24.32013
G1 X114.785 Y116.717 E24.34432
G1 X114.256 Y116.57 E24.36818
G1 X113.751 Y116.358 E24.39196
G1 X113.266 Y116.076 E24.41629
G1 X112.796 Y115.711 E24.44211
G1 X112.42 Y115.331 E24.46535
G1 X112.061 Y114.859 E24.49108
G1 X111.751 Y114.344 E24.51716
G1 X111.463 Y114.02 E24.53597
G1 X111.235 Y113.852 E24.54831
G1 X110.996 Y113.733 E24.55985
G1 X110.713 Y113.656 E24.57261
G1 X110.417 Y113.634 E24.5855
G1 X110.156 Y113.662 E24.59689
