; HEADER_BLOCK_START
; generated by AnycubicSlicerNext 1.3.1 on 2026-02-10 at 14:28:13
; total layer number: 225
; filament_density: 1.24
; filament_diameter: 1.75
; max_z_height: 45.04
; HEADER_BLOCK_END

; THUMBNAIL_BLOCK_START

;
; THUMBNAIL_BLOCK_END

; external perimeters extrusion width = 0.42mm
; perimeters extrusion width = 0.45mm
; infill extrusion width = 0.45mm
; solid infill extrusion width = 0.42mm
; top infill extrusion width = 0.42mm
; first layer extrusion width = 0.50mm

; external perimeters extrusion width = 0.42mm
; perimeters extrusion width = 0.45mm
; infill extrusion width = 0.45mm
; solid infill extrusion width = 0.42mm
; top infill extrusion width = 0.42mm
; first layer extrusion width = 0.50mm

; EXECUTABLE_BLOCK_START
M201 X2000 Y2000 Z800 E2000
M203 X300 Y300 Z8 E100
M204 P2000 R2000 T2000
M205 X10.00 Y10.00 Z2.00 E5.00 ; sets the jerk limits, mm/sec
;TYPE:Custom
G90 ; use absolute coordinates
M83 ; extruder relative mode
M104 S220 ; set extruder temp
M140 S60 ; set bed temp
M190 S60 ; wait for bed temp
M109 S220 ; wait for extruder temp
G28                                        ; move X/Y/Z to min endstops
G1 Z0.28                                   ; lift nozzle a bit 
G92 E0 
G1 Y3 F1800                                    ; zero the extruded length 
G1 X60  E25 F500                       ; Extrude 25mm of filament in a 5cm line. 
G92 E0                                     ; zero the extruded length again 
G1 E-2 F500                                ; Retract a little 
G1 X70 F4000                              ; Quickly wipe away from the filament line
M117
G90
G21
M82 ; use absolute distances for extrusion
G92 E0
; filament start gcode
M106 S0
;LAYER_CHANGE
;Z:0.24
;HEIGHT:0.24
; BEFORE_LAYER_CHANGE 0 @ 0.24mm
G1 E-2.5 F6000
G92 E0
; AFTER_LAYER_CHANGE 0 @ 0.24mm
;_SET_FAN_SPEED_CHANGING_LAYER
M204 P500
; printing object "3118_mudgaurd_platform-5.stl" id:4381228962086207623 copy 0
M204 T500
G1 X108.083 Y53.937 F18000
G1 Z.24
G1 E2.5 F6000
;TYPE:Brim
;WIDTH:0.5
G1 F3000
G1 X108.427 Y53.401 E2.52763
G1 X108.814 Y52.951 E2.55343
G1 X109.287 Y52.52 E2.58117
G1 X109.815 Y52.166 E2.60876
G1 X110.39 Y51.895 E2.63635
G1 X110.996 Y51.713 E2.66385
G1 X111.795 Y51.614 E2.6988
G1 X112.538 Y51.64 E2.73105
G1 X113.164 Y51.764 E2.75877
G1 X113.471 Y51.862 E2.77275
G1 X128.027 Y57.1 E3.44426
G1 X129.288 Y57.466 E3.50128
G1 X130.661 Y57.914 E3.56397
G1 X132.033 Y58.414 E3.62734
G1 X133.379 Y58.958 E3.69037
G1 X134.707 Y59.546 E3.7534
G1 X136.013 Y60.179 E3.81643
G1 X137.298 Y60.856 E3.87946
G1 X138.559 Y61.576 E3.94247
G1 X139.788 Y62.334 E4.00517
G1 X141.004 Y63.142 E4.06852
G1 X142.179 Y63.981 E4.13122
G1 X143.213 Y64.771 E4.18768
G1 X144.002 Y65.414 E4.23189
G1 X144.141 Y65.464 E4.2383
G1 X144.25 Y65.438 E4.24316
G1 X144.63 Y65.234 E4.26189
G1 X145.226 Y65.003 E4.28962
G1 X145.846 Y64.863 E4.31722
G1 X146.48 Y64.817 E4.34481
G1 X147.125 Y64.867 E4.3729
G1 X148.097 Y65.017 E4.41558
G1 X148.724 Y65.162 E4.44354
G1 X149.317 Y65.396 E4.47122
G1 X149.733 Y65.628 E4.49188
G1 X150.346 Y66.072 E4.52476
G1 X150.794 Y66.522 E4.5523
G1 X151.17 Y67.034 E4.57989
G1 X151.465 Y67.595 E4.60739
G1 X151.715 Y68.36 E4.64233
G1 X151.832 Y69.094 E4.67458
G1 X151.83 Y69.732 E4.70231
G1 X151.326 Y73.091 E4.84974
G1 X151.365 Y73.256 E4.85709
G1 X151.962 Y74.091 E4.90165
G1 X152.801 Y75.352 E4.96739
G1 X153.594 Y76.642 E5.03314
G1 X154.266 Y77.82 E5.09202
G1 X155.042 Y79.302 E5.16462
G1 X155.695 Y80.669 E5.23036
G1 X156.238 Y81.911 E5.28924
G1 X156.795 Y83.312 E5.35466
G1 X157.308 Y84.744 E5.4207
G1 X157.812 Y86.339 E5.49332
G1 X158.175 Y87.646 E5.55221
G1 X158.531 Y89.118 E5.61795
G1 X158.864 Y90.757 E5.69054
G1 X159.11 Y92.251 E5.75627
G1 X159.303 Y93.754 E5.82201
G1 X159.431 Y95.104 E5.8809
G1 X159.523 Y96.616 E5.94665
G1 X159.562 Y98.122 E6.01206
G1 X159.548 Y99.636 E6.07777
G1 X159.47 Y101.307 E6.15037
G1 X159.359 Y102.658 E6.20924
G1 X159.185 Y104.163 E6.27499
G1 X158.957 Y105.66 E6.34073
G1 X158.677 Y107.149 E6.40647
G1 X158.345 Y108.626 E6.47221
G1 X157.961 Y110.091 E6.53794
G1 X157.474 Y111.699 E6.61087
G1 X156.985 Y113.124 E6.67627
G1 X156.502 Y114.391 E6.73516
G1 X155.915 Y115.788 E6.80091
G1 X155.28 Y117.163 E6.86665
G1 X154.596 Y118.514 E6.93239
G1 X153.865 Y119.84 E6.99813
G1 X153.088 Y121.14 E7.06387
G1 X152.266 Y122.412 E7.12961
G1 X151.399 Y123.654 E7.19535
G1 X150.489 Y124.864 E7.26109
G1 X149.531 Y126.047 E7.32716
G1 X148.437 Y127.302 E7.39941
G1 X147.4 Y128.405 E7.46514
G1 X146.325 Y129.472 E7.53088
G1 X145.213 Y130.499 E7.59662
G1 X144.065 Y131.487 E7.66237
G1 X143.007 Y132.337 E7.72126
G1 X142.182 Y132.957 E7.76605
G1 X142.095 Y133.102 E7.77339
G1 X137.163 Y165.171 E9.18182
G1 X137.018 Y165.799 E9.20978
G1 X136.784 Y166.391 E9.23741
G1 X136.489 Y166.907 E9.26321
G1 X136.108 Y167.42 E9.29094
G1 X135.658 Y167.868 E9.31854
G1 X135.146 Y168.245 E9.34613
G1 X134.586 Y168.539 E9.37358
G1 X133.715 Y168.813 E9.41322
G1 X133.087 Y168.906 E9.44077
G1 X132.45 Y168.905 E9.46841
G1 X131.151 Y168.717 E9.52541
G1 X130.524 Y168.572 E9.55333
G1 X129.931 Y168.338 E9.58101
G1 X129.515 Y168.107 E9.60167
G1 X128.902 Y167.662 E9.63454
G1 X128.454 Y167.213 E9.66208
G1 X128.078 Y166.7 E9.68967
G1 X127.784 Y166.141 E9.71712
G1 X127.51 Y165.27 E9.75676
G1 X127.417 Y164.642 E9.78431
G1 X127.418 Y164.006 E9.81192
G1 X127.925 Y160.624 E9.96035
G1 X127.898 Y160.479 E9.96676
G1 X127.837 Y160.411 E9.97072
G1 X127.525 Y160.179 E9.98763
G1 X127.076 Y159.728 E10.01522
G1 X126.7 Y159.216 E10.04281
G1 X126.405 Y158.656 E10.07026
G1 X126.131 Y157.785 E10.1099
G1 X126.038 Y157.158 E10.13745
G1 X126.04 Y156.518 E10.16522
G1 X126.077 Y156.198 E10.1792
G1 X128.565 Y140.023 E10.88956
G1 X128.538 Y139.878 E10.89597
G1 X128.426 Y139.781 E10.90238
G1 X128.282 Y139.774 E10.90867
G1 X127.76 Y139.921 E10.93219
G1 X126.316 Y140.282 E10.99681
G1 X125.013 Y140.562 E11.05467
G1 X123.548 Y140.826 E11.11927
G1 X121.922 Y141.059 E11.19061
G1 X120.597 Y141.202 E11.24846
G1 X119.113 Y141.313 E11.31305
G1 X117.463 Y141.376 E11.38471
G1 X115.983 Y141.378 E11.44898
G1 X114.651 Y141.337 E11.50683
G1 X113.01 Y141.229 E11.57818
G1 X111.684 Y141.095 E11.63603
G1 X110.214 Y140.898 E11.70043
G1 X109.584 Y140.764 E11.72838
G1 X108.987 Y140.539 E11.75606
G1 X108.567 Y140.315 E11.77673
G1 X107.946 Y139.882 E11.80961
G1 X107.491 Y139.44 E11.83715
G1 X107.106 Y138.934 E11.86474
G1 X106.801 Y138.379 E11.89222
G1 X106.529 Y137.581 E11.92881
G1 X106.406 Y136.847 E11.96114
G1 X106.402 Y136.212 E11.98869
G1 X106.592 Y134.874 E12.04734
G1 X106.737 Y134.248 E12.07524
G1 X106.972 Y133.655 E12.10293
G1 X107.203 Y133.239 E12.12358
G1 X107.647 Y132.626 E12.15646
G1 X108.097 Y132.178 E12.184
G1 X108.609 Y131.802 E12.21159
G1 X109.17 Y131.507 E12.23911
G1 X109.899 Y131.265 E12.27242
G1 X110.626 Y131.144 E12.30442
G1 X111.559 Y131.169 E12.34496
G1 X112.767 Y131.333 E12.39785
G1 X113.904 Y131.448 E12.44747
G1 X115.059 Y131.524 E12.4977
G1 X116.208 Y131.559 E12.5476
G1 X117.35 Y131.555 E12.59719
G1 X118.492 Y131.511 E12.64681
G1 X119.646 Y131.427 E12.69704
G1 X120.789 Y131.303 E12.74694
G1 X121.928 Y131.139 E12.79687
G1 X123.053 Y130.937 E12.84648
G1 X124.184 Y130.694 E12.89671
G1 X125.306 Y130.411 E12.94695
G1 X126.403 Y130.093 E12.99654
G1 X127.49 Y129.737 E13.04617
G1 X128.57 Y129.342 E13.09609
G1 X129.643 Y128.906 E13.14635
G1 X130.692 Y128.437 E13.19626
G1 X131.724 Y127.931 E13.24614
G1 X132.968 Y127.256 E13.30757
G1 X133.083 Y127.093 E13.31623
G1 X140.924 Y76.114 E15.5552
G1 X140.864 Y75.924 E15.56386
G1 X139.898 Y74.925 E15.62416
G1 X139.07 Y74.136 E15.6738
G1 X138.217 Y73.376 E15.72341
G1 X137.338 Y72.647 E15.77296
G1 X136.44 Y71.953 E15.82224
G1 X135.513 Y71.286 E15.87182
G1 X134.557 Y70.647 E15.92172
G1 X133.586 Y70.046 E15.97127
G1 X132.601 Y69.482 E16.02055
G1 X131.585 Y68.946 E16.07045
G1 X130.557 Y68.448 E16.12001
G1 X129.519 Y67.989 E16.16928
G1 X128.452 Y67.56 E16.21918
G1 X127.379 Y67.172 E16.26874
G1 X126.299 Y66.822 E16.31802
G1 X124.846 Y66.396 E16.38374
G1 X110.148 Y61.108 E17.06178
G1 X109.56 Y60.845 E17.08974
G1 X109.023 Y60.501 E17.11742
G1 X108.659 Y60.195 E17.13808
G1 X108.143 Y59.641 E17.17096
G1 X107.79 Y59.114 E17.1985
G1 X107.518 Y58.539 E17.22609
G1 X107.336 Y57.932 E17.25359
G1 X107.238 Y57.133 E17.28854
G1 X107.264 Y56.391 E17.32079
G1 X107.387 Y55.767 E17.34837
G1 X107.821 Y54.524 E17.40553
G1 X108.067 Y53.973 E17.43171
G1 X108.475 Y54.16 F18000
G1 F3000
G1 X108.793 Y53.662 E17.45734
G1 X109.143 Y53.258 E17.48052
G1 X109.557 Y52.881 E17.50484
G1 X110.028 Y52.563 E17.52952
G1 X110.56 Y52.312 E17.55506
G1 X111.1 Y52.152 E17.57951
G1 X111.804 Y52.065 E17.61031
G1 X112.475 Y52.087 E17.63945
G1 X113.045 Y52.198 E17.66465
G1 X113.33 Y52.288 E17.6776
G1 X127.871 Y57.52 E18.34846
G1 X129.158 Y57.895 E18.40665
G1 X130.517 Y58.339 E18.46869
G1 X131.874 Y58.834 E18.5314
G1 X133.207 Y59.372 E18.59377
G1 X134.516 Y59.952 E18.65594
G1 X135.809 Y60.579 E18.71831
G1 X137.084 Y61.251 E18.78088
G1 X138.332 Y61.963 E18.84323
G1 X139.548 Y62.713 E18.90528
G1 X140.751 Y63.512 E18.96797
G1 X141.914 Y64.344 E19.03002
G1 X142.933 Y65.122 E19.08568
G1 X143.71 Y65.755 E19.12919
G1 X143.86 Y65.84 E19.13666
G1 X143.969 Y65.879 E19.14171
G1 X144.267 Y65.895 E19.15465
G1 X144.348 Y65.876 E19.15827
G1 X144.826 Y65.639 E19.18141
G1 X145.347 Y65.436 E19.20571
G1 X145.902 Y65.31 E19.23038
G1 X146.468 Y65.268 E19.25505
G1 X147.068 Y65.313 E19.28117
G1 X148.007 Y65.457 E19.32239
G1 X148.6 Y65.595 E19.34881
G1 X149.117 Y65.799 E19.37295
G1 X149.485 Y66.003 E19.39119
G1 X150.045 Y66.408 E19.42121
G1 X150.458 Y66.822 E19.44662
G1 X150.783 Y67.264 E19.47043
G1 X151.045 Y67.76 E19.49476
G1 X151.274 Y68.455 E19.52654
G1 X151.381 Y69.118 E19.55568
G1 X151.38 Y69.708 E19.5813
G1 X150.884 Y73.012 E19.72632
G1 X150.893 Y73.208 E19.73483
G1 X150.926 Y73.347 E19.74105
G1 X151.008 Y73.527 E19.74965
G1 X151.595 Y74.347 E19.79341
G1 X152.424 Y75.596 E19.85848
G1 X153.207 Y76.869 E19.92336
G1 X153.871 Y78.034 E19.98156
G1 X154.642 Y79.505 E20.05366
G1 X155.286 Y80.853 E20.11851
G1 X155.823 Y82.082 E20.17675
G1 X156.375 Y83.468 E20.24149
G1 X156.882 Y84.885 E20.30682
G1 X157.383 Y86.469 E20.37895
G1 X157.741 Y87.761 E20.43715
G1 X158.093 Y89.213 E20.502
G1 X158.423 Y90.841 E20.57408
G1 X158.666 Y92.319 E20.6391
G1 X158.857 Y93.801 E20.70398
G1 X158.984 Y95.141 E20.76241
G1 X159.075 Y96.633 E20.82729
G1 X159.113 Y98.123 E20.89201
G1 X159.099 Y99.621 E20.95701
G1 X159.022 Y101.28 E21.02912
G1 X158.912 Y102.617 E21.08732
G1 X158.74 Y104.106 E21.15241
G1 X158.515 Y105.587 E21.21746
G1 X158.238 Y107.056 E21.28231
G1 X157.91 Y108.518 E21.34736
G1 X157.53 Y109.967 E21.41238
G1 X157.048 Y111.559 E21.48458
G1 X156.564 Y112.969 E21.54931
G1 X156.086 Y114.223 E21.60754
G1 X155.506 Y115.605 E21.67262
G1 X154.877 Y116.965 E21.73767
G1 X154.201 Y118.302 E21.80272
G1 X153.475 Y119.619 E21.86798
G1 X152.709 Y120.901 E21.93283
G1 X151.895 Y122.16 E21.99788
G1 X151.037 Y123.388 E22.06293
G1 X150.133 Y124.59 E22.12819
G1 X149.186 Y125.761 E22.19356
G1 X148.106 Y126.999 E22.26488
G1 X147.077 Y128.094 E22.33011
G1 X146.016 Y129.146 E22.39496
G1 X144.912 Y130.166 E22.46022
G1 X143.776 Y131.144 E22.52529
G1 X142.734 Y131.982 E22.58334
G1 X141.923 Y132.591 E22.62735
G1 X141.791 Y132.738 E22.63594
G1 X141.717 Y132.861 E22.64215
G1 X141.65 Y133.047 E22.65075
G1 X136.721 Y165.091 E24.0581
G1 X136.591 Y165.655 E24.08322
G1 X136.382 Y166.187 E24.10803
G1 X136.108 Y166.668 E24.13203
G1 X135.761 Y167.133 E24.15723
G1 X135.357 Y167.533 E24.1819
G1 X134.898 Y167.868 E24.20658
G1 X134.401 Y168.127 E24.23089
G1 X133.604 Y168.376 E24.26717
G1 X133.045 Y168.458 E24.2917
G1 X132.474 Y168.455 E24.31648
G1 X131.239 Y168.277 E24.37064
G1 X130.648 Y168.139 E24.39695
G1 X130.132 Y167.935 E24.42108
G1 X129.764 Y167.732 E24.43933
G1 X129.203 Y167.327 E24.46935
G1 X128.803 Y166.927 E24.49389
G1 X128.465 Y166.47 E24.51856
G1 X128.196 Y165.956 E24.54375
G1 X127.951 Y165.179 E24.57911
G1 X127.865 Y164.599 E24.60455
G1 X127.868 Y164.03 E24.62926
G1 X128.367 Y160.702 E24.77534
G1 X128.342 Y160.414 E24.78789
G1 X128.223 Y160.171 E24.79965
G1 X128.097 Y160.045 E24.80739
G1 X127.812 Y159.832 E24.82284
G1 X127.425 Y159.443 E24.84664
G1 X127.087 Y158.986 E24.87132
G1 X126.817 Y158.472 E24.89651
G1 X126.568 Y157.674 E24.93278
G1 X126.487 Y157.115 E24.95731
G1 X126.488 Y156.552 E24.98177
G1 X126.521 Y156.26 E24.99449
G1 X129.006 Y140.103 E25.70411
G1 X128.981 Y139.81 E25.71685
G1 X128.906 Y139.627 E25.72548
G1 X128.728 Y139.45 E25.73635
G1 X128.558 Y139.355 E25.74481
G1 X128.312 Y139.327 E25.75553
G1 X128.147 Y139.345 E25.76274
G1 X126.213 Y139.845 E25.84949
G1 X124.924 Y140.122 E25.90671
G1 X123.479 Y140.383 E25.97042
G1 X121.863 Y140.614 E26.04128
G1 X120.554 Y140.756 E26.09847
G1 X119.085 Y140.865 E26.1624
G1 X117.452 Y140.928 E26.23334
G1 X115.991 Y140.93 E26.29673
G1 X114.675 Y140.889 E26.35392
G1 X113.045 Y140.782 E26.4248
G1 X111.735 Y140.649 E26.48198
G1 X110.296 Y140.456 E26.545
G1 X109.701 Y140.328 E26.57141
G1 X109.181 Y140.133 E26.59554
G1 X108.809 Y139.936 E26.61379
G1 X108.242 Y139.541 E26.64381
G1 X107.821 Y139.133 E26.66922
G1 X107.489 Y138.697 E26.69303
G1 X107.219 Y138.208 E26.71729
G1 X106.969 Y137.481 E26.75063
G1 X106.856 Y136.819 E26.77982
G1 X106.852 Y136.232 E26.80526
G1 X107.033 Y134.962 E26.86095
G1 X107.164 Y134.392 E26.88637
G1 X107.375 Y133.855 E26.91137
G1 X107.578 Y133.488 E26.92961
G1 X107.983 Y132.927 E26.95963
G1 X108.382 Y132.527 E26.98418
G1 X108.857 Y132.179 E27.00972
G1 X109.357 Y131.917 E27.03422
G1 X110.017 Y131.7 E27.06438
G1 X110.67 Y131.594 E27.0931
G1 X111.53 Y131.618 E27.13045
G1 X112.724 Y131.78 E27.18275
G1 X113.877 Y131.895 E27.23305
G1 X115.047 Y131.972 E27.28396
G1 X116.212 Y132.008 E27.33453
G1 X117.369 Y132.003 E27.38479
G1 X118.507 Y131.959 E27.43421
G1 X119.677 Y131.874 E27.48511
G1 X120.835 Y131.749 E27.5357
G1 X121.989 Y131.583 E27.5863
G1 X123.129 Y131.379 E27.63659
G1 X124.296 Y131.128 E27.68837
G1 X125.433 Y130.841 E27.73929
G1 X126.526 Y130.525 E27.78869
G1 X127.627 Y130.164 E27.83898
G1 X128.741 Y129.757 E27.89046
G1 X129.828 Y129.315 E27.9414
G1 X130.891 Y128.838 E27.99198
G1 X131.919 Y128.335 E28.04165
G1 X133.168 Y127.658 E28.10333
G1 X133.344 Y127.502 E28.11353
G1 X133.441 Y127.364 E28.12083
G1 X133.528 Y127.146 E28.13104
G1 X141.365 Y76.197 E30.36866
G1 X141.347 Y75.963 E30.37886
G1 X141.296 Y75.803 E30.38617
G1 X141.175 Y75.601 E30.39637
G1 X140.205 Y74.599 E30.45691
G1 X139.382 Y73.813 E30.50632
G1 X138.516 Y73.043 E30.55661
G1 X137.61 Y72.291 E30.60771
G1 X136.7 Y71.588 E30.65765
G1 X135.777 Y70.923 E30.70704
G1 X134.791 Y70.265 E30.75849
G1 X133.825 Y69.666 E30.80784
G1 X132.826 Y69.094 E30.85778
G1 X131.778 Y68.541 E30.90923
G1 X130.755 Y68.045 E30.95858
G1 X129.703 Y67.58 E31.00853
G1 X128.603 Y67.138 E31.05998
G1 X127.534 Y66.751 E31.10933
G1 X126.439 Y66.396 E31.1593
G1 X124.981 Y65.968 E31.22524
G1 X110.321 Y60.693 E31.90156
G1 X109.783 Y60.453 E31.92712
G1 X109.283 Y60.134 E31.95288
G1 X108.963 Y59.863 E31.97106
G1 X108.502 Y59.369 E32.00039
G1 X108.186 Y58.9 E32.02493
G1 X107.935 Y58.368 E32.05047
G1 X107.775 Y57.828 E32.07492
G1 X107.688 Y57.124 E32.10572
G1 X107.713 Y56.432 E32.13579
G1 X107.824 Y55.876 E32.16038
G1 X108.236 Y54.695 E32.21469
G1 X108.459 Y54.196 E32.2384
G1 X108.869 Y54.381 F18000
G1 F3000
G1 X108.876 Y54.364 E32.23916
G1 X109.16 Y53.924 E32.26191
G1 X109.47 Y53.566 E32.28246
G1 X109.827 Y53.241 E32.30342
G1 X110.242 Y52.96 E32.32517
G1 X110.711 Y52.737 E32.34773
G1 X111.203 Y52.591 E32.37
G1 X111.814 Y52.516 E32.39673
G1 X112.414 Y52.534 E32.42277
G1 X112.927 Y52.632 E32.44545
G1 X113.189 Y52.714 E32.45735
G1 X127.716 Y57.941 E33.12752
G1 X129.028 Y58.325 E33.18688
G1 X130.372 Y58.764 E33.24827
G1 X131.716 Y59.254 E33.31033
G1 X133.034 Y59.786 E33.37204
G1 X134.329 Y60.36 E33.43355
G1 X135.609 Y60.98 E33.49526
G1 X136.87 Y61.645 E33.55717
G1 X138.104 Y62.35 E33.61887
G1 X139.308 Y63.092 E33.68026
G1 X140.498 Y63.883 E33.74228
G1 X141.649 Y64.706 E33.8037
G1 X142.654 Y65.473 E33.85855
G1 X143.418 Y66.095 E33.90136
G1 X143.712 Y66.262 E33.91603
