; HEADER_BLOCK_START
; generated by AnycubicSlicerNext 1.3.1 on 2026-02-13 at 10:11:04
; total layer number: 51
; filament_density: 1.24
; filament_diameter: 1.75
; max_z_height: 10.24
; HEADER_BLOCK_END

; THUMBNAIL_BLOCK_START

;
; THUMBNAIL_BLOCK_END

; external perimeters extrusion width = 0.42mm
; perimeters extrusion width = 0.45mm
; infill extrusion width = 0.45mm
; solid infill extrusion width = 0.42mm
; top infill extrusion width = 0.42mm
; support material extrusion width = 0.40mm
; first layer extrusion width = 0.50mm

; external perimeters extrusion width = 0.42mm
; perimeters extrusion width = 0.45mm
; infill extrusion width = 0.45mm
; solid infill extrusion width = 0.42mm
; top infill extrusion width = 0.42mm
; support material extrusion width = 0.40mm
; first layer extrusion width = 0.50mm

; external perimeters extrusion width = 0.42mm
; perimeters extrusion width = 0.45mm
; infill extrusion width = 0.45mm
; solid infill extrusion width = 0.42mm
; top infill extrusion width = 0.42mm
; support material extrusion width = 0.40mm
; first layer extrusion width = 0.50mm

; external perimeters extrusion width = 0.42mm
; perimeters extrusion width = 0.45mm
; infill extrusion width = 0.45mm
; solid infill extrusion width = 0.42mm
; top infill extrusion width = 0.42mm
; support material extrusion width = 0.40mm
; first layer extrusion width = 0.50mm

; external perimeters extrusion width = 0.42mm
; perimeters extrusion width = 0.45mm
; infill extrusion width = 0.45mm
; solid infill extrusion width = 0.42mm
; top infill extrusion width = 0.42mm
; support material extrusion width = 0.40mm
; first layer extrusion width = 0.50mm

; external perimeters extrusion width = 0.42mm
; perimeters extrusion width = 0.45mm
; infill extrusion width = 0.45mm
; solid infill extrusion width = 0.42mm
; top infill extrusion width = 0.42mm
; support material extrusion width = 0.40mm
; first layer extrusion width = 0.50mm

; EXECUTABLE_BLOCK_START
M201 X2000 Y2000 Z800 E2000
M203 X300 Y300 Z8 E100
M204 P2000 R2000 T2000
M205 X10.00 Y10.00 Z2.00 E5.00 ; sets the jerk limits, mm/sec
;TYPE:Custom
G90 ; use absolute coordinates
M83 ; extruder relative mode
M104 S220 ; set extruder temp
M140 S60 ; set bed temp
M190 S60 ; wait for bed temp
M109 S220 ; wait for extruder temp
G28                                        ; move X/Y/Z to min endstops
G1 Z0.28                                   ; lift nozzle a bit 
G92 E0 
G1 Y3 F1800                                    ; zero the extruded length 
G1 X60  E25 F500                       ; Extrude 25mm of filament in a 5cm line. 
G92 E0                                     ; zero the extruded length again 
G1 E-2 F500                                ; Retract a little 
G1 X70 F4000                              ; Quickly wipe away from the filament line
M117
G90
G21
M82 ; use absolute distances for extrusion
G92 E0
; filament start gcode
M106 S0
;LAYER_CHANGE
;Z:0.24
;HEIGHT:0.24
; BEFORE_LAYER_CHANGE 0 @ 0.24mm
G1 E-2.5 F6000
G92 E0
; AFTER_LAYER_CHANGE 0 @ 0.24mm
;_SET_FAN_SPEED_CHANGING_LAYER
M204 P500
; printing object "wheelhub35mm.stl" id:14246884 copy 0
M204 T500
G1 X95.33 Y148.793 F18000
G1 Z.24
G1 E2.5 F6000
;TYPE:Brim
;WIDTH:0.5
G1 F3000
G1 X95.629 Y148.608 E2.51529
G1 X96.197 Y148.302 E2.54328
G1 X97.069 Y147.938 E2.58432
G1 X97.684 Y147.748 E2.61224
G1 X98.312 Y147.608 E2.64018
G1 X98.649 Y147.554 E2.655
G1 X99.291 Y147.49 E2.68297
G1 X99.773 Y147.474 E2.70393
G1 X120.4 Y147.477 E3.59933
G1 X121.31 Y147.549 E3.63895
G1 X121.958 Y147.662 E3.6675
G1 X122.58 Y147.823 E3.6954
G1 X123.19 Y148.034 E3.72337
G1 X123.779 Y148.291 E3.75128
G1 X124.347 Y148.594 E3.77922
G1 X124.889 Y148.941 E3.80716
G1 X125.402 Y149.329 E3.83508
G1 X125.883 Y149.757 E3.86304
G1 X126.328 Y150.22 E3.89093
G1 X126.737 Y150.719 E3.91892
G1 X127.103 Y151.246 E3.94679
G1 X127.428 Y151.804 E3.9748
G1 X127.707 Y152.382 E4.00265
G1 X127.939 Y152.98 E4.03052
G1 X128.19 Y153.864 E4.07042
G1 X128.348 Y154.628 E4.10429
G1 X128.548 Y155.983 E4.16375
G1 X128.629 Y156.945 E4.20565
G1 X128.658 Y158.316 E4.26514
G1 X128.617 Y159.28 E4.30705
G1 X128.475 Y160.643 E4.36652
G1 X128.315 Y161.592 E4.40832
G1 X128.13 Y162.429 E4.4455
G1 X127.846 Y163.325 E4.48631
G1 X127.593 Y163.915 E4.5142
G1 X127.294 Y164.486 E4.54217
G1 X127.117 Y164.778 E4.55699
G1 X126.751 Y165.308 E4.58495
G1 X126.346 Y165.807 E4.61285
G1 X125.68 Y166.479 E4.65392
G1 X125.187 Y166.889 E4.68175
G1 X124.661 Y167.26 E4.70971
G1 X124.106 Y167.589 E4.73769
G1 X123.805 Y167.744 E4.7524
G1 X122.931 Y168.11 E4.79354
G1 X122.316 Y168.299 E4.82146
G1 X121.688 Y168.439 E4.8494
G1 X121.351 Y168.494 E4.86422
G1 X120.709 Y168.557 E4.89219
G1 X120.227 Y168.573 E4.91315
G1 X99.781 Y168.573 E5.80066
G1 X98.974 Y168.532 E5.83577
G1 X98.039 Y168.385 E5.87682
G1 X97.418 Y168.224 E5.9047
G1 X97.095 Y168.119 E5.91943
G1 X96.219 Y167.756 E5.96057
G1 X95.653 Y167.454 E5.98843
G1 X95.109 Y167.106 E6.01646
G1 X94.836 Y166.906 E6.03114
G1 X94.116 Y166.289 E6.07233
G1 X93.671 Y165.826 E6.10021
G1 X93.451 Y165.567 E6.11493
G1 X92.895 Y164.797 E6.15615
G1 X92.718 Y164.507 E6.17089
G1 X92.418 Y163.94 E6.19877
G1 X92.06 Y163.065 E6.23979
G1 X91.81 Y162.183 E6.27959
G1 X91.652 Y161.419 E6.31344
G1 X91.526 Y160.651 E6.34723
G1 X91.433 Y159.879 E6.381
G1 X91.371 Y159.102 E6.41481
G1 X91.342 Y157.731 E6.47435
G1 X91.371 Y156.952 E6.50818
G1 X91.432 Y156.177 E6.54195
G1 X91.552 Y155.22 E6.58379
G1 X91.685 Y154.454 E6.61754
G1 X91.807 Y153.874 E6.64328
G1 X91.949 Y153.33 E6.66771
G1 X92.154 Y152.723 E6.69552
G1 X92.282 Y152.408 E6.71025
G1 X92.707 Y151.56 E6.75146
G1 X92.883 Y151.269 E6.76619
G1 X93.247 Y150.741 E6.79406
G1 X93.859 Y150.017 E6.83519
G1 X94.32 Y149.568 E6.86312
G1 X94.576 Y149.347 E6.87779
G1 X95.298 Y148.817 E6.91667
G1 X95.563 Y149.179 F18000
G1 F3000
G1 X95.577 Y149.168 E6.91743
G1 X95.85 Y148.998 E6.9314
G1 X96.396 Y148.705 E6.9583
G1 X97.216 Y148.362 E6.99688
G1 X97.794 Y148.184 E7.02314
G1 X98.698 Y148 E7.06316
G1 X99.325 Y147.938 E7.0905
G1 X99.783 Y147.922 E7.11041
G1 X120.378 Y147.926 E8.00439
G1 X121.248 Y147.994 E8.04227
G1 X121.858 Y148.1 E8.06916
G1 X122.446 Y148.252 E8.09551
G1 X123.021 Y148.45 E8.12195
G1 X123.578 Y148.692 E8.14832
G1 X124.115 Y148.979 E8.17472
G1 X124.628 Y149.306 E8.20113
G1 X125.113 Y149.672 E8.2275
G1 X125.568 Y150.077 E8.25393
G1 X125.989 Y150.514 E8.28028
G1 X126.375 Y150.986 E8.30674
G1 X126.727 Y151.492 E8.33353
G1 X127.034 Y152.019 E8.36
G1 X127.297 Y152.565 E8.38631
G1 X127.515 Y153.129 E8.41254
G1 X127.755 Y153.976 E8.45075
G1 X127.907 Y154.71 E8.48332
G1 X128.103 Y156.039 E8.54161
G1 X128.181 Y156.973 E8.58229
G1 X128.209 Y158.307 E8.6402
G1 X128.17 Y159.252 E8.68125
G1 X128.031 Y160.578 E8.73914
G1 X127.876 Y161.503 E8.77987
G1 X127.698 Y162.306 E8.81556
G1 X127.427 Y163.162 E8.85453
G1 X127.19 Y163.718 E8.88076
G1 X126.745 Y164.526 E8.92082
G1 X126.395 Y165.035 E8.9476
G1 X126.007 Y165.511 E8.9743
G1 X125.381 Y166.144 E9.01291
G1 X124.91 Y166.536 E9.03953
G1 X124.41 Y166.888 E9.06608
G1 X123.611 Y167.339 E9.10592
G1 X122.771 Y167.689 E9.14539
G1 X122.196 Y167.866 E9.17154
G1 X121.607 Y167.998 E9.19772
G1 X120.675 Y168.11 E9.23845
G1 X120.217 Y168.125 E9.25836
G1 X99.796 Y168.125 E10.14479
G1 X99.027 Y168.086 E10.17822
G1 X98.122 Y167.943 E10.218
G1 X97.245 Y167.696 E10.25754
G1 X96.406 Y167.347 E10.29701
G1 X95.876 Y167.063 E10.3231
G1 X95.366 Y166.737 E10.34936
G1 X95.11 Y166.551 E10.36309
G1 X94.429 Y165.967 E10.40205
G1 X94.006 Y165.528 E10.42851
G1 X93.801 Y165.286 E10.44227
G1 X93.272 Y164.553 E10.48149
G1 X93.111 Y164.289 E10.49493
G1 X92.823 Y163.743 E10.52173
G1 X92.487 Y162.925 E10.56009
G1 X92.247 Y162.081 E10.59821
G1 X92.092 Y161.335 E10.63128
G1 X91.97 Y160.585 E10.66425
G1 X91.879 Y159.837 E10.69696
G1 X91.819 Y159.076 E10.7301
G1 X91.791 Y157.738 E10.78818
G1 X91.819 Y156.981 E10.82109
G1 X91.878 Y156.219 E10.85425
G1 X91.995 Y155.29 E10.89491
G1 X92.125 Y154.542 E10.92788
G1 X92.243 Y153.98 E10.95279
G1 X92.378 Y153.462 E10.976
G1 X92.576 Y152.875 E11.00292
G1 X92.693 Y152.589 E11.01635
G1 X93.098 Y151.781 E11.05556
G1 X93.262 Y151.509 E11.06934
G1 X93.608 Y151.008 E11.09578
G1 X94.183 Y150.328 E11.13444
G1 X94.62 Y149.902 E11.16095
G1 X94.86 Y149.695 E11.17467
G1 X95.531 Y149.202 E11.21082
G1 X95.796 Y149.564 F18000
G1 F3000
G1 X95.825 Y149.543 E11.21234
G1 X96.072 Y149.389 E11.22498
G1 X96.595 Y149.108 E11.25078
G1 X97.363 Y148.787 E11.28691
G1 X97.899 Y148.621 E11.31126
G1 X98.758 Y148.446 E11.34932
G1 X99.359 Y148.385 E11.37553
G1 X99.793 Y148.371 E11.39437
G1 X120.355 Y148.374 E12.28695
G1 X121.185 Y148.439 E12.3231
G1 X121.758 Y148.538 E12.34832
G1 X122.311 Y148.68 E12.37312
G1 X122.854 Y148.867 E12.39802
G1 X123.378 Y149.095 E12.42285
G1 X123.884 Y149.364 E12.44772
G1 X124.367 Y149.672 E12.47259
G1 X124.832 Y150.023 E12.49789
G1 X125.26 Y150.404 E12.52278
G1 X125.656 Y150.816 E12.54759
G1 X126.02 Y151.261 E12.5725
G1 X126.351 Y151.738 E12.59774
G1 X126.64 Y152.235 E12.62267
G1 X126.887 Y152.749 E12.64744
G1 X127.091 Y153.277 E12.67203
G1 X127.32 Y154.087 E12.70856
G1 X127.466 Y154.792 E12.73982
G1 X127.657 Y156.095 E12.79696
G1 X127.733 Y157.001 E12.83642
G1 X127.76 Y158.298 E12.89275
G1 X127.722 Y159.223 E12.93295
G1 X127.587 Y160.513 E12.98925
G1 X127.436 Y161.414 E13.02891
G1 X127.266 Y162.184 E13.06312
G1 X127.008 Y163 E13.10026
G1 X126.789 Y163.515 E13.12457
G1 X126.366 Y164.285 E13.16268
G1 X126.039 Y164.761 E13.18776
G1 X125.668 Y165.216 E13.21324
G1 X125.082 Y165.808 E13.2494
G1 X124.632 Y166.182 E13.27481
G1 X124.164 Y166.511 E13.29966
G1 X123.406 Y166.939 E13.33744
G1 X122.613 Y167.269 E13.37474
G1 X122.086 Y167.431 E13.39867
G1 X121.538 Y167.554 E13.42304
G1 X120.635 Y167.662 E13.46249
G1 X120.207 Y167.676 E13.48109
G1 X99.811 Y167.677 E14.36645
G1 X99.081 Y167.639 E14.39819
G1 X98.226 Y167.505 E14.43576
G1 X97.4 Y167.273 E14.47298
G1 X96.604 Y166.943 E14.51041
G1 X96.098 Y166.673 E14.53529
G1 X95.393 Y166.202 E14.5721
G1 X94.733 Y165.636 E14.60987
G1 X94.158 Y165.013 E14.64665
G1 X93.649 Y164.309 E14.68436
G1 X93.503 Y164.071 E14.69647
G1 X93.227 Y163.547 E14.72219
G1 X92.915 Y162.786 E14.75792
G1 X92.684 Y161.979 E14.79435
G1 X92.533 Y161.25 E14.82663
G1 X92.414 Y160.519 E14.85878
G1 X92.325 Y159.79 E14.89068
G1 X92.267 Y159.05 E14.92289
G1 X92.24 Y157.746 E14.97952
G1 X92.266 Y157.009 E15.01151
G1 X92.325 Y156.262 E15.04407
G1 X92.439 Y155.359 E15.08355
G1 X92.565 Y154.629 E15.11574
G1 X92.806 Y153.599 E15.16166
G1 X92.998 Y153.028 E15.1878
G1 X93.104 Y152.769 E15.19992
G1 X93.488 Y152.003 E15.23716
G1 X93.641 Y151.75 E15.24998
G1 X93.969 Y151.276 E15.27498
G1 X94.508 Y150.639 E15.3112
G1 X94.92 Y150.235 E15.33626
G1 X95.143 Y150.043 E15.34903
G1 X95.764 Y149.588 E15.38246
G1 X96.03 Y149.949 F18000
G1 F3000
G1 X96.072 Y149.918 E15.38477
G1 X96.3 Y149.775 E15.39644
G1 X96.794 Y149.511 E15.42075
G1 X97.511 Y149.211 E15.45446
G1 X98.004 Y149.058 E15.47689
G1 X98.819 Y148.891 E15.513
G1 X99.393 Y148.833 E15.53806
G1 X99.802 Y148.819 E15.55582
G1 X120.332 Y148.823 E16.447
G1 X121.123 Y148.884 E16.48144
G1 X121.658 Y148.976 E16.50499
G1 X122.177 Y149.109 E16.52824
G1 X122.686 Y149.283 E16.5516
G1 X123.178 Y149.497 E16.5749
G1 X123.653 Y149.749 E16.59823
G1 X124.106 Y150.037 E16.62155
G1 X124.543 Y150.367 E16.6453
G1 X124.945 Y150.724 E16.66865
G1 X125.324 Y151.118 E16.69238
G1 X125.665 Y151.535 E16.71575
G1 X125.975 Y151.984 E16.73944
G1 X126.246 Y152.45 E16.76282
G1 X126.477 Y152.932 E16.78606
G1 X126.667 Y153.426 E16.809
G1 X126.885 Y154.198 E16.84386
G1 X127.025 Y154.874 E16.87381
G1 X127.212 Y156.15 E16.92979
G1 X127.285 Y157.028 E16.96804
G1 X127.311 Y158.289 E17.02279
G1 X127.274 Y159.195 E17.06213
G1 X127.143 Y160.449 E17.11686
G1 X126.996 Y161.326 E17.15545
G1 X126.834 Y162.062 E17.18819
G1 X126.589 Y162.838 E17.2235
G1 X126.387 Y163.313 E17.2459
G1 X125.987 Y164.043 E17.28205
G1 X125.683 Y164.487 E17.30542
G1 X125.33 Y164.921 E17.32968
G1 X124.783 Y165.472 E17.36339
G1 X124.364 Y165.822 E17.38711
G1 X123.918 Y166.135 E17.41073
G1 X123.201 Y166.538 E17.44644
G1 X122.454 Y166.849 E17.48157
G1 X121.965 Y166.998 E17.50375
G1 X121.468 Y167.11 E17.52586
G1 X120.595 Y167.215 E17.56403
G1 X120.198 Y167.228 E17.58131
G1 X99.826 Y167.228 E18.46561
G1 X99.134 Y167.193 E18.49567
G1 X98.329 Y167.067 E18.53103
G1 X97.555 Y166.851 E18.56593
G1 X96.802 Y166.54 E18.60131
G1 X96.323 Y166.284 E18.62486
G1 X95.659 Y165.839 E18.65959
G1 X95.039 Y165.307 E18.69505
G1 X94.501 Y164.722 E18.72954
G1 X94.025 Y164.064 E18.76477
G1 X93.891 Y163.846 E18.77591
G1 X93.631 Y163.351 E18.80016
G1 X93.342 Y162.645 E18.83327
G1 X93.121 Y161.876 E18.86801
G1 X92.974 Y161.166 E18.8995
G1 X92.858 Y160.459 E18.93058
G1 X92.772 Y159.748 E18.96166
G1 X92.716 Y159.024 E18.9932
G1 X92.689 Y157.745 E19.04872
G1 X92.715 Y157.032 E19.07969
G1 X92.771 Y156.31 E19.11112
G1 X92.883 Y155.422 E19.14997
G1 X93.005 Y154.714 E19.18118
G1 X93.241 Y153.713 E19.22582
G1 X93.515 Y152.951 E19.26098
G1 X93.879 Y152.224 E19.29628
G1 X94.015 Y151.997 E19.30776
G1 X94.33 Y151.545 E19.33167
G1 X94.832 Y150.949 E19.36549
G1 X95.221 Y150.569 E19.38909
G1 X95.427 Y150.391 E19.4009
G1 X95.997 Y149.973 E19.43162
G1 X96.263 Y150.334 F18000
G1 F3000
G1 X96.32 Y150.292 E19.43471
G1 X96.529 Y150.161 E19.44541
G1 X96.993 Y149.914 E19.46822
G1 X97.659 Y149.636 E19.49954
G1 X98.11 Y149.495 E19.52006
G1 X98.88 Y149.336 E19.5542
G1 X99.432 Y149.28 E19.57829
G1 X120.32 Y149.272 E20.48501
G1 X121.062 Y149.329 E20.5173
G1 X121.559 Y149.414 E20.53918
G1 X122.053 Y149.54 E20.56135
G1 X122.529 Y149.704 E20.58317
G1 X122.988 Y149.904 E20.60492
G1 X123.423 Y150.134 E20.62626
G1 X123.846 Y150.403 E20.64803
G1 X124.254 Y150.711 E20.67022
G1 X124.63 Y151.044 E20.69202
G1 X124.984 Y151.412 E20.7142
G1 X125.303 Y151.801 E20.73602
G1 X125.593 Y152.22 E20.75816
G1 X125.851 Y152.664 E20.78046
G1 X126.067 Y153.115 E20.80215
G1 X126.243 Y153.573 E20.82346
G1 X126.448 Y154.3 E20.85624
G1 X126.583 Y154.956 E20.8853
G1 X126.765 Y156.197 E20.93976
G1 X126.836 Y157.047 E20.97679
G1 X126.862 Y158.28 E21.03033
G1 X126.826 Y159.158 E21.06846
G1 X126.698 Y160.384 E21.12198
G1 X126.556 Y161.237 E21.1595
G1 X126.398 Y161.952 E21.19128
G1 X126.169 Y162.676 E21.22427
G1 X125.98 Y163.123 E21.24532
G1 X125.608 Y163.802 E21.27895
G1 X125.32 Y164.223 E21.30106
G1 X124.991 Y164.625 E21.32362
G1 X124.484 Y165.137 E21.3549
G1 X124.086 Y165.469 E21.3774
G1 X123.673 Y165.758 E21.39928
G1 X123.012 Y166.13 E21.43223
G1 X122.308 Y166.424 E21.46533
G1 X121.845 Y166.565 E21.48632
G1 X121.386 Y166.668 E21.50677
G1 X120.567 Y166.766 E21.54257
G1 X120.192 Y166.779 E21.55884
G1 X99.841 Y166.78 E22.44227
G1 X99.187 Y166.747 E22.47067
G1 X98.432 Y166.629 E22.50383
G1 X97.709 Y166.428 E22.53642
G1 X97 Y166.136 E22.56973
G1 X96.549 Y165.896 E22.59191
G1 X95.924 Y165.476 E22.62456
G1 X95.346 Y164.978 E22.65771
G1 X94.844 Y164.431 E22.68991
G1 X94.402 Y163.82 E22.72268
G1 X94.279 Y163.62 E22.73285
G1 X94.036 Y163.155 E22.75561
G1 X93.769 Y162.505 E22.78614
G1 X93.558 Y161.773 E22.81919
G1 X93.414 Y161.081 E22.84987
G1 X93.302 Y160.393 E22.88013
G1 X93.219 Y159.707 E22.91015
G1 X93.164 Y158.998 E22.94101
G1 X93.138 Y157.745 E22.99541
G1 X93.163 Y157.055 E23.02538
G1 X93.217 Y156.359 E23.05569
G1 X93.327 Y155.486 E23.0939
G1 X93.446 Y154.8 E23.12411
G1 X93.674 Y153.833 E23.16722
G1 X93.931 Y153.12 E23.20012
G1 X94.278 Y152.431 E23.23364
G1 X94.69 Y151.813 E23.26586
G1 X95.168 Y151.249 E23.29795
G1 X95.71 Y150.74 E23.33025
G1 X96.23 Y150.358 E23.35825
G1 X96.474 Y150.735 F18000
G1 F3000
G1 X96.789 Y150.531 E23.37453
G1 X97.327 Y150.252 E23.40084
G1 X97.872 Y150.035 E23.42631
G1 X98.577 Y149.844 E23.458
G1 X99.173 Y149.752 E23.48418
G1 X99.791 Y149.716 E23.51103
G1 X120.205 Y149.716 E24.3972
G1 X120.955 Y149.768 E24.42981
G1 X121.474 Y149.853 E24.45263
G1 X122.097 Y150.024 E24.48071
G1 X122.646 Y150.241 E24.50633
G1 X123.267 Y150.564 E24.5367
G1 X123.784 Y150.913 E24.56381
G1 X124.319 Y151.37 E24.59435
G1 X124.792 Y151.88 E24.62453
G1 X125.203 Y152.446 E24.6549
G1 X125.512 Y152.988 E24.68196
