; HEADER_BLOCK_START
; generated by AnycubicSlicerNext 1.3.1 on 2026-02-12 at 15:22:16
; total layer number: 32
; filament_density: 1.24
; filament_diameter: 1.75
; max_z_height: 6.44
; HEADER_BLOCK_END

; THUMBNAIL_BLOCK_START

;
; THUMBNAIL_BLOCK_END

; external perimeters extrusion width = 0.42mm
; perimeters extrusion width = 0.45mm
; infill extrusion width = 0.45mm
; solid infill extrusion width = 0.42mm
; top infill extrusion width = 0.42mm
; first layer extrusion width = 0.50mm

; EXECUTABLE_BLOCK_START
M201 X2000 Y2000 Z800 E2000
M203 X300 Y300 Z8 E100
M204 P2000 R2000 T2000
M205 X10.00 Y10.00 Z2.00 E5.00 ; sets the jerk limits, mm/sec
;TYPE:Custom
G90 ; use absolute coordinates
M83 ; extruder relative mode
M104 S220 ; set extruder temp
M140 S60 ; set bed temp
M190 S60 ; wait for bed temp
M109 S220 ; wait for extruder temp
G28                                        ; move X/Y/Z to min endstops
G1 Z0.28                                   ; lift nozzle a bit 
G92 E0 
G1 Y3 F1800                                    ; zero the extruded length 
G1 X60  E25 F500                       ; Extrude 25mm of filament in a 5cm line. 
G92 E0                                     ; zero the extruded length again 
G1 E-2 F500                                ; Retract a little 
G1 X70 F4000                              ; Quickly wipe away from the filament line
M117
G90
G21
M82 ; use absolute distances for extrusion
G92 E0
; filament start gcode
M106 S0
;LAYER_CHANGE
;Z:0.24
;HEIGHT:0.24
; BEFORE_LAYER_CHANGE 0 @ 0.24mm
G1 E-2.5 F6000
G92 E0
; AFTER_LAYER_CHANGE 0 @ 0.24mm
;_SET_FAN_SPEED_CHANGING_LAYER
M204 P500
; printing object "bearingnewsfile.stl" id:1591462561024 copy 0
M204 T500
G1 X104.042 Y103.617 F18000
G1 Z.24
G1 E2.5 F6000
;TYPE:Brim
;WIDTH:0.5
G1 F3000
G1 X104.65 Y103.101 E2.53462
G1 X105.401 Y102.579 E2.5743
G1 X106.142 Y102.168 E2.61108
G1 X106.973 Y101.811 E2.65033
G1 X107.796 Y101.552 E2.68781
G1 X108.597 Y101.383 E2.72333
G1 X109.46 Y101.286 E2.76105
G1 X110.311 Y101.275 E2.79797
G1 X111.104 Y101.341 E2.83254
G1 X111.652 Y101.427 E2.8566
G1 X112.034 Y101.51 E2.87358
G1 X112.695 Y101.697 E2.9034
G1 X113.53 Y102.015 E2.94218
G1 X114.333 Y102.422 E2.98126
G1 X114.99 Y102.837 E3.01498
G1 X115.673 Y103.366 E3.0525
G1 X116.323 Y103.981 E3.09134
G1 X116.905 Y104.66 E3.13013
G1 X117.411 Y105.387 E3.16861
G1 X117.795 Y106.069 E3.20256
G1 X118.14 Y106.845 E3.23943
G1 X118.399 Y107.621 E3.27496
G1 X118.594 Y108.469 E3.31271
G1 X118.661 Y108.909 E3.33203
G1 X118.712 Y109.432 E3.35483
G1 X118.723 Y110.351 E3.39473
G1 X118.644 Y111.212 E3.4323
G1 X118.476 Y112.086 E3.47093
G1 X118.227 Y112.92 E3.50869
G1 X117.882 Y113.752 E3.54778
G1 X117.502 Y114.464 E3.58284
G1 X117.042 Y115.16 E3.61906
G1 X116.504 Y115.824 E3.65613
G1 X115.858 Y116.473 E3.69587
G1 X115.17 Y117.034 E3.73442
G1 X114.434 Y117.521 E3.77273
G1 X113.84 Y117.84 E3.80201
G1 X113.034 Y118.186 E3.84007
G1 X112.188 Y118.452 E3.87859
G1 X111.448 Y118.61 E3.91141
G1 X110.541 Y118.714 E3.95108
G1 X109.695 Y118.725 E3.9878
G1 X109.234 Y118.698 E4.00781
G1 X108.781 Y118.646 E4.0276
G1 X107.943 Y118.486 E4.06466
G1 X107.068 Y118.224 E4.1043
G1 X106.449 Y117.977 E4.13323
G1 X105.782 Y117.645 E4.16556
G1 X105.024 Y117.175 E4.20428
G1 X104.324 Y116.635 E4.24264
G1 X103.687 Y116.033 E4.28073
G1 X103.107 Y115.359 E4.31931
G1 X102.584 Y114.608 E4.35903
G1 X102.162 Y113.849 E4.39671
G1 X101.86 Y113.162 E4.42932
G1 X101.576 Y112.297 E4.46882
G1 X101.389 Y111.449 E4.50652
G1 X101.288 Y110.589 E4.54412
G1 X101.271 Y109.772 E4.57959
G1 X101.35 Y108.81 E4.62147
G1 X101.495 Y108.027 E4.65603
G1 X101.734 Y107.188 E4.69393
G1 X102.055 Y106.377 E4.73179
G1 X102.473 Y105.575 E4.77104
G1 X102.965 Y104.83 E4.80978
G1 X103.511 Y104.158 E4.84738
G1 X104.014 Y103.646 E4.87854
G1 X104.335 Y103.96 F18000
G1 F3000
G1 X104.344 Y103.95 E4.87913
G1 X104.929 Y103.453 E4.91247
G1 X105.644 Y102.957 E4.95023
G1 X106.346 Y102.569 E4.98503
G1 X107.123 Y102.235 E5.02175
G1 X107.903 Y101.988 E5.05729
G1 X108.675 Y101.826 E5.0915
G1 X109.495 Y101.734 E5.12733
G1 X110.301 Y101.725 E5.16235
G1 X111.059 Y101.787 E5.19533
G1 X111.917 Y101.943 E5.2332
G1 X112.559 Y102.125 E5.26217
G1 X113.354 Y102.429 E5.29913
G1 X114.106 Y102.81 E5.33568
G1 X114.737 Y103.209 E5.36811
G1 X115.386 Y103.711 E5.40374
G1 X116.002 Y104.296 E5.4406
G1 X116.545 Y104.929 E5.47681
G1 X117.027 Y105.621 E5.51339
G1 X117.396 Y106.276 E5.54605
G1 X117.723 Y107.013 E5.58107
G1 X117.968 Y107.749 E5.61472
G1 X118.154 Y108.562 E5.6509
G1 X118.262 Y109.447 E5.68964
G1 X118.274 Y110.326 E5.72778
G1 X118.198 Y111.156 E5.76396
G1 X118.038 Y111.986 E5.80067
G1 X117.802 Y112.776 E5.83645
G1 X117.479 Y113.554 E5.87301
G1 X117.113 Y114.24 E5.90675
G1 X116.676 Y114.9 E5.94113
G1 X116.165 Y115.529 E5.97628
G1 X115.562 Y116.135 E6.01342
G1 X114.91 Y116.668 E6.04999
G1 X114.209 Y117.132 E6.08647
G1 X113.64 Y117.438 E6.11453
G1 X112.872 Y117.767 E6.15078
G1 X112.08 Y118.016 E6.18683
G1 X111.369 Y118.167 E6.21835
G1 X110.519 Y118.265 E6.25551
G1 X109.71 Y118.276 E6.29064
G1 X108.858 Y118.203 E6.32775
G1 X108.056 Y118.051 E6.36317
G1 X107.222 Y117.802 E6.40098
G1 X106.628 Y117.564 E6.42874
G1 X105.995 Y117.25 E6.45941
G1 X105.275 Y116.802 E6.49625
G1 X104.611 Y116.289 E6.53264
G1 X104.007 Y115.717 E6.56875
G1 X103.458 Y115.078 E6.60532
G1 X102.969 Y114.376 E6.64246
G1 X102.568 Y113.655 E6.67827
G1 X102.282 Y113.007 E6.70902
G1 X102.012 Y112.185 E6.74659
G1 X101.834 Y111.381 E6.78234
G1 X101.737 Y110.564 E6.81804
G1 X101.72 Y109.779 E6.85215
G1 X101.795 Y108.876 E6.89145
G1 X101.931 Y108.136 E6.92413
G1 X102.157 Y107.339 E6.9601
G1 X102.461 Y106.57 E6.99598
G1 X102.857 Y105.809 E7.03322
G1 X103.323 Y105.101 E7.07
G1 X103.842 Y104.462 E7.10574
G1 X104.307 Y103.989 E7.13454
G1 X104.627 Y104.302 F18000
G1 F3000
G1 X104.646 Y104.283 E7.13569
G1 X105.209 Y103.805 E7.16775
G1 X105.887 Y103.335 E7.20358
G1 X106.549 Y102.97 E7.23641
G1 X107.273 Y102.658 E7.27061
G1 X108.011 Y102.424 E7.30422
G1 X108.752 Y102.269 E7.3371
G1 X109.529 Y102.182 E7.37103
G1 X110.292 Y102.174 E7.40414
G1 X111.006 Y102.234 E7.43527
G1 X111.809 Y102.38 E7.47068
G1 X112.423 Y102.554 E7.49839
G1 X113.179 Y102.843 E7.53351
G1 X113.878 Y103.197 E7.56755
G1 X114.485 Y103.58 E7.59868
G1 X115.099 Y104.057 E7.63242
G1 X115.681 Y104.611 E7.66731
G1 X116.194 Y105.21 E7.70153
G1 X116.643 Y105.854 E7.73563
G1 X116.998 Y106.483 E7.76698
G1 X117.307 Y107.182 E7.80014
G1 X117.537 Y107.876 E7.83191
G1 X117.712 Y108.646 E7.86616
G1 X117.813 Y109.47 E7.90223
G1 X117.826 Y110.301 E7.9383
G1 X117.752 Y111.099 E7.97308
G1 X117.6 Y111.886 E8.00785
G1 X117.376 Y112.632 E8.04166
G1 X117.076 Y113.356 E8.07569
G1 X116.724 Y114.015 E8.10813
G1 X116.31 Y114.639 E8.14064
G1 X115.826 Y115.233 E8.17388
G1 X115.265 Y115.797 E8.20844
G1 X114.649 Y116.302 E8.24303
G1 X113.983 Y116.743 E8.27767
G1 X113.439 Y117.036 E8.3045
G1 X112.71 Y117.348 E8.33893
G1 X111.971 Y117.58 E8.37253
G1 X111.29 Y117.725 E8.40275
G1 X110.497 Y117.816 E8.43742
G1 X109.719 Y117.827 E8.47118
G1 X108.926 Y117.759 E8.50574
G1 X108.169 Y117.616 E8.53917
G1 X107.375 Y117.38 E8.57514
G1 X106.806 Y117.152 E8.60172
G1 X106.209 Y116.854 E8.63071
G1 X105.525 Y116.428 E8.66566
G1 X104.898 Y115.943 E8.70008
G1 X104.328 Y115.402 E8.73422
G1 X103.809 Y114.798 E8.7688
G1 X103.354 Y114.144 E8.80337
G1 X102.973 Y113.461 E8.83732
G1 X102.704 Y112.852 E8.86621
G1 X102.447 Y112.073 E8.90185
G1 X102.278 Y111.312 E8.93565
G1 X102.186 Y110.539 E8.96944
G1 X102.17 Y109.785 E9.00218
G1 X102.239 Y108.942 E9.03891
G1 X102.367 Y108.244 E9.06971
G1 X102.581 Y107.489 E9.10377
G1 X102.867 Y106.763 E9.13766
G1 X103.241 Y106.042 E9.1729
G1 X103.682 Y105.372 E9.2077
G1 X104.173 Y104.766 E9.24158
G1 X104.599 Y104.331 E9.26802
G1 X104.92 Y104.644 F18000
G1 F3000
G1 X104.948 Y104.616 E9.26973
G1 X105.488 Y104.157 E9.30049
G1 X106.13 Y103.713 E9.33438
G1 X106.753 Y103.37 E9.36525
G1 X107.424 Y103.082 E9.39696
G1 X108.119 Y102.861 E9.42862
G1 X108.817 Y102.713 E9.4596
G1 X109.55 Y102.631 E9.49161
G1 X110.282 Y102.623 E9.52338
G1 X110.954 Y102.68 E9.55266
G1 X111.714 Y102.819 E9.5862
G1 X112.287 Y102.982 E9.61208
G1 X113.003 Y103.257 E9.64535
G1 X113.651 Y103.585 E9.67689
G1 X114.232 Y103.952 E9.70672
G1 X114.811 Y104.402 E9.73855
G1 X115.36 Y104.925 E9.77146
G1 X115.842 Y105.49 E9.80371
G1 X116.259 Y106.088 E9.83534
G1 X116.599 Y106.691 E9.86538
G1 X116.89 Y107.35 E9.89666
G1 X117.106 Y108.003 E9.92655
G1 X117.271 Y108.73 E9.95888
G1 X117.364 Y109.494 E9.9923
G1 X117.377 Y110.277 E10.02629
G1 X117.308 Y111.029 E10.05909
G1 X117.165 Y111.771 E10.09189
G1 X116.955 Y112.474 E10.12374
G1 X116.672 Y113.158 E10.15585
G1 X116.335 Y113.79 E10.18696
G1 X115.944 Y114.378 E10.21761
G1 X115.488 Y114.937 E10.24893
G1 X114.968 Y115.46 E10.28094
G1 X114.387 Y115.937 E10.31355
G1 X113.758 Y116.355 E10.34635
G1 X113.239 Y116.634 E10.37194
G1 X112.548 Y116.929 E10.40455
G1 X111.863 Y117.144 E10.43569
G1 X111.211 Y117.283 E10.46462
G1 X110.461 Y117.368 E10.49739
G1 X109.729 Y117.378 E10.52919
G1 X108.994 Y117.315 E10.56121
G1 X108.282 Y117.18 E10.59267
G1 X107.528 Y116.957 E10.62677
G1 X106.985 Y116.74 E10.65217
G1 X106.423 Y116.459 E10.67947
G1 X105.776 Y116.056 E10.71254
G1 X105.186 Y115.598 E10.74498
G1 X104.648 Y115.087 E10.77715
G1 X104.16 Y114.517 E10.80974
G1 X103.738 Y113.912 E10.84177
G1 X103.378 Y113.266 E10.87385
G1 X103.121 Y112.685 E10.90145
G1 X102.882 Y111.96 E10.9346
G1 X102.722 Y111.244 E10.96644
G1 X102.634 Y110.515 E10.99831
G1 X102.619 Y109.792 E11.02968
G1 X102.684 Y109.007 E11.06386
G1 X102.803 Y108.352 E11.09277
G1 X103.004 Y107.639 E11.12492
G1 X103.273 Y106.955 E11.15683
G1 X103.625 Y106.276 E11.19006
G1 X104.04 Y105.643 E11.2229
G1 X104.504 Y105.07 E11.25491
G1 X104.892 Y104.673 E11.27899
G1 X105.213 Y104.986 F18000
G1 F3000
G1 X105.249 Y104.949 E11.28125
G1 X105.766 Y104.51 E11.3107
G1 X106.36 Y104.099 E11.34203
G1 X106.944 Y103.777 E11.37098
G1 X107.575 Y103.505 E11.40078
G1 X108.227 Y103.297 E11.43051
G1 X108.895 Y103.156 E11.46015
G1 X109.584 Y103.079 E11.49025
G1 X110.272 Y103.072 E11.52009
G1 X110.901 Y103.126 E11.54751
G1 X111.618 Y103.258 E11.57917
G1 X112.151 Y103.41 E11.60321
G1 X112.827 Y103.67 E11.63465
G1 X113.424 Y103.973 E11.6637
G1 X113.979 Y104.324 E11.69222
G1 X114.523 Y104.747 E11.72213
G1 X115.038 Y105.239 E11.75307
G1 X115.483 Y105.759 E11.78278
G1 X115.875 Y106.321 E11.81252
G1 X116.2 Y106.898 E11.84124
G1 X116.473 Y107.517 E11.87063
G1 X116.675 Y108.13 E11.89865
G1 X116.829 Y108.814 E11.92906
G1 X116.916 Y109.532 E11.96047
G1 X116.927 Y110.267 E11.9924
G1 X116.863 Y110.973 E12.02316
G1 X116.731 Y111.658 E12.05343
G1 X116.534 Y112.317 E12.0833
G1 X116.269 Y112.96 E12.11348
G1 X115.952 Y113.554 E12.1427
G1 X115.578 Y114.117 E12.17203
G1 X115.15 Y114.642 E12.20145
G1 X114.671 Y115.123 E12.23092
G1 X114.125 Y115.571 E12.26157
G1 X113.532 Y115.966 E12.2925
G1 X113.039 Y116.232 E12.31684
G1 X112.386 Y116.509 E12.34762
G1 X111.755 Y116.708 E12.37633
G1 X111.133 Y116.84 E12.40395
G1 X110.426 Y116.92 E12.43481
G1 X109.738 Y116.928 E12.46467
G1 X109.061 Y116.87 E12.49417
G1 X108.394 Y116.745 E12.52364
G1 X107.682 Y116.535 E12.55588
G1 X107.164 Y116.328 E12.58008
G1 X106.637 Y116.064 E12.60568
G1 X106.028 Y115.683 E12.63686
G1 X105.473 Y115.252 E12.66733
G1 X104.97 Y114.773 E12.69753
G1 X104.519 Y114.248 E12.72755
G1 X104.123 Y113.679 E12.75764
G1 X103.783 Y113.072 E12.78786
G1 X103.538 Y112.517 E12.81416
G1 X103.317 Y111.847 E12.84482
G1 X103.166 Y111.174 E12.87473
G1 X103.083 Y110.49 E12.90466
G1 X103.069 Y109.799 E12.93465
G1 X103.128 Y109.073 E12.96629
G1 X103.239 Y108.46 E12.99333
G1 X103.428 Y107.789 E13.02356
G1 X103.68 Y107.148 E13.05348
G1 X104.01 Y106.508 E13.08471
G1 X104.399 Y105.913 E13.11558
G1 X104.836 Y105.373 E13.14572
G1 X105.185 Y105.015 E13.16746
G1 X105.504 Y105.333 F18000
G1 F3000
G1 X105.629 Y105.208 E13.17513
G1 X106.119 Y104.804 E13.20272
G1 X106.659 Y104.442 E13.23093
G1 X107.229 Y104.136 E13.25902
G1 X107.848 Y103.882 E13.28805
G1 X108.403 Y103.714 E13.31324
G1 X109.111 Y103.577 E13.34454
G1 X109.708 Y103.521 E13.37055
G1 X110.35 Y103.524 E13.39842
G1 X111.035 Y103.598 E13.42834
G1 X111.606 Y103.716 E13.45366
G1 X112.266 Y103.925 E13.48367
G1 X112.878 Y104.19 E13.51262
G1 X113.408 Y104.483 E13.53893
G1 X113.929 Y104.841 E13.56637
G1 X114.418 Y105.253 E13.59412
G1 X114.876 Y105.726 E13.62272
G1 X115.283 Y106.241 E13.6512
G1 X115.639 Y106.798 E13.67989
G1 X115.901 Y107.31 E13.70484
G1 X116.165 Y107.991 E13.73656
G1 X116.294 Y108.435 E13.75662
G1 X116.42 Y109.092 E13.78567
G1 X116.478 Y109.704 E13.81237
G1 X116.475 Y110.355 E13.84062
G1 X116.408 Y110.986 E13.86818
G1 X116.279 Y111.618 E13.89618
G1 X116.105 Y112.187 E13.922
G1 X115.852 Y112.793 E13.95052
G1 X115.564 Y113.33 E13.97696
G1 X115.208 Y113.865 E14.00484
G1 X114.801 Y114.36 E14.03268
G1 X114.337 Y114.822 E14.06107
G1 X113.826 Y115.236 E14.08966
G1 X113.331 Y115.565 E14.11546
G1 X112.76 Y115.869 E14.14352
G1 X112.155 Y116.117 E14.17191
G1 X111.522 Y116.305 E14.20058
G1 X110.919 Y116.421 E14.2272
G1 X110.311 Y116.477 E14.25375
G1 X109.016 Y116.411 E14.31004
G1 X108.384 Y116.281 E14.33804
G1 X107.813 Y116.107 E14.36395
G1 X107.243 Y115.871 E14.3907
G1 X106.654 Y115.557 E14.41971
G1 X106.155 Y115.224 E14.44571
G1 X105.646 Y114.809 E14.47423
G1 X105.183 Y114.345 E14.50267
G1 X104.799 Y113.876 E14.52899
G1 X104.44 Y113.34 E14.55702
G1 X104.133 Y112.768 E14.58517
G1 X103.886 Y112.168 E14.61334
G1 X103.7 Y111.543 E14.64164
G1 X103.577 Y110.904 E14.6699
G1 X103.52 Y110.306 E14.69596
G1 X103.523 Y109.66 E14.72403
G1 X103.591 Y108.998 E14.75291
G1 X103.707 Y108.43 E14.77809
G1 X103.895 Y107.808 E14.80627
G1 X104.121 Y107.258 E14.83209
G1 X104.425 Y106.685 E14.86026
G1 X104.788 Y106.14 E14.88869
G1 X105.205 Y105.632 E14.9172
G1 X105.476 Y105.362 E14.93382
G1 X105.791 Y105.679 F18000
G1 F3000
G1 X105.949 Y105.522 E14.94348
G1 X106.408 Y105.147 E14.96923
G1 X106.912 Y104.812 E14.99549
G1 X107.445 Y104.529 E15.02169
G1 X108.022 Y104.296 E15.04869
G1 X108.538 Y104.142 E15.07207
G1 X109.201 Y104.016 E15.10135
G1 X109.753 Y103.967 E15.12543
G1 X110.353 Y103.972 E15.15146
G1 X110.991 Y104.044 E15.17933
G1 X111.519 Y104.156 E15.20278
G1 X112.135 Y104.354 E15.23083
G1 X112.703 Y104.603 E15.25776
G1 X113.195 Y104.877 E15.28223
G1 X113.678 Y105.213 E15.30774
G1 X114.132 Y105.599 E15.33362
G1 X114.557 Y106.041 E15.36027
G1 X114.934 Y106.522 E15.38679
G1 X115.263 Y107.042 E15.41348
G1 X115.504 Y107.518 E15.43663
G1 X115.748 Y108.156 E15.4663
G1 X115.864 Y108.563 E15.48464
G1 X115.981 Y109.181 E15.51197
G1 X116.032 Y109.751 E15.5368
G1 X116.027 Y110.357 E15.56311
G1 X115.962 Y110.943 E15.58871
G1 X115.839 Y111.532 E15.61483
G1 X115.675 Y112.06 E15.63883
G1 X115.437 Y112.624 E15.66542
G1 X115.167 Y113.122 E15.68996
G1 X114.832 Y113.619 E15.716
G1 X114.452 Y114.079 E15.74193
G1 X114.018 Y114.506 E15.76834
G1 X113.54 Y114.891 E15.79496
G1 X113.079 Y115.194 E15.81891
G1 X112.545 Y115.475 E15.84509
G1 X111.981 Y115.704 E15.87155
G1 X111.39 Y115.876 E15.89824
G1 X110.831 Y115.981 E15.92296
G1 X110.262 Y116.032 E15.94775
G1 X109.113 Y115.973 E15.9977
G1 X108.521 Y115.855 E16.02388
G1 X107.938 Y115.676 E16.05035
G1 X107.411 Y115.455 E16.07517
G1 X106.908 Y115.187 E16.0999
G1 X106.399 Y114.847 E16.12647
G1 X105.927 Y114.459 E16.15302
G1 X105.498 Y114.025 E16.17948
G1 X105.143 Y113.589 E16.20389
G1 X104.81 Y113.087 E16.23005
G1 X104.526 Y112.552 E16.25632
G1 X104.299 Y111.994 E16.2825
G1 X104.129 Y111.411 E16.30883
G1 X104.016 Y110.815 E16.33517
G1 X103.966 Y110.26 E16.35937
G1 X103.971 Y109.658 E16.3855
G1 X104.038 Y109.04 E16.41248
G1 X104.147 Y108.515 E16.43574
G1 X104.325 Y107.934 E16.46213
G1 X104.537 Y107.425 E16.48608
G1 X104.823 Y106.891 E16.51236
G1 X105.164 Y106.385 E16.53885
G1 X105.554 Y105.914 E16.5654
G1 X105.763 Y105.707 E16.57814
G1 X106.076 Y106.026 F18000
G1 F3000
G1 X106.267 Y105.838 E16.58979
G1 X106.695 Y105.491 E16.6137
G1 X107.163 Y105.184 E16.63801
G1 X107.659 Y104.923 E16.66233
G1 X108.193 Y104.71 E16.68728
G1 X108.67 Y104.57 E16.70887
G1 X109.288 Y104.456 E16.73612
