; HEADER_BLOCK_START
; generated by AnycubicSlicerNext 1.3.1 on 2026-02-12 at 14:33:58
; total layer number: 32
; filament_density: 1.24
; filament_diameter: 1.75
; max_z_height: 6.44
; HEADER_BLOCK_END

; THUMBNAIL_BLOCK_START

;
; THUMBNAIL_BLOCK_END

; external perimeters extrusion width = 0.42mm
; perimeters extrusion width = 0.45mm
; infill extrusion width = 0.45mm
; solid infill extrusion width = 0.42mm
; top infill extrusion width = 0.42mm
; first layer extrusion width = 0.50mm

; EXECUTABLE_BLOCK_START
M201 X2000 Y2000 Z800 E2000
M203 X300 Y300 Z8 E100
M204 P2000 R2000 T2000
M205 X10.00 Y10.00 Z2.00 E5.00 ; sets the jerk limits, mm/sec
;TYPE:Custom
G90 ; use absolute coordinates
M83 ; extruder relative mode
M104 S220 ; set extruder temp
M140 S60 ; set bed temp
M190 S60 ; wait for bed temp
M109 S220 ; wait for extruder temp
G28                                        ; move X/Y/Z to min endstops
G1 Z0.28                                   ; lift nozzle a bit 
G92 E0 
G1 Y3 F1800                                    ; zero the extruded length 
G1 X60  E25 F500                       ; Extrude 25mm of filament in a 5cm line. 
G92 E0                                     ; zero the extruded length again 
G1 E-2 F500                                ; Retract a little 
G1 X70 F4000                              ; Quickly wipe away from the filament line
M117
G90
G21
M82 ; use absolute distances for extrusion
G92 E0
; filament start gcode
M106 S0
;LAYER_CHANGE
;Z:0.24
;HEIGHT:0.24
; BEFORE_LAYER_CHANGE 0 @ 0.24mm
G1 E-2.5 F6000
G92 E0
; AFTER_LAYER_CHANGE 0 @ 0.24mm
;_SET_FAN_SPEED_CHANGING_LAYER
M204 P500
; printing object "bearinball.stl" id:0 copy 0
M204 T500
G1 X104.043 Y103.617 F18000
G1 Z.24
G1 E2.5 F6000
;TYPE:Brim
;WIDTH:0.5
G1 F3000
G1 X104.65 Y103.101 E2.53462
G1 X105.401 Y102.579 E2.5743
G1 X106.142 Y102.168 E2.61107
G1 X106.973 Y101.811 E2.65033
G1 X107.796 Y101.552 E2.6878
G1 X108.597 Y101.383 E2.72333
G1 X109.46 Y101.286 E2.76104
G1 X110.311 Y101.275 E2.79797
G1 X111.104 Y101.341 E2.83253
G1 X111.652 Y101.427 E2.85659
G1 X112.034 Y101.51 E2.87357
G1 X112.695 Y101.697 E2.90339
G1 X113.53 Y102.015 E2.94217
G1 X114.333 Y102.422 E2.98125
G1 X114.99 Y102.837 E3.01497
G1 X115.673 Y103.366 E3.05249
G1 X116.323 Y103.981 E3.09133
G1 X116.905 Y104.66 E3.13012
G1 X117.411 Y105.387 E3.1686
G1 X117.795 Y106.069 E3.20255
G1 X118.14 Y106.845 E3.23942
G1 X118.399 Y107.621 E3.27496
G1 X118.594 Y108.469 E3.3127
G1 X118.66 Y108.909 E3.33202
G1 X118.711 Y109.432 E3.35482
G1 X118.723 Y110.351 E3.39472
G1 X118.644 Y111.212 E3.43228
G1 X118.476 Y112.086 E3.47092
G1 X118.227 Y112.92 E3.50868
G1 X117.882 Y113.752 E3.54777
G1 X117.502 Y114.464 E3.58282
G1 X117.042 Y115.16 E3.61905
G1 X116.504 Y115.824 E3.65612
G1 X115.858 Y116.473 E3.69586
G1 X115.17 Y117.034 E3.73441
G1 X114.434 Y117.521 E3.77272
G1 X113.84 Y117.84 E3.802
G1 X113.034 Y118.186 E3.84006
G1 X112.188 Y118.452 E3.87858
G1 X111.448 Y118.61 E3.9114
G1 X110.541 Y118.714 E3.95106
G1 X109.695 Y118.725 E3.98779
G1 X109.234 Y118.698 E4.0078
G1 X108.781 Y118.646 E4.02759
G1 X107.943 Y118.486 E4.06464
G1 X107.068 Y118.224 E4.10429
G1 X106.449 Y117.977 E4.13322
G1 X105.782 Y117.645 E4.16555
G1 X105.024 Y117.175 E4.20427
G1 X104.324 Y116.635 E4.24263
G1 X103.687 Y116.033 E4.28072
G1 X103.107 Y115.359 E4.31929
G1 X102.584 Y114.608 E4.35902
G1 X102.162 Y113.849 E4.3967
G1 X101.86 Y113.162 E4.42931
G1 X101.576 Y112.297 E4.46881
G1 X101.389 Y111.449 E4.50651
G1 X101.288 Y110.589 E4.54411
G1 X101.271 Y109.772 E4.57958
G1 X101.35 Y108.81 E4.62146
G1 X101.495 Y108.027 E4.65602
G1 X101.734 Y107.188 E4.69392
G1 X102.055 Y106.377 E4.73178
G1 X102.473 Y105.575 E4.77103
G1 X102.965 Y104.83 E4.80977
G1 X103.511 Y104.158 E4.84737
G1 X104.015 Y103.646 E4.87854
G1 X104.335 Y103.96 F18000
G1 F3000
G1 X104.344 Y103.95 E4.87912
G1 X104.929 Y103.453 E4.91246
G1 X105.644 Y102.957 E4.95022
G1 X106.346 Y102.569 E4.98502
G1 X107.123 Y102.235 E5.02174
G1 X107.903 Y101.988 E5.05728
G1 X108.675 Y101.826 E5.09149
G1 X109.495 Y101.734 E5.12732
G1 X110.301 Y101.725 E5.16233
G1 X111.059 Y101.787 E5.19532
G1 X111.917 Y101.943 E5.23318
G1 X112.559 Y102.125 E5.26216
G1 X113.354 Y102.429 E5.29911
G1 X114.106 Y102.81 E5.33567
G1 X114.737 Y103.209 E5.36809
G1 X115.386 Y103.711 E5.40372
G1 X116.002 Y104.296 E5.44059
G1 X116.545 Y104.929 E5.47679
G1 X117.027 Y105.62 E5.51338
G1 X117.396 Y106.276 E5.54603
G1 X117.723 Y107.013 E5.58105
G1 X117.968 Y107.749 E5.61471
G1 X118.154 Y108.562 E5.65089
G1 X118.262 Y109.447 E5.68962
G1 X118.274 Y110.326 E5.72777
G1 X118.198 Y111.156 E5.76394
G1 X118.038 Y111.986 E5.80065
G1 X117.802 Y112.776 E5.83643
G1 X117.479 Y113.554 E5.87299
G1 X117.113 Y114.24 E5.90674
G1 X116.675 Y114.9 E5.94112
G1 X116.165 Y115.528 E5.97626
G1 X115.562 Y116.135 E6.0134
G1 X114.91 Y116.668 E6.04997
G1 X114.209 Y117.132 E6.08645
G1 X113.64 Y117.438 E6.11451
G1 X112.872 Y117.767 E6.15076
G1 X112.08 Y118.016 E6.18681
G1 X111.369 Y118.167 E6.21833
G1 X110.519 Y118.265 E6.2555
G1 X109.71 Y118.276 E6.29062
G1 X108.858 Y118.203 E6.32774
G1 X108.056 Y118.051 E6.36315
G1 X107.222 Y117.802 E6.40096
G1 X106.628 Y117.564 E6.42873
G1 X105.995 Y117.25 E6.4594
G1 X105.275 Y116.802 E6.49623
G1 X104.611 Y116.289 E6.53262
G1 X104.007 Y115.717 E6.56873
G1 X103.458 Y115.078 E6.60531
G1 X102.969 Y114.376 E6.64245
G1 X102.568 Y113.655 E6.67825
G1 X102.282 Y113.007 E6.70901
G1 X102.012 Y112.185 E6.74658
G1 X101.834 Y111.381 E6.78232
G1 X101.737 Y110.564 E6.81803
G1 X101.72 Y109.779 E6.85213
G1 X101.795 Y108.876 E6.89144
G1 X101.931 Y108.136 E6.92411
G1 X102.157 Y107.339 E6.96009
G1 X102.461 Y106.57 E6.99597
G1 X102.857 Y105.809 E7.03321
G1 X103.323 Y105.101 E7.06998
G1 X103.842 Y104.462 E7.10572
G1 X104.307 Y103.988 E7.13453
G1 X104.627 Y104.302 F18000
G1 F3000
G1 X104.646 Y104.283 E7.13568
G1 X105.209 Y103.805 E7.16773
G1 X105.887 Y103.335 E7.20356
G1 X106.549 Y102.97 E7.23639
G1 X107.273 Y102.658 E7.2706
G1 X108.011 Y102.424 E7.3042
G1 X108.752 Y102.269 E7.33708
G1 X109.529 Y102.182 E7.37102
G1 X110.292 Y102.174 E7.40412
G1 X111.006 Y102.234 E7.43525
G1 X111.809 Y102.38 E7.47066
G1 X112.423 Y102.554 E7.49837
G1 X113.179 Y102.843 E7.53349
G1 X113.878 Y103.198 E7.56753
G1 X114.485 Y103.58 E7.59866
G1 X115.099 Y104.057 E7.6324
G1 X115.681 Y104.611 E7.66728
G1 X116.194 Y105.21 E7.70151
G1 X116.643 Y105.854 E7.73561
G1 X116.998 Y106.483 E7.76696
G1 X117.307 Y107.182 E7.80011
G1 X117.537 Y107.876 E7.83189
G1 X117.712 Y108.646 E7.86614
G1 X117.813 Y109.47 E7.90221
G1 X117.826 Y110.301 E7.93828
G1 X117.752 Y111.099 E7.97306
G1 X117.6 Y111.886 E8.00782
G1 X117.376 Y112.632 E8.04164
G1 X117.076 Y113.356 E8.07567
G1 X116.724 Y114.015 E8.1081
G1 X116.31 Y114.639 E8.14062
G1 X115.826 Y115.233 E8.17385
G1 X115.265 Y115.797 E8.20842
G1 X114.649 Y116.302 E8.24301
G1 X113.983 Y116.743 E8.27765
G1 X113.439 Y117.036 E8.30448
G1 X112.71 Y117.348 E8.33891
G1 X111.971 Y117.58 E8.3725
G1 X111.29 Y117.725 E8.40272
G1 X110.497 Y117.816 E8.4374
G1 X109.719 Y117.827 E8.47116
G1 X108.926 Y117.759 E8.50572
G1 X108.169 Y117.616 E8.53915
G1 X107.375 Y117.38 E8.57511
G1 X106.806 Y117.152 E8.6017
G1 X106.209 Y116.854 E8.6307
G1 X105.525 Y116.428 E8.66564
G1 X104.898 Y115.943 E8.70006
G1 X104.328 Y115.402 E8.7342
G1 X103.809 Y114.798 E8.76878
G1 X103.354 Y114.144 E8.80335
G1 X102.973 Y113.461 E8.8373
G1 X102.704 Y112.852 E8.86619
G1 X102.447 Y112.072 E8.90183
G1 X102.278 Y111.312 E8.93563
G1 X102.186 Y110.539 E8.96942
G1 X102.17 Y109.785 E9.00216
G1 X102.239 Y108.942 E9.03889
G1 X102.367 Y108.244 E9.06968
G1 X102.581 Y107.489 E9.10375
G1 X102.867 Y106.763 E9.13764
G1 X103.241 Y106.042 E9.17288
G1 X103.682 Y105.372 E9.20768
G1 X104.173 Y104.766 E9.24155
G1 X104.599 Y104.331 E9.268
G1 X104.92 Y104.644 F18000
G1 F3000
G1 X104.948 Y104.616 E9.26971
G1 X105.488 Y104.157 E9.30047
G1 X106.13 Y103.713 E9.33435
G1 X106.753 Y103.37 E9.36523
G1 X107.424 Y103.082 E9.39693
G1 X108.119 Y102.861 E9.4286
G1 X108.817 Y102.713 E9.45957
G1 X109.55 Y102.631 E9.49158
G1 X110.282 Y102.623 E9.52336
G1 X110.954 Y102.68 E9.55264
G1 X111.714 Y102.819 E9.58617
G1 X112.287 Y102.982 E9.61205
G1 X113.003 Y103.257 E9.64532
G1 X113.651 Y103.585 E9.67687
G1 X114.232 Y103.952 E9.70669
G1 X114.811 Y104.402 E9.73852
G1 X115.36 Y104.925 E9.77144
G1 X115.834 Y105.479 E9.80311
G1 X116.259 Y106.088 E9.83531
G1 X116.599 Y106.69 E9.86535
G1 X116.89 Y107.35 E9.89663
G1 X117.106 Y108.004 E9.92653
G1 X117.271 Y108.73 E9.95885
G1 X117.364 Y109.494 E9.99227
G1 X117.377 Y110.277 E10.02627
G1 X117.308 Y111.029 E10.05906
G1 X117.165 Y111.771 E10.09187
G1 X116.955 Y112.474 E10.12371
G1 X116.672 Y113.158 E10.15582
G1 X116.335 Y113.79 E10.18694
G1 X115.944 Y114.378 E10.21758
G1 X115.488 Y114.937 E10.2489
G1 X114.968 Y115.46 E10.28091
G1 X114.387 Y115.937 E10.31353
G1 X113.758 Y116.355 E10.34632
G1 X113.239 Y116.634 E10.37191
G1 X112.548 Y116.929 E10.40452
G1 X111.863 Y117.144 E10.43566
G1 X111.211 Y117.283 E10.46459
G1 X110.461 Y117.368 E10.49737
G1 X109.729 Y117.378 E10.52917
G1 X108.994 Y117.315 E10.56119
G1 X108.282 Y117.18 E10.59264
G1 X107.528 Y116.957 E10.62674
G1 X106.985 Y116.74 E10.65214
G1 X106.422 Y116.459 E10.67945
G1 X105.776 Y116.056 E10.71251
G1 X105.186 Y115.598 E10.74495
G1 X104.648 Y115.087 E10.77712
G1 X104.16 Y114.517 E10.80971
G1 X103.738 Y113.912 E10.84174
G1 X103.378 Y113.266 E10.87383
G1 X103.121 Y112.685 E10.90143
G1 X102.882 Y111.96 E10.93457
G1 X102.722 Y111.244 E10.96642
G1 X102.634 Y110.515 E10.99828
G1 X102.619 Y109.792 E11.02965
G1 X102.684 Y109.007 E11.06383
G1 X102.803 Y108.352 E11.09274
G1 X103.004 Y107.639 E11.12489
G1 X103.273 Y106.955 E11.1568
G1 X103.625 Y106.276 E11.19003
G1 X104.04 Y105.643 E11.22287
G1 X104.504 Y105.07 E11.25488
G1 X104.892 Y104.673 E11.27897
G1 X105.213 Y104.986 F18000
G1 F3000
G1 X105.25 Y104.949 E11.28122
G1 X105.767 Y104.51 E11.31067
G1 X106.36 Y104.099 E11.342
G1 X106.944 Y103.777 E11.37095
G1 X107.575 Y103.505 E11.40075
G1 X108.227 Y103.297 E11.43048
G1 X108.895 Y103.156 E11.46012
G1 X109.584 Y103.079 E11.49022
G1 X110.272 Y103.072 E11.52006
G1 X110.901 Y103.126 E11.54748
G1 X111.618 Y103.258 E11.57914
G1 X112.151 Y103.41 E11.60318
G1 X112.827 Y103.67 E11.63462
G1 X113.424 Y103.973 E11.66367
G1 X113.979 Y104.324 E11.69218
G1 X114.523 Y104.747 E11.72209
G1 X115.038 Y105.239 E11.75304
G1 X115.483 Y105.76 E11.78276
G1 X115.875 Y106.321 E11.81249
G1 X116.2 Y106.898 E11.84121
G1 X116.473 Y107.517 E11.8706
G1 X116.675 Y108.13 E11.89862
G1 X116.829 Y108.813 E11.92902
G1 X116.916 Y109.532 E11.96044
G1 X116.927 Y110.267 E11.99236
G1 X116.863 Y110.973 E12.02313
G1 X116.731 Y111.658 E12.05339
G1 X116.534 Y112.317 E12.08327
G1 X116.269 Y112.96 E12.11345
G1 X115.952 Y113.554 E12.14267
G1 X115.578 Y114.117 E12.17199
G1 X115.15 Y114.642 E12.20141
G1 X114.671 Y115.123 E12.23089
G1 X114.125 Y115.571 E12.26154
G1 X113.532 Y115.966 E12.29247
G1 X113.039 Y116.232 E12.3168
G1 X112.386 Y116.509 E12.34759
G1 X111.755 Y116.707 E12.3763
G1 X111.133 Y116.84 E12.40391
G1 X110.426 Y116.92 E12.43478
G1 X109.738 Y116.928 E12.46463
G1 X109.061 Y116.87 E12.49413
G1 X108.394 Y116.745 E12.52361
G1 X107.682 Y116.535 E12.55585
G1 X107.164 Y116.328 E12.58004
G1 X106.637 Y116.064 E12.60565
G1 X106.028 Y115.683 E12.63682
G1 X105.473 Y115.252 E12.6673
G1 X104.969 Y114.773 E12.69749
G1 X104.519 Y114.248 E12.72752
G1 X104.123 Y113.679 E12.75761
G1 X103.783 Y113.072 E12.78783
G1 X103.538 Y112.517 E12.81413
G1 X103.317 Y111.847 E12.84479
G1 X103.166 Y111.174 E12.87469
G1 X103.083 Y110.49 E12.90463
G1 X103.069 Y109.799 E12.93461
G1 X103.129 Y109.073 E12.96626
G1 X103.239 Y108.46 E12.99329
G1 X103.428 Y107.789 E13.02353
G1 X103.68 Y107.148 E13.05344
G1 X104.01 Y106.508 E13.08468
G1 X104.399 Y105.913 E13.11555
G1 X104.836 Y105.373 E13.14569
G1 X105.185 Y105.015 E13.16743
G1 X105.504 Y105.333 F18000
G1 F3000
G1 X105.629 Y105.208 E13.17509
G1 X106.119 Y104.804 E13.20269
G1 X106.659 Y104.442 E13.2309
G1 X107.229 Y104.136 E13.25898
G1 X107.848 Y103.882 E13.28802
G1 X108.403 Y103.714 E13.3132
G1 X109.111 Y103.577 E13.3445
G1 X109.708 Y103.521 E13.37051
G1 X110.35 Y103.524 E13.39839
G1 X111.035 Y103.598 E13.4283
G1 X111.606 Y103.716 E13.45362
G1 X112.266 Y103.925 E13.48363
G1 X112.878 Y104.19 E13.51258
G1 X113.408 Y104.483 E13.53889
G1 X113.929 Y104.841 E13.56633
G1 X114.418 Y105.253 E13.59408
G1 X114.876 Y105.726 E13.62268
G1 X115.283 Y106.241 E13.65116
G1 X115.639 Y106.798 E13.67985
G1 X115.901 Y107.31 E13.7048
G1 X116.165 Y107.991 E13.73653
G1 X116.293 Y108.435 E13.75659
G1 X116.42 Y109.092 E13.78564
G1 X116.478 Y109.704 E13.81234
G1 X116.475 Y110.355 E13.84058
G1 X116.408 Y110.986 E13.86814
G1 X116.279 Y111.618 E13.89614
G1 X116.105 Y112.187 E13.92196
G1 X115.852 Y112.793 E13.95048
G1 X115.564 Y113.33 E13.97692
G1 X115.208 Y113.865 E14.00481
G1 X114.801 Y114.36 E14.03265
G1 X114.337 Y114.822 E14.06103
G1 X113.826 Y115.236 E14.08962
G1 X113.331 Y115.565 E14.11542
G1 X112.76 Y115.869 E14.14348
G1 X112.155 Y116.117 E14.17187
G1 X111.522 Y116.305 E14.20054
G1 X110.919 Y116.421 E14.22716
G1 X110.311 Y116.477 E14.25371
G1 X109.016 Y116.411 E14.31
G1 X108.384 Y116.281 E14.33799
G1 X107.813 Y116.107 E14.36391
G1 X107.243 Y115.871 E14.39066
G1 X106.654 Y115.557 E14.41967
G1 X106.155 Y115.224 E14.44567
G1 X105.646 Y114.809 E14.47419
G1 X105.183 Y114.345 E14.50263
G1 X104.799 Y113.876 E14.52895
G1 X104.44 Y113.34 E14.55698
G1 X104.133 Y112.768 E14.58514
G1 X103.886 Y112.168 E14.6133
G1 X103.7 Y111.543 E14.64161
G1 X103.577 Y110.904 E14.66986
G1 X103.52 Y110.306 E14.69593
G1 X103.523 Y109.66 E14.72399
G1 X103.591 Y108.998 E14.75287
G1 X103.707 Y108.43 E14.77805
G1 X103.895 Y107.808 E14.80624
G1 X104.121 Y107.258 E14.83205
G1 X104.425 Y106.685 E14.86022
G1 X104.788 Y106.14 E14.88865
G1 X105.205 Y105.632 E14.91716
G1 X105.476 Y105.361 E14.93378
G1 X105.791 Y105.679 F18000
G1 F3000
G1 X105.949 Y105.522 E14.94344
G1 X106.408 Y105.147 E14.96918
G1 X106.912 Y104.812 E14.99545
G1 X107.445 Y104.529 E15.02165
G1 X108.022 Y104.296 E15.04865
G1 X108.538 Y104.142 E15.07203
G1 X109.201 Y104.016 E15.1013
G1 X109.753 Y103.967 E15.12539
G1 X110.353 Y103.972 E15.15142
G1 X110.991 Y104.044 E15.17929
G1 X111.519 Y104.156 E15.20274
G1 X112.135 Y104.354 E15.23079
G1 X112.703 Y104.603 E15.25772
G1 X113.195 Y104.877 E15.28218
G1 X113.678 Y105.213 E15.3077
G1 X114.132 Y105.599 E15.33358
G1 X114.557 Y106.041 E15.36022
G1 X114.934 Y106.522 E15.38674
G1 X115.263 Y107.042 E15.41344
G1 X115.504 Y107.518 E15.43659
G1 X115.748 Y108.156 E15.46626
G1 X115.864 Y108.563 E15.4846
G1 X115.981 Y109.181 E15.51192
G1 X116.032 Y109.751 E15.53675
G1 X116.027 Y110.357 E15.56307
G1 X115.962 Y110.943 E15.58866
G1 X115.839 Y111.532 E15.61479
G1 X115.675 Y112.06 E15.63878
G1 X115.437 Y112.624 E15.66537
G1 X115.167 Y113.122 E15.68992
G1 X114.832 Y113.619 E15.71596
G1 X114.452 Y114.079 E15.74189
G1 X114.018 Y114.506 E15.7683
G1 X113.54 Y114.891 E15.79491
G1 X113.079 Y115.194 E15.81886
G1 X112.545 Y115.475 E15.84504
G1 X111.98 Y115.704 E15.87151
G1 X111.39 Y115.876 E15.8982
G1 X110.831 Y115.981 E15.92292
G1 X110.262 Y116.032 E15.9477
G1 X109.113 Y115.973 E15.99765
G1 X108.521 Y115.855 E16.02384
G1 X107.938 Y115.676 E16.0503
G1 X107.411 Y115.455 E16.07513
G1 X106.908 Y115.187 E16.09985
G1 X106.399 Y114.847 E16.12642
G1 X105.927 Y114.459 E16.15297
G1 X105.498 Y114.025 E16.17944
G1 X105.143 Y113.589 E16.20385
G1 X104.81 Y113.087 E16.23001
G1 X104.526 Y112.552 E16.25628
G1 X104.299 Y111.994 E16.28246
G1 X104.129 Y111.411 E16.30879
G1 X104.016 Y110.815 E16.33512
G1 X103.966 Y110.26 E16.35933
G1 X103.971 Y109.658 E16.38546
G1 X104.038 Y109.04 E16.41244
G1 X104.147 Y108.515 E16.43569
G1 X104.326 Y107.934 E16.46209
G1 X104.537 Y107.425 E16.48604
G1 X104.823 Y106.891 E16.51232
G1 X105.164 Y106.385 E16.5388
G1 X105.554 Y105.914 E16.56536
G1 X105.763 Y105.707 E16.5781
G1 X106.076 Y106.026 F18000
G1 F3000
G1 X106.268 Y105.838 E16.58974
G1 X106.695 Y105.491 E16.61365
G1 X107.163 Y105.184 E16.63797
G1 X107.659 Y104.923 E16.66228
G1 X108.193 Y104.71 E16.68724
G1 X108.67 Y104.57 E16.70882
G1 X109.288 Y104.456 E16.73608
G1 X109.796 Y104.414 E16.75822
