; HEADER_BLOCK_START
; generated by AnycubicSlicerNext 1.3.1 on 2026-02-12 at 11:19:17
; total layer number: 34
; filament_density: 1.24
; filament_diameter: 1.75
; max_z_height: 6.84
; HEADER_BLOCK_END

; THUMBNAIL_BLOCK_START

;
; THUMBNAIL_BLOCK_END

; external perimeters extrusion width = 0.42mm
; perimeters extrusion width = 0.45mm
; infill extrusion width = 0.45mm
; solid infill extrusion width = 0.42mm
; top infill extrusion width = 0.42mm
; first layer extrusion width = 0.50mm

; EXECUTABLE_BLOCK_START
M201 X2000 Y2000 Z800 E2000
M203 X300 Y300 Z8 E100
M204 P2000 R2000 T2000
M205 X10.00 Y10.00 Z2.00 E5.00 ; sets the jerk limits, mm/sec
;TYPE:Custom
G90 ; use absolute coordinates
M83 ; extruder relative mode
M104 S220 ; set extruder temp
M140 S60 ; set bed temp
M190 S60 ; wait for bed temp
M109 S220 ; wait for extruder temp
G28                                        ; move X/Y/Z to min endstops
G1 Z0.28                                   ; lift nozzle a bit 
G92 E0 
G1 Y3 F1800                                    ; zero the extruded length 
G1 X60  E25 F500                       ; Extrude 25mm of filament in a 5cm line. 
G92 E0                                     ; zero the extruded length again 
G1 E-2 F500                                ; Retract a little 
G1 X70 F4000                              ; Quickly wipe away from the filament line
M117
G90
G21
M82 ; use absolute distances for extrusion
G92 E0
; filament start gcode
M106 S0
;LAYER_CHANGE
;Z:0.24
;HEIGHT:0.24
; BEFORE_LAYER_CHANGE 0 @ 0.24mm
G1 E-2.5 F6000
G92 E0
; AFTER_LAYER_CHANGE 0 @ 0.24mm
;_SET_FAN_SPEED_CHANGING_LAYER
M204 P500
; printing object "bearingnew.stl" id:2272332432128 copy 0
M204 T500
G1 X103.889 Y103.766 F18000
G1 Z.24
G1 E2.5 F6000
;TYPE:Brim
;WIDTH:0.5
G1 F3000
G1 X104.485 Y103.234 E2.5347
G1 X105.18 Y102.722 E2.57215
G1 X105.961 Y102.262 E2.61149
G1 X106.772 Y101.89 E2.65023
G1 X107.59 Y101.61 E2.68775
G1 X108.331 Y101.431 E2.72086
G1 X109.218 Y101.305 E2.75976
G1 X110.115 Y101.272 E2.79871
G1 X110.924 Y101.319 E2.83391
G1 X111.651 Y101.428 E2.86579
G1 X112.426 Y101.615 E2.90041
G1 X112.925 Y101.775 E2.92315
G1 X113.331 Y101.931 E2.94203
G1 X114.141 Y102.316 E2.98095
G1 X114.807 Y102.713 E3.01461
G1 X115.504 Y103.225 E3.05216
G1 X116.175 Y103.829 E3.09136
G1 X116.767 Y104.486 E3.12975
G1 X117.292 Y105.2 E3.16822
G1 X117.735 Y105.952 E3.20609
G1 X118.11 Y106.77 E3.24517
G1 X118.391 Y107.589 E3.28275
G1 X118.595 Y108.471 E3.32203
G1 X118.692 Y109.192 E3.35362
G1 X118.73 Y110.072 E3.39186
G1 X118.687 Y110.858 E3.426
G1 X118.552 Y111.755 E3.46538
G1 X118.335 Y112.596 E3.50311
G1 X118.031 Y113.423 E3.54136
G1 X117.83 Y113.86 E3.5622
G1 X117.584 Y114.324 E3.58503
G1 X117.117 Y115.057 E3.62276
G1 X116.64 Y115.669 E3.65643
G1 X116.096 Y116.248 E3.69091
G1 X115.514 Y116.768 E3.72481
G1 X115.093 Y117.09 E3.74782
G1 X114.695 Y117.36 E3.76868
G1 X114.034 Y117.742 E3.80182
G1 X113.241 Y118.106 E3.83971
G1 X112.525 Y118.357 E3.87266
G1 X111.654 Y118.572 E3.91158
G1 X110.781 Y118.695 E3.94984
G1 X109.896 Y118.728 E3.98827
G1 X109.016 Y118.675 E4.02658
G1 X108.143 Y118.53 E4.06496
G1 X107.279 Y118.295 E4.10385
G1 X106.45 Y117.975 E4.14243
G1 X105.685 Y117.59 E4.17958
G1 X104.992 Y117.151 E4.21519
G1 X104.326 Y116.635 E4.25177
G1 X103.688 Y116.032 E4.28987
G1 X103.101 Y115.35 E4.32896
G1 X102.584 Y114.605 E4.3683
G1 X102.17 Y113.861 E4.40525
G1 X101.862 Y113.161 E4.43844
G1 X101.578 Y112.297 E4.47793
G1 X101.391 Y111.449 E4.51563
G1 X101.29 Y110.588 E4.55324
G1 X101.272 Y109.804 E4.58729
G1 X101.325 Y109.031 E4.62093
G1 X101.467 Y108.155 E4.65947
G1 X101.666 Y107.4 E4.69335
G1 X101.968 Y106.58 E4.7313
G1 X102.36 Y105.778 E4.77002
G1 X102.76 Y105.124 E4.80333
G1 X103.308 Y104.395 E4.8429
G1 X103.862 Y103.796 E4.87833
G1 X104.192 Y104.101 F18000
G1 F3000
G1 X104.209 Y104.082 E4.87942
G1 X104.773 Y103.578 E4.91226
G1 X105.433 Y103.093 E4.94781
G1 X106.163 Y102.664 E4.98457
G1 X106.932 Y102.309 E5.02133
G1 X107.709 Y102.043 E5.05698
G1 X108.422 Y101.871 E5.08881
G1 X109.265 Y101.752 E5.12579
G1 X110.117 Y101.721 E5.16276
G1 X110.872 Y101.766 E5.19561
G1 X111.571 Y101.87 E5.22628
G1 X112.313 Y102.049 E5.25941
G1 X113.159 Y102.346 E5.29834
G1 X113.923 Y102.709 E5.33508
G1 X114.564 Y103.091 E5.36745
G1 X115.226 Y103.578 E5.4031
G1 X115.862 Y104.152 E5.44033
G1 X116.423 Y104.775 E5.47671
G1 X116.92 Y105.454 E5.51323
G1 X117.34 Y106.166 E5.54913
G1 X117.691 Y106.931 E5.58563
G1 X117.961 Y107.72 E5.62183
G1 X118.152 Y108.545 E5.65862
G1 X118.245 Y109.238 E5.68895
G1 X118.281 Y110.076 E5.72538
G1 X118.239 Y110.818 E5.75764
G1 X118.11 Y111.672 E5.79512
G1 X117.904 Y112.469 E5.83085
G1 X117.614 Y113.257 E5.8673
G1 X117.426 Y113.664 E5.88677
G1 X117.199 Y114.094 E5.90786
G1 X116.753 Y114.793 E5.94384
G1 X116.302 Y115.372 E5.97571
G1 X115.787 Y115.922 E6.00845
G1 X115.224 Y116.426 E6.04123
G1 X114.833 Y116.724 E6.06255
G1 X114.461 Y116.977 E6.08211
G1 X113.822 Y117.346 E6.11412
G1 X113.067 Y117.692 E6.15019
G1 X112.39 Y117.929 E6.18131
G1 X111.562 Y118.132 E6.21833
G1 X110.734 Y118.248 E6.2546
G1 X109.895 Y118.279 E6.29106
G1 X109.059 Y118.227 E6.32741
G1 X108.232 Y118.09 E6.3638
G1 X107.425 Y117.87 E6.4001
G1 X106.638 Y117.567 E6.43672
G1 X105.913 Y117.202 E6.47197
G1 X105.245 Y116.78 E6.50626
G1 X104.614 Y116.289 E6.54097
G1 X104.018 Y115.727 E6.57652
G1 X103.461 Y115.08 E6.6136
G1 X102.969 Y114.373 E6.65097
G1 X102.576 Y113.667 E6.68607
G1 X102.284 Y113.007 E6.7174
G1 X102.013 Y112.185 E6.75495
G1 X101.835 Y111.381 E6.79069
G1 X101.739 Y110.564 E6.82643
G1 X101.721 Y109.821 E6.85868
G1 X101.772 Y109.076 E6.89107
G1 X101.908 Y108.242 E6.92776
G1 X102.097 Y107.529 E6.95978
G1 X102.384 Y106.75 E6.99583
G1 X102.75 Y106 E7.03205
G1 X103.136 Y105.371 E7.06406
G1 X103.649 Y104.688 E7.10114
G1 X104.165 Y104.13 E7.13415
G1 X104.495 Y104.435 F18000
G1 F3000
G1 X104.529 Y104.398 E7.13631
G1 X105.061 Y103.923 E7.1673
G1 X105.686 Y103.465 E7.20095
G1 X106.377 Y103.059 E7.23572
G1 X107.106 Y102.724 E7.27052
G1 X107.828 Y102.476 E7.30369
G1 X108.512 Y102.312 E7.33423
G1 X109.312 Y102.199 E7.36929
G1 X110.118 Y102.17 E7.40429
G1 X110.82 Y102.212 E7.4348
G1 X111.491 Y102.312 E7.46425
G1 X112.192 Y102.482 E7.49557
G1 X112.994 Y102.764 E7.53251
G1 X113.706 Y103.103 E7.56671
G1 X114.321 Y103.469 E7.59778
G1 X114.947 Y103.93 E7.63152
G1 X115.549 Y104.475 E7.66678
G1 X116.079 Y105.064 E7.70116
G1 X116.549 Y105.706 E7.73571
G1 X116.944 Y106.38 E7.76964
G1 X117.271 Y107.091 E7.80359
G1 X117.527 Y107.837 E7.83781
G1 X117.709 Y108.62 E7.87271
G1 X117.798 Y109.283 E7.90177
G1 X117.831 Y110.08 E7.93638
G1 X117.792 Y110.778 E7.96674
G1 X117.668 Y111.589 E8.00233
G1 X117.473 Y112.341 E8.03608
G1 X117.201 Y113.08 E8.07026
G1 X116.815 Y113.86 E8.10802
G1 X116.39 Y114.528 E8.14241
G1 X115.957 Y115.085 E8.17302
G1 X115.469 Y115.605 E8.204
G1 X114.931 Y116.085 E8.23528
G1 X114.23 Y116.592 E8.27284
G1 X113.61 Y116.95 E8.30388
G1 X112.893 Y117.278 E8.33812
G1 X112.256 Y117.5 E8.3674
G1 X111.47 Y117.692 E8.40252
G1 X110.688 Y117.801 E8.43681
G1 X109.894 Y117.83 E8.47129
G1 X109.103 Y117.78 E8.50569
G1 X108.322 Y117.649 E8.54008
G1 X107.559 Y117.441 E8.57441
G1 X106.826 Y117.159 E8.60849
G1 X106.14 Y116.814 E8.64183
G1 X105.509 Y116.416 E8.67423
G1 X104.911 Y115.953 E8.70705
G1 X104.348 Y115.421 E8.74065
G1 X103.82 Y114.81 E8.77572
G1 X103.354 Y114.141 E8.81112
G1 X102.98 Y113.472 E8.84436
G1 X102.706 Y112.852 E8.87383
G1 X102.448 Y112.072 E8.90944
G1 X102.28 Y111.312 E8.94324
G1 X102.187 Y110.538 E8.97709
G1 X102.17 Y109.837 E9.00754
G1 X102.219 Y109.121 E9.03866
G1 X102.349 Y108.329 E9.07351
G1 X102.527 Y107.658 E9.10365
G1 X102.8 Y106.92 E9.13781
G1 X103.141 Y106.222 E9.17154
G1 X103.511 Y105.619 E9.20226
G1 X103.99 Y104.982 E9.23685
G1 X104.468 Y104.464 E9.26743
G1 X104.797 Y104.769 F18000
G1 F3000
G1 X104.848 Y104.714 E9.27068
G1 X105.349 Y104.268 E9.29979
G1 X105.939 Y103.836 E9.33155
G1 X106.591 Y103.454 E9.36434
G1 X107.279 Y103.139 E9.39718
G1 X107.948 Y102.909 E9.42789
G1 X108.603 Y102.752 E9.45712
G1 X109.358 Y102.646 E9.49025
G1 X110.119 Y102.62 E9.52328
G1 X110.779 Y102.659 E9.55199
G1 X111.41 Y102.754 E9.5797
G1 X112.071 Y102.915 E9.6092
G1 X112.83 Y103.183 E9.64414
G1 X113.489 Y103.496 E9.67582
G1 X114.078 Y103.847 E9.70559
G1 X114.668 Y104.282 E9.73741
G1 X115.236 Y104.797 E9.77069
G1 X115.734 Y105.352 E9.80307
G1 X116.169 Y105.947 E9.83507
G1 X116.543 Y106.582 E9.86704
G1 X116.851 Y107.252 E9.89904
G1 X117.093 Y107.954 E9.93128
G1 X117.266 Y108.694 E9.96428
G1 X117.351 Y109.329 E9.99206
G1 X117.382 Y110.083 E10.02484
G1 X117.344 Y110.738 E10.05332
G1 X117.227 Y111.505 E10.087
G1 X117.042 Y112.213 E10.11877
G1 X116.791 Y112.896 E10.15035
G1 X116.427 Y113.633 E10.18603
G1 X116.026 Y114.264 E10.21848
G1 X115.611 Y114.797 E10.24781
G1 X115.151 Y115.288 E10.27703
G1 X114.644 Y115.739 E10.30647
G1 X113.991 Y116.211 E10.34144
G1 X113.399 Y116.553 E10.37113
G1 X112.72 Y116.863 E10.40354
G1 X112.122 Y117.071 E10.43098
G1 X111.379 Y117.252 E10.4642
G1 X110.642 Y117.354 E10.4965
G1 X109.893 Y117.38 E10.52901
G1 X109.161 Y117.334 E10.56085
G1 X108.425 Y117.212 E10.59327
G1 X107.705 Y117.016 E10.62563
G1 X107.014 Y116.751 E10.65778
G1 X106.366 Y116.426 E10.68921
G1 X105.772 Y116.052 E10.71972
G1 X105.208 Y115.615 E10.75066
G1 X104.678 Y115.116 E10.7823
G1 X104.179 Y114.54 E10.81536
G1 X103.738 Y113.908 E10.84879
G1 X103.385 Y113.277 E10.88018
G1 X103.127 Y112.696 E10.90778
G1 X102.884 Y111.96 E10.94145
G1 X102.724 Y111.244 E10.9733
G1 X102.636 Y110.512 E11.00527
G1 X102.619 Y109.853 E11.03391
G1 X102.666 Y109.167 E11.06376
G1 X102.79 Y108.417 E11.09674
G1 X102.957 Y107.788 E11.12502
G1 X103.216 Y107.091 E11.15728
G1 X103.532 Y106.444 E11.18854
G1 X103.886 Y105.866 E11.21796
G1 X104.339 Y105.264 E11.25065
G1 X104.77 Y104.799 E11.27819
G1 X105.099 Y105.104 F18000
G1 F3000
G1 X105.167 Y105.03 E11.28254
G1 X105.637 Y104.614 E11.30978
G1 X106.192 Y104.208 E11.33963
G1 X106.804 Y103.849 E11.37045
G1 X107.452 Y103.554 E11.40134
G1 X108.067 Y103.342 E11.4296
G1 X108.693 Y103.192 E11.45752
G1 X109.404 Y103.093 E11.4887
G1 X110.12 Y103.069 E11.51977
G1 X110.738 Y103.107 E11.54668
G1 X111.33 Y103.196 E11.57263
G1 X111.949 Y103.348 E11.60031
G1 X112.665 Y103.601 E11.63327
G1 X113.272 Y103.889 E11.66244
G1 X113.835 Y104.225 E11.69089
G1 X114.388 Y104.634 E11.72078
G1 X114.922 Y105.119 E11.75208
G1 X115.381 Y105.63 E11.78189
G1 X115.79 Y106.189 E11.81195
G1 X116.141 Y106.784 E11.84196
G1 X116.431 Y107.413 E11.87202
G1 X116.659 Y108.072 E11.90228
G1 X116.823 Y108.769 E11.93337
G1 X116.904 Y109.374 E11.95986
G1 X116.932 Y110.086 E11.99079
G1 X116.897 Y110.697 E12.01738
G1 X116.785 Y111.421 E12.04916
G1 X116.611 Y112.085 E12.07896
G1 X116.375 Y112.725 E12.10857
G1 X116.039 Y113.406 E12.14156
G1 X115.663 Y114 E12.17207
G1 X115.274 Y114.501 E12.19957
G1 X114.833 Y114.97 E12.22754
G1 X114.357 Y115.393 E12.25516
G1 X113.741 Y115.837 E12.28815
G1 X113.187 Y116.157 E12.31589
G1 X112.547 Y116.448 E12.34645
G1 X111.989 Y116.641 E12.37205
G1 X111.288 Y116.812 E12.40336
G1 X110.596 Y116.907 E12.43369
G1 X109.893 Y116.931 E12.46422
G1 X109.205 Y116.887 E12.49413
G1 X108.514 Y116.771 E12.52457
G1 X107.851 Y116.591 E12.55437
G1 X107.201 Y116.342 E12.58459
G1 X106.593 Y116.038 E12.61411
G1 X106.035 Y115.687 E12.64274
G1 X105.505 Y115.278 E12.67179
G1 X105.007 Y114.81 E12.70148
G1 X104.538 Y114.269 E12.73253
G1 X104.123 Y113.675 E12.76399
G1 X103.79 Y113.082 E12.79353
G1 X103.549 Y112.54 E12.81925
G1 X103.318 Y111.846 E12.85099
G1 X103.168 Y111.174 E12.88089
G1 X103.084 Y110.486 E12.91097
G1 X103.068 Y109.869 E12.9378
G1 X103.113 Y109.212 E12.96635
G1 X103.23 Y108.505 E12.99746
G1 X103.387 Y107.918 E13.02387
G1 X103.631 Y107.262 E13.05425
G1 X103.923 Y106.666 E13.08305
G1 X104.261 Y106.113 E13.11116
G1 X104.688 Y105.547 E13.14195
G1 X105.072 Y105.133 E13.16645
G1 X105.39 Y105.452 F18000
G1 F3000
G1 X105.66 Y105.183 E13.183
G1 X106.124 Y104.802 E13.20905
G1 X106.658 Y104.444 E13.23697
G1 X107.232 Y104.136 E13.26524
G1 X107.85 Y103.883 E13.29423
G1 X108.405 Y103.715 E13.31939
G1 X109.113 Y103.578 E13.3507
G1 X109.709 Y103.522 E13.3767
G1 X110.352 Y103.525 E13.40459
G1 X111.012 Y103.595 E13.43341
G1 X111.603 Y103.716 E13.4596
G1 X112.265 Y103.925 E13.48976
G1 X112.88 Y104.191 E13.51881
G1 X113.409 Y104.483 E13.54506
G1 X113.929 Y104.842 E13.5725
G1 X114.416 Y105.251 E13.60007
G1 X114.878 Y105.728 E13.62892
G1 X115.277 Y106.233 E13.65684
G1 X115.927 Y107.368 E13.71363
G1 X116.145 Y107.928 E13.73972
G1 X116.311 Y108.51 E13.76596
G1 X116.421 Y109.096 E13.79187
G1 X116.478 Y109.693 E13.81789
G1 X116.476 Y110.33 E13.84554
G1 X116.41 Y110.979 E13.87389
G1 X116.279 Y111.617 E13.90214
G1 X116.102 Y112.196 E13.92841
G1 X115.851 Y112.795 E13.95663
G1 X115.539 Y113.373 E13.98513
G1 X115.209 Y113.864 E14.01081
G1 X114.793 Y114.369 E14.03921
G1 X114.312 Y114.844 E14.06854
G1 X113.816 Y115.243 E14.09618
G1 X113.302 Y115.582 E14.12293
G1 X112.754 Y115.871 E14.1498
G1 X112.198 Y116.102 E14.17593
G1 X111.574 Y116.291 E14.20425
G1 X110.957 Y116.414 E14.23157
G1 X110.319 Y116.476 E14.25938
G1 X109.016 Y116.41 E14.31601
G1 X108.383 Y116.28 E14.34404
G1 X107.811 Y116.104 E14.37006
G1 X107.217 Y115.858 E14.39796
G1 X106.662 Y115.561 E14.42529
G1 X106.155 Y115.222 E14.45174
G1 X105.646 Y114.807 E14.48026
G1 X105.219 Y114.383 E14.50637
G1 X104.801 Y113.877 E14.53486
G1 X104.441 Y113.339 E14.56295
G1 X104.135 Y112.768 E14.59107
G1 X103.888 Y112.168 E14.61925
G1 X103.702 Y111.543 E14.64755
G1 X103.578 Y110.904 E14.67582
G1 X103.522 Y110.305 E14.70191
G1 X103.525 Y109.661 E14.72986
G1 X103.592 Y109.007 E14.75844
G1 X103.708 Y108.431 E14.78393
G1 X103.898 Y107.807 E14.81225
G1 X104.12 Y107.263 E14.83774
G1 X104.417 Y106.702 E14.86532
G1 X104.786 Y106.146 E14.89425
G1 X105.191 Y105.65 E14.92206
G1 X105.362 Y105.48 E14.93252
G1 X105.676 Y105.798 F18000
G1 F3000
G1 X105.979 Y105.497 E14.95105
G1 X106.411 Y105.146 E14.97522
G1 X106.911 Y104.814 E15.00128
G1 X107.448 Y104.529 E15.02764
G1 X108.023 Y104.296 E15.0546
G1 X108.539 Y104.142 E15.07796
G1 X109.202 Y104.017 E15.10724
G1 X109.754 Y103.968 E15.13132
G1 X110.354 Y103.973 E15.15736
G1 X110.968 Y104.041 E15.18418
G1 X111.517 Y104.156 E15.2085
G1 X112.135 Y104.354 E15.23668
G1 X112.705 Y104.604 E15.26368
G1 X113.196 Y104.878 E15.28809
G1 X113.678 Y105.214 E15.31361
G1 X114.13 Y105.597 E15.33933
G1 X114.559 Y106.043 E15.36619
G1 X114.93 Y106.517 E15.39231
G1 X115.506 Y107.524 E15.44269
G1 X115.713 Y108.047 E15.46709
G1 X115.869 Y108.586 E15.49145
G1 X115.981 Y109.185 E15.51789
G1 X116.032 Y109.74 E15.5421
G1 X116.028 Y110.333 E15.56782
G1 X115.963 Y110.938 E15.59424
G1 X115.839 Y111.531 E15.62055
G1 X115.672 Y112.068 E15.64496
G1 X115.436 Y112.627 E15.67129
G1 X115.142 Y113.162 E15.69779
G1 X114.834 Y113.617 E15.72165
G1 X114.444 Y114.088 E15.74819
G1 X113.994 Y114.527 E15.77548
G1 X113.532 Y114.896 E15.80116
G1 X113.051 Y115.21 E15.82606
G1 X112.541 Y115.476 E15.85105
G1 X112.022 Y115.689 E15.87539
G1 X111.44 Y115.863 E15.9018
G1 X110.865 Y115.976 E15.92723
G1 X110.269 Y116.03 E15.95321
G1 X109.113 Y115.972 E16.00342
G1 X108.521 Y115.853 E16.02963
G1 X107.936 Y115.674 E16.0562
G1 X107.386 Y115.442 E16.08213
G1 X106.869 Y115.163 E16.10759
G1 X106.401 Y114.847 E16.13212
G1 X105.927 Y114.457 E16.15879
G1 X105.532 Y114.062 E16.18302
G1 X105.144 Y113.588 E16.2096
G1 X104.812 Y113.086 E16.23573
G1 X104.528 Y112.552 E16.26197
G1 X104.301 Y111.993 E16.28816
G1 X104.13 Y111.411 E16.31449
G1 X104.018 Y110.815 E16.34084
G1 X103.968 Y110.259 E16.36506
G1 X103.973 Y109.659 E16.3911
G1 X104.038 Y109.048 E16.41778
G1 X104.149 Y108.516 E16.44135
G1 X104.328 Y107.933 E16.46785
G1 X104.537 Y107.43 E16.4915
G1 X104.816 Y106.908 E16.5172
G1 X105.162 Y106.391 E16.54418
G1 X105.541 Y105.93 E16.57009
G1 X105.647 Y105.826 E16.57656
G1 X105.959 Y106.145 F18000
G1 F3000
G1 X106.297 Y105.814 E16.59708
G1 X106.697 Y105.492 E16.61937
G1 X107.163 Y105.185 E16.64357
G1 X107.662 Y104.924 E16.66802
G1 X108.195 Y104.711 E16.69294
G1 X108.671 Y104.571 E16.7145
G1 X109.289 Y104.457 E16.74177
