; HEADER_BLOCK_START
; generated by AnycubicSlicerNext 1.3.1 on 2026-02-12 at 17:55:30
; total layer number: 10
; filament_density: 1.24
; filament_diameter: 1.75
; max_z_height: 2.04
; HEADER_BLOCK_END

; THUMBNAIL_BLOCK_START

;
; THUMBNAIL_BLOCK_END

; external perimeters extrusion width = 0.42mm
; perimeters extrusion width = 0.45mm
; infill extrusion width = 0.45mm
; solid infill extrusion width = 0.42mm
; top infill extrusion width = 0.42mm
; first layer extrusion width = 0.50mm

; external perimeters extrusion width = 0.42mm
; perimeters extrusion width = 0.45mm
; infill extrusion width = 0.45mm
; solid infill extrusion width = 0.42mm
; top infill extrusion width = 0.42mm
; first layer extrusion width = 0.50mm

; external perimeters extrusion width = 0.42mm
; perimeters extrusion width = 0.45mm
; infill extrusion width = 0.45mm
; solid infill extrusion width = 0.42mm
; top infill extrusion width = 0.42mm
; first layer extrusion width = 0.50mm

; external perimeters extrusion width = 0.42mm
; perimeters extrusion width = 0.45mm
; infill extrusion width = 0.45mm
; solid infill extrusion width = 0.42mm
; top infill extrusion width = 0.42mm
; first layer extrusion width = 0.50mm

; EXECUTABLE_BLOCK_START
M201 X2000 Y2000 Z800 E2000
M203 X300 Y300 Z8 E100
M204 P2000 R2000 T2000
M205 X10.00 Y10.00 Z2.00 E5.00 ; sets the jerk limits, mm/sec
;TYPE:Custom
G90 ; use absolute coordinates
M83 ; extruder relative mode
M104 S220 ; set extruder temp
M140 S60 ; set bed temp
M190 S60 ; wait for bed temp
M109 S220 ; wait for extruder temp
G28                                        ; move X/Y/Z to min endstops
G1 Z0.28                                   ; lift nozzle a bit 
G92 E0 
G1 Y3 F1800                                    ; zero the extruded length 
G1 X60  E25 F500                       ; Extrude 25mm of filament in a 5cm line. 
G92 E0                                     ; zero the extruded length again 
G1 E-2 F500                                ; Retract a little 
G1 X70 F4000                              ; Quickly wipe away from the filament line
M117
G90
G21
M82 ; use absolute distances for extrusion
G92 E0
; filament start gcode
M106 S0
;LAYER_CHANGE
;Z:0.24
;HEIGHT:0.24
; BEFORE_LAYER_CHANGE 0 @ 0.24mm
G1 E-2.5 F6000
G92 E0
; AFTER_LAYER_CHANGE 0 @ 0.24mm
;_SET_FAN_SPEED_CHANGING_LAYER
M204 P500
; printing object "cubefile.stl" id:3076359760896 copy 0
M204 T500
G1 X78.167 Y62.869 F18000
G1 Z.24
G1 E2.5 F6000
;TYPE:Brim
;WIDTH:0.5
G1 F3000
G1 X78.616 Y62.419 E2.52759
G1 X79.125 Y62.042 E2.55509
G1 X79.844 Y61.679 E2.59004
G1 X80.551 Y61.452 E2.62229
G1 X81.183 Y61.356 E2.65001
G1 X81.504 Y61.344 E2.66398
G1 X138.492 Y61.344 E5.13772
G1 X139.134 Y61.392 E5.16568
G1 X139.756 Y61.534 E5.19337
G1 X140.202 Y61.699 E5.21402
G1 X140.876 Y62.045 E5.2469
G1 X141.386 Y62.422 E5.27444
G1 X141.836 Y62.871 E5.30203
G1 X142.212 Y63.379 E5.32948
G1 X142.615 Y64.198 E5.36911
G1 X142.803 Y64.805 E5.39667
G1 X142.899 Y65.437 E5.42444
G1 X142.911 Y65.759 E5.43841
G1 X142.911 Y76.746 E5.91536
G1 X142.863 Y77.389 E5.94332
G1 X142.721 Y78.009 E5.97095
G1 X142.509 Y78.564 E5.99675
G1 X142.21 Y79.129 E6.02449
G1 X141.833 Y79.641 E6.05208
G1 X141.384 Y80.091 E6.07967
G1 X140.875 Y80.468 E6.10717
G1 X140.156 Y80.831 E6.14212
G1 X139.449 Y81.058 E6.17437
G1 X138.817 Y81.153 E6.20209
G1 X138.496 Y81.166 E6.21606
G1 X81.508 Y81.166 E8.6898
G1 X80.866 Y81.118 E8.71776
G1 X80.244 Y80.976 E8.74544
G1 X79.798 Y80.81 E8.7661
G1 X79.124 Y80.464 E8.79898
G1 X78.614 Y80.088 E8.82652
G1 X78.164 Y79.639 E8.85411
G1 X77.787 Y79.13 E8.88161
G1 X77.424 Y78.411 E8.91655
G1 X77.197 Y77.704 E8.9488
G1 X77.101 Y77.072 E8.97653
G1 X77.089 Y76.751 E8.9905
G1 X77.089 Y65.763 E9.46745
G1 X77.137 Y65.121 E9.49541
G1 X77.279 Y64.5 E9.52304
G1 X77.491 Y63.945 E9.54884
G1 X77.79 Y63.38 E9.57657
G1 X78.143 Y62.901 E9.60243
G1 X78.505 Y63.169 F18000
G1 F3000
G1 X78.515 Y63.155 E9.60319
G1 X78.918 Y62.753 E9.62787
G1 X79.372 Y62.42 E9.65231
G1 X80.005 Y62.1 E9.68312
G1 X80.643 Y61.893 E9.71225
G1 X81.217 Y61.805 E9.73745
G1 X81.515 Y61.793 E9.7504
G1 X138.48 Y61.793 E12.22315
G1 X139.077 Y61.839 E12.24914
G1 X139.619 Y61.963 E12.27327
G1 X140.013 Y62.108 E12.29152
G1 X140.629 Y62.423 E12.32154
G1 X141.1 Y62.77 E12.34695
G1 X141.502 Y63.173 E12.37162
G1 X141.833 Y63.624 E12.39594
G1 X142.201 Y64.375 E12.43222
G1 X142.366 Y64.915 E12.45674
G1 X142.452 Y65.487 E12.48185
G1 X142.462 Y76.725 E12.96966
G1 X142.416 Y77.332 E12.99609
G1 X142.293 Y77.869 E13.02003
G1 X142.096 Y78.386 E13.04403
G1 X141.823 Y78.898 E13.06922
G1 X141.485 Y79.355 E13.0939
G1 X141.082 Y79.756 E13.11858
G1 X140.628 Y80.09 E13.14302
G1 X139.995 Y80.41 E13.17382
G1 X139.357 Y80.616 E13.20296
G1 X138.783 Y80.705 E13.22816
G1 X138.485 Y80.717 E13.24111
G1 X81.52 Y80.717 E15.71386
G1 X80.923 Y80.671 E15.73985
G1 X80.364 Y80.542 E15.76474
G1 X79.972 Y80.396 E15.78292
G1 X79.371 Y80.087 E15.81224
G1 X78.915 Y79.753 E15.83679
G1 X78.498 Y79.337 E15.86233
G1 X78.165 Y78.883 E15.88678
G1 X77.845 Y78.25 E15.91758
G1 X77.638 Y77.611 E15.94671
G1 X77.55 Y77.038 E15.97191
G1 X77.538 Y76.74 E15.98486
G1 X77.538 Y65.785 E16.46039
G1 X77.584 Y65.178 E16.48681
G1 X77.707 Y64.64 E16.51075
G1 X77.904 Y64.124 E16.53476
G1 X78.177 Y63.611 E16.55995
G1 X78.481 Y63.201 E16.58212
G1 X78.841 Y63.47 F18000
G1 F3000
G1 X78.863 Y63.441 E16.58366
G1 X79.219 Y63.089 E16.60541
G1 X79.617 Y62.798 E16.62682
G1 X80.167 Y62.52 E16.65355
G1 X80.737 Y62.334 E16.6796
G1 X81.253 Y62.253 E16.70227
G1 X81.527 Y62.241 E16.71417
G1 X138.457 Y62.242 E19.18544
G1 X139.019 Y62.286 E19.20989
G1 X139.483 Y62.392 E19.23054
G1 X139.826 Y62.516 E19.24637
G1 X140.383 Y62.801 E19.27352
G1 X140.814 Y63.118 E19.29677
G1 X141.166 Y63.473 E19.31848
G1 X141.453 Y63.868 E19.33967
G1 X141.785 Y64.55 E19.3726
G1 X141.929 Y65.024 E19.3941
G1 X142.003 Y65.531 E19.41632
G1 X142.014 Y76.703 E19.90127
G1 X141.969 Y77.274 E19.92616
G1 X141.859 Y77.748 E19.94726
G1 X141.683 Y78.207 E19.96864
G1 X141.437 Y78.666 E19.99124
G1 X141.137 Y79.068 E20.013
G1 X140.781 Y79.421 E20.03475
G1 X140.383 Y79.711 E20.05616
G1 X139.833 Y79.989 E20.08289
G1 X139.263 Y80.175 E20.10894
G1 X138.747 Y80.257 E20.13161
G1 X138.473 Y80.269 E20.14352
G1 X81.532 Y80.268 E22.61523
G1 X81.001 Y80.227 E22.63835
G1 X80.485 Y80.108 E22.66133
G1 X80.146 Y79.981 E22.67704
G1 X79.617 Y79.709 E22.70288
G1 X79.216 Y79.417 E22.72441
G1 X78.847 Y79.051 E22.74697
G1 X78.543 Y78.638 E22.76923
G1 X78.266 Y78.088 E22.79596
G1 X78.079 Y77.518 E22.82201
G1 X77.998 Y77.002 E22.84469
G1 X77.986 Y76.728 E22.85659
G1 X77.986 Y65.807 E23.33063
G1 X78.031 Y65.236 E23.35552
G1 X78.141 Y64.762 E23.37663
G1 X78.317 Y64.302 E23.398
G1 X78.563 Y63.843 E23.4206
G1 X78.817 Y63.502 E23.43909
G1 X79.177 Y63.772 F18000
G1 F3000
G1 X79.209 Y63.729 E23.4414
G1 X79.518 Y63.425 E23.46023
G1 X79.862 Y63.177 E23.47861
G1 X80.329 Y62.941 E23.50136
G1 X80.832 Y62.775 E23.52434
G1 X81.29 Y62.701 E23.54449
G1 X81.54 Y62.69 E23.55532
G1 X138.434 Y62.69 E26.02504
G1 X138.961 Y62.733 E26.04796
G1 X139.347 Y62.821 E26.06518
G1 X139.639 Y62.926 E26.07861
G1 X140.136 Y63.178 E26.10285
G1 X140.527 Y63.466 E26.12392
G1 X140.829 Y63.773 E26.14261
G1 X141.072 Y64.111 E26.16067
G1 X141.369 Y64.725 E26.19028
G1 X141.491 Y65.132 E26.20875
G1 X141.555 Y65.574 E26.22809
G1 X141.565 Y76.68 E26.7102
G1 X141.522 Y77.215 E26.73353
G1 X141.426 Y77.625 E26.75179
G1 X141.27 Y78.028 E26.77054
G1 X141.051 Y78.433 E26.79054
G1 X140.791 Y78.78 E26.80938
G1 X140.482 Y79.084 E26.8282
G1 X140.138 Y79.332 E26.84659
G1 X139.671 Y79.569 E26.86933
G1 X139.168 Y79.735 E26.89231
G1 X138.71 Y79.809 E26.91246
G1 X138.46 Y79.82 E26.9233
G1 X81.555 Y79.819 E29.39349
G1 X81.079 Y79.783 E29.41421
G1 X80.606 Y79.675 E29.43524
G1 X80.322 Y79.567 E29.44847
G1 X79.862 Y79.331 E29.4709
G1 X79.516 Y79.081 E29.48943
G1 X79.195 Y78.765 E29.50896
G1 X78.922 Y78.392 E29.52902
G1 X78.686 Y77.926 E29.55173
G1 X78.52 Y77.423 E29.57471
G1 X78.446 Y76.965 E29.59486
G1 X78.435 Y76.715 E29.60569
G1 X78.435 Y65.83 E30.0782
G1 X78.478 Y65.294 E30.10153
G1 X78.574 Y64.885 E30.1198
G1 X78.73 Y64.482 E30.13854
G1 X78.949 Y64.076 E30.15855
G1 X79.153 Y63.804 E30.17333
G1 X79.512 Y64.076 F18000
G1 F3000
G1 X79.555 Y64.019 E30.17644
G1 X79.817 Y63.763 E30.19233
G1 X80.105 Y63.557 E30.20771
G1 X80.511 Y63.353 E30.22743
G1 X80.949 Y63.211 E30.24743
G1 X81.329 Y63.149 E30.26413
G1 X81.553 Y63.138 E30.27386
G1 X138.411 Y63.139 E32.74197
G1 X138.902 Y63.179 E32.76336
G1 X139.213 Y63.25 E32.77723
G1 X139.452 Y63.335 E32.78825
G1 X139.891 Y63.557 E32.80956
G1 X140.24 Y63.814 E32.8284
G1 X140.478 Y64.056 E32.84313
G1 X140.679 Y64.332 E32.85793
G1 X140.945 Y64.878 E32.88433
G1 X141.054 Y65.239 E32.90068
G1 X141.106 Y65.615 E32.91718
G1 X141.117 Y76.657 E33.39646
G1 X141.079 Y77.136 E33.41734
G1 X140.993 Y77.501 E33.43362
G1 X140.858 Y77.847 E33.44974
G1 X140.667 Y78.199 E33.46713
G1 X140.445 Y78.491 E33.48305
G1 X140.183 Y78.747 E33.49894
G1 X139.895 Y78.953 E33.51432
G1 X139.489 Y79.157 E33.53404
G1 X139.051 Y79.299 E33.55404
G1 X138.671 Y79.361 E33.57073
G1 X138.447 Y79.372 E33.58048
G1 X81.577 Y79.371 E36.04911
G1 X81.137 Y79.336 E36.06829
G1 X80.728 Y79.241 E36.0865
G1 X80.497 Y79.153 E36.09722
G1 X80.106 Y78.952 E36.11633
G1 X79.814 Y78.743 E36.13188
G1 X79.529 Y78.462 E36.14927
G1 X79.301 Y78.147 E36.16617
G1 X79.098 Y77.744 E36.18576
G1 X78.956 Y77.306 E36.20575
G1 X78.894 Y76.926 E36.22245
G1 X78.883 Y76.702 E36.23219
G1 X78.883 Y65.854 E36.70309
G1 X78.921 Y65.374 E36.72399
G1 X79.007 Y65.009 E36.74027
G1 X79.142 Y64.663 E36.75639
G1 X79.333 Y64.311 E36.77378
G1 X79.487 Y64.107 E36.78485
G1 X79.855 Y64.393 F18000
G1 F3000
G1 X79.949 Y64.272 E36.79149
G1 X80.267 Y63.999 E36.80971
G1 X80.667 Y63.776 E36.82958
G1 X80.966 Y63.678 E36.84321
G1 X81.545 Y63.587 E36.86867
G1 X138.465 Y63.587 E39.3395
G1 X138.804 Y63.622 E39.35427
G1 X139.46 Y63.841 E39.3843
G1 X139.572 Y63.897 E39.38976
G1 X139.883 Y64.114 E39.40621
G1 X140.09 Y64.31 E39.41858
G1 X140.213 Y64.465 E39.42716
G1 X140.482 Y64.929 E39.45043
G1 X140.576 Y65.213 E39.46341
G1 X140.647 Y65.582 E39.47974
G1 X140.668 Y76.72 E39.96321
G1 X140.633 Y77.059 E39.978
G1 X140.414 Y77.715 E40.00803
G1 X140.357 Y77.827 E40.01349
G1 X140.141 Y78.138 E40.02994
G1 X139.945 Y78.345 E40.04231
G1 X139.79 Y78.468 E40.05089
G1 X139.326 Y78.737 E40.07414
G1 X139.035 Y78.831 E40.08746
G1 X138.455 Y78.923 E40.11293
G1 X81.535 Y78.923 E42.58376
G1 X81.196 Y78.887 E42.59853
G1 X80.54 Y78.669 E42.62856
G1 X80.428 Y78.612 E42.63402
G1 X80.117 Y78.396 E42.65047
G1 X79.91 Y78.2 E42.66284
G1 X79.787 Y78.044 E42.67142
G1 X79.518 Y77.581 E42.69469
G1 X79.424 Y77.297 E42.70766
G1 X79.353 Y76.928 E42.724
G1 X79.332 Y65.791 E43.20742
G1 X79.385 Y65.359 E43.22634
G1 X79.511 Y64.957 E43.24461
G1 X79.716 Y64.571 E43.26357
G1 X79.83 Y64.424 E43.27166
G1 X80.172 Y64.705 F18000
G1 F3000
G1 X80.301 Y64.549 E43.28046
G1 X80.558 Y64.34 E43.2948
G1 X80.807 Y64.202 E43.30718
G1 X81.033 Y64.122 E43.31761
G1 X81.534 Y64.035 E43.33968
G1 X138.472 Y64.035 E45.81128
G1 X138.765 Y64.069 E45.82406
G1 X139.316 Y64.266 E45.84947
G1 X139.574 Y64.439 E45.86295
G1 X139.744 Y64.595 E45.87296
G1 X139.827 Y64.694 E45.87856
G1 X140.055 Y65.067 E45.89756
G1 X140.134 Y65.289 E45.9078
G1 X140.209 Y65.68 E45.92506
G1 X140.22 Y76.727 E46.40462
G1 X140.186 Y77.02 E46.4174
G1 X139.989 Y77.571 E46.4428
G1 X139.816 Y77.829 E46.45628
G1 X139.66 Y77.999 E46.4663
G1 X139.561 Y78.082 E46.4719
G1 X139.188 Y78.31 E46.49089
G1 X138.967 Y78.388 E46.50108
G1 X138.466 Y78.475 E46.52315
G1 X81.528 Y78.475 E48.99475
G1 X81.235 Y78.441 E49.00753
G1 X80.684 Y78.244 E49.03293
G1 X80.426 Y78.071 E49.04641
G1 X80.256 Y77.915 E49.05643
G1 X80.173 Y77.816 E49.06203
G1 X79.945 Y77.443 E49.08102
G1 X79.866 Y77.22 E49.09127
G1 X79.791 Y76.83 E49.10853
G1 X79.78 Y65.782 E49.58808
G1 X79.815 Y65.487 E49.60099
G1 X79.901 Y65.179 E49.61489
G1 X80.117 Y64.772 E49.63489
G1 X80.147 Y64.736 E49.6369
G1 X80.511 Y64.986 F18000
G1 F3000
G1 X80.585 Y64.896 E49.64198
G1 X80.777 Y64.731 E49.65294
G1 X80.966 Y64.621 E49.66245
G1 X81.11 Y64.563 E49.66919
G1 X81.523 Y64.484 E49.68744
G1 X138.48 Y64.484 E52.15988
G1 X138.717 Y64.515 E52.17025
G1 X139.072 Y64.642 E52.18662
G1 X139.263 Y64.762 E52.1964
G1 X139.447 Y64.931 E52.20723
G1 X139.635 Y65.223 E52.22234
G1 X139.691 Y65.365 E52.22895
G1 X139.771 Y65.778 E52.2472
G1 X139.771 Y76.735 E52.72285
G1 X139.74 Y76.972 E52.73322
G1 X139.613 Y77.327 E52.74959
G1 X139.493 Y77.518 E52.75937
G1 X139.324 Y77.701 E52.7702
G1 X139.031 Y77.89 E52.78531
G1 X138.89 Y77.946 E52.79192
G1 X138.477 Y78.026 E52.81017
G1 X81.52 Y78.026 E55.28261
G1 X81.283 Y77.995 E55.29299
G1 X80.928 Y77.868 E55.30935
G1 X80.737 Y77.748 E55.31913
G1 X80.553 Y77.579 E55.32996
G1 X80.365 Y77.286 E55.34508
G1 X80.309 Y77.145 E55.35169
G1 X80.229 Y76.732 E55.36993
G1 X80.229 Y65.775 E55.84558
G1 X80.26 Y65.538 E55.85596
G1 X80.333 Y65.298 E55.86684
G1 X80.491 Y65.021 E55.88068
G1 X80.869 Y65.259 F18000
G1 F3000
G1 X80.893 Y65.221 E55.88264
G1 X80.993 Y65.124 E55.88869
G1 X81.202 Y65.002 E55.89917
G1 X81.51 Y64.932 E55.9129
G1 X138.489 Y64.932 E58.38628
G1 X138.652 Y64.959 E58.39346
G1 X138.826 Y65.017 E58.40141
G1 X139.034 Y65.148 E58.41207
G1 X139.13 Y65.248 E58.41812
G1 X139.253 Y65.456 E58.4286
G1 X139.323 Y65.765 E58.44233
G1 X139.323 Y76.744 E58.91892
G1 X139.296 Y76.907 E58.9261
G1 X139.238 Y77.081 E58.93405
G1 X139.107 Y77.289 E58.94471
G1 X139.007 Y77.385 E58.95076
G1 X138.798 Y77.507 E58.96124
G1 X138.49 Y77.578 E58.97497
G1 X81.511 Y77.578 E61.44836
G1 X81.348 Y77.551 E61.45553
G1 X81.174 Y77.493 E61.46349
G1 X80.966 Y77.362 E61.47415
G1 X80.87 Y77.262 E61.4802
G1 X80.747 Y77.053 E61.49068
G1 X80.677 Y76.745 E61.50441
G1 X80.677 Y65.766 E61.981
G1 X80.704 Y65.603 E61.98818
G1 X80.762 Y65.429 E61.99613
G1 X80.847 Y65.293 E62.00309
G1 X81.192 Y65.555 F18000
G1 F3000
G1 X81.316 Y65.436 E62.01054
G1 X81.5 Y65.381 E62.01889
G1 X138.5 Y65.381 E64.49318
G1 X138.7 Y65.447 E64.50231
G1 X138.819 Y65.571 E64.50976
G1 X138.874 Y65.755 E64.5181
G1 X138.874 Y76.755 E64.9956
G1 X138.808 Y76.954 E65.00473
G1 X138.684 Y77.074 E65.01218
G1 X138.5 Y77.129 E65.02053
G1 X81.5 Y77.129 E67.49481
G1 X81.3 Y77.063 E67.50394
G1 X81.181 Y76.939 E67.51139
G1 X81.126 Y76.755 E67.51974
G1 X81.126 Y65.755 E67.99723
G1 X81.18 Y65.593 E68.00463
G1 E66.25463 F6000
;WIPE_START
G1 F3000
G1 X81.316 Y65.436 E66.0987
G1 X81.5 Y65.381 E65.95449
G1 X82.1 Y65.381 E65.50463
;WIPE_END
G92 E0
G1 X138.175 Y76.43 F18000
G1 E2.5 F6000
;TYPE:Outer wall
G1 F3000
G1 X81.825 Y76.43 E4.94607
G1 X81.825 Y66.08 E5.39535
G1 X138.175 Y66.08 E7.84142
G1 X138.175 Y76.37 E8.2881
G1 X137.727 Y75.981 F18000
;TYPE:Inner wall
G1 F3000
G1 X82.273 Y75.981 E10.69523
G1 X82.273 Y66.528 E11.10557
G1 X137.727 Y66.528 E13.5127
G1 X137.727 Y75.921 E13.92044
G1 E12.17044 F6000
;WIPE_START
G1 F3000
G1 X136.727 Y75.922 E11.42044
;WIPE_END
G92 E0
G1 X136.679 Y66.663 F18000
G1 E2.5 F6000
;TYPE:Bottom surface
;WIDTH:0.502774
G1 F3000
G1 X137.39 Y67.374 E2.5439
G1 X137.39 Y68.012 E2.57177
G1 X136.243 Y66.865 E2.64263
G1 X135.605 Y66.865 E2.6705
G1 X137.39 Y68.65 E2.78077
G1 X137.39 Y69.288 E2.80865
G1 X134.967 Y66.865 E2.95834
G1 X134.329 Y66.865 E2.98621
G1 X137.39 Y69.926 E3.17533
G1 X137.39 Y70.565 E3.2032
G1 X133.69 Y66.865 E3.43174
G1 X133.052 Y66.865 E3.45961
G1 X137.39 Y71.203 E3.72756
G1 X137.39 Y71.841 E3.75544
G1 X132.414 Y66.865 E4.06281
G1 X131.776 Y66.865 E4.09069
G1 X137.39 Y72.479 E4.43748
G1 X137.39 Y73.117 E4.46536
G1 X131.138 Y66.865 E4.85157
G1 X130.499 Y66.865 E4.87944
G1 X137.39 Y73.756 E5.30508
G1 X137.39 Y74.394 E5.33295
G1 X129.861 Y66.865 E5.79801
G1 X129.223 Y66.865 E5.82588
G1 X137.39 Y75.032 E6.33036
G1 X137.39 Y75.645 E6.35714
G1 X137.365 Y75.645 E6.35823
G1 X128.585 Y66.865 E6.90058
G1 X127.947 Y66.865 E6.92845
G1 X136.727 Y75.645 E7.4708
G1 X136.089 Y75.645 E7.49867
G1 X127.308 Y66.865 E8.04102
G1 X126.67 Y66.865 E8.0689
G1 X135.45 Y75.645 E8.61124
G1 X134.812 Y75.645 E8.63912
G1 X126.032 Y66.865 E9.18146
G1 X125.394 Y66.865 E9.20934
G1 X134.174 Y75.645 E9.75168
