; HEADER_BLOCK_START
; generated by AnycubicSlicerNext 1.3.1 on 2026-02-12 at 22:23:57
; total layer number: 16
; filament_density: 1.24
; filament_diameter: 1.75
; max_z_height: 3.24
; HEADER_BLOCK_END

; THUMBNAIL_BLOCK_START

;
; THUMBNAIL_BLOCK_END

; external perimeters extrusion width = 0.42mm
; perimeters extrusion width = 0.45mm
; infill extrusion width = 0.45mm
; solid infill extrusion width = 0.42mm
; top infill extrusion width = 0.42mm
; first layer extrusion width = 0.50mm

; EXECUTABLE_BLOCK_START
M201 X2000 Y2000 Z800 E2000
M203 X300 Y300 Z8 E100
M204 P2000 R2000 T2000
M205 X10.00 Y10.00 Z2.00 E5.00 ; sets the jerk limits, mm/sec
;TYPE:Custom
G90 ; use absolute coordinates
M83 ; extruder relative mode
M104 S220 ; set extruder temp
M140 S60 ; set bed temp
M190 S60 ; wait for bed temp
M109 S220 ; wait for extruder temp
G28                                        ; move X/Y/Z to min endstops
G1 Z0.28                                   ; lift nozzle a bit 
G92 E0 
G1 Y3 F1800                                    ; zero the extruded length 
G1 X60  E25 F500                       ; Extrude 25mm of filament in a 5cm line. 
G92 E0                                     ; zero the extruded length again 
G1 E-2 F500                                ; Retract a little 
G1 X70 F4000                              ; Quickly wipe away from the filament line
M117
G90
G21
M82 ; use absolute distances for extrusion
G92 E0
; filament start gcode
M106 S0
;LAYER_CHANGE
;Z:0.24
;HEIGHT:0.24
; BEFORE_LAYER_CHANGE 0 @ 0.24mm
G1 E-2.5 F6000
G92 E0
; AFTER_LAYER_CHANGE 0 @ 0.24mm
;_SET_FAN_SPEED_CHANGING_LAYER
M204 P500
; printing object "cylenderring8.stl" id:2827667174144 copy 0
M204 T500
G1 X97.607 Y100.791 F18000
G1 Z.24
G1 E2.5 F6000
;TYPE:Brim
;WIDTH:0.5
G1 F3000
G1 X98.116 Y100.415 E2.5275
G1 X98.834 Y100.051 E2.56245
G1 X99.542 Y99.825 E2.5947
G1 X100.173 Y99.729 E2.62242
G1 X100.495 Y99.717 E2.63639
G1 X104.279 Y99.717 E2.80063
G1 X104.389 Y99.688 E2.80558
G1 X105.065 Y99.306 E2.83927
G1 X105.901 Y98.91 E2.87942
G1 X106.763 Y98.58 E2.91952
G1 X107.651 Y98.316 E2.95971
G1 X108.552 Y98.121 E2.99976
G1 X109.471 Y97.995 E3.04
G1 X110.392 Y97.941 E3.08008
G1 X110.972 Y97.946 E3.10523
G1 X111.652 Y97.98 E3.13479
G1 X112.573 Y98.093 E3.17505
G1 X113.477 Y98.275 E3.2151
G1 X114.368 Y98.527 E3.25529
G1 X115.204 Y98.834 E3.29395
G1 X116.076 Y99.23 E3.33551
G1 X116.887 Y99.678 E3.37575
G1 X117.38 Y99.993 E3.40114
G1 X118.129 Y100.539 E3.44137
G1 X118.388 Y100.75 E3.45587
G1 X119.074 Y101.371 E3.49604
G1 X119.712 Y102.043 E3.53627
G1 X120.294 Y102.761 E3.57639
G1 X120.634 Y103.237 E3.60179
G1 X121.124 Y104.024 E3.64201
G1 X121.366 Y104.475 E3.66424
G1 X121.459 Y104.568 E3.66993
G1 X121.884 Y104.792 E3.69081
G1 X122.396 Y105.169 E3.7184
G1 X122.845 Y105.619 E3.74599
G1 X123.222 Y106.128 E3.77349
G1 X123.586 Y106.846 E3.80844
G1 X123.812 Y107.554 E3.84069
G1 X123.907 Y108.183 E3.86831
G1 X123.92 Y108.965 E3.90226
G1 X123.872 Y109.605 E3.93014
G1 X123.797 Y109.934 E3.94475
G1 X123.794 Y110.019 E3.94848
G1 X123.908 Y110.718 E3.97919
G1 X123.92 Y111.038 E3.99311
G1 X123.92 Y111.494 E4.01291
G1 X123.872 Y112.137 E4.04087
G1 X123.73 Y112.758 E4.06855
G1 X123.565 Y113.205 E4.08921
G1 X123.219 Y113.878 E4.12208
G1 X122.842 Y114.389 E4.14962
G1 X122.393 Y114.839 E4.17721
G1 X121.884 Y115.216 E4.20471
G1 X121.466 Y115.427 E4.22507
G1 X121.369 Y115.521 E4.2309
G1 X121.083 Y116.053 E4.25715
G1 X120.769 Y116.564 E4.28315
G1 X120.22 Y117.342 E4.32452
G1 X120.009 Y117.61 E4.3393
G1 X119.403 Y118.299 E4.37913
G1 X118.962 Y118.742 E4.40625
G1 X118.703 Y118.981 E4.42157
G1 X117.969 Y119.589 E4.46295
G1 X117.483 Y119.942 E4.48899
G1 X116.682 Y120.448 E4.53012
G1 X115.841 Y120.89 E4.57138
G1 X114.97 Y121.265 E4.61256
G1 X114.648 Y121.384 E4.62743
G1 X113.74 Y121.663 E4.6687
G1 X113.157 Y121.803 E4.69472
G1 X112.22 Y121.964 E4.73599
G1 X111.273 Y122.051 E4.77724
G1 X110.932 Y122.064 E4.79207
G1 X109.983 Y122.049 E4.83327
G1 X109.038 Y121.959 E4.87449
G1 X108.103 Y121.796 E4.91567
G1 X107.52 Y121.655 E4.94172
G1 X106.615 Y121.374 E4.98287
G1 X105.73 Y121.02 E5.02424
G1 X105.422 Y120.878 E5.03895
G1 X104.593 Y120.439 E5.07967
G1 X104.488 Y120.413 E5.08436
G1 X100.499 Y120.413 E5.25751
G1 X99.857 Y120.365 E5.28547
G1 X99.235 Y120.224 E5.31316
G1 X98.789 Y120.058 E5.33381
G1 X98.115 Y119.712 E5.36669
G1 X97.604 Y119.336 E5.39423
G1 X97.155 Y118.887 E5.42182
G1 X96.779 Y118.378 E5.44927
G1 X96.375 Y117.559 E5.48891
G1 X96.188 Y116.953 E5.51646
G1 X96.093 Y116.324 E5.54405
G1 X96.08 Y104.136 E6.07313
G1 X96.128 Y103.494 E6.10108
G1 X96.27 Y102.873 E6.12871
G1 X96.482 Y102.318 E6.15451
G1 X96.78 Y101.753 E6.18225
G1 X97.158 Y101.241 E6.20984
G1 X97.578 Y100.82 E6.2357
G1 X97.893 Y101.139 F18000
G1 F3000
G1 X98.343 Y100.805 E6.26003
G1 X98.996 Y100.472 E6.29182
G1 X99.634 Y100.266 E6.32095
G1 X100.208 Y100.177 E6.34615
G1 X100.501 Y100.165 E6.35888
G1 X104.27 Y100.165 E6.52249
G1 X104.396 Y100.149 E6.52801
G1 X104.62 Y100.072 E6.5383
G1 X105.276 Y99.703 E6.57095
G1 X106.082 Y99.321 E6.60968
G1 X106.912 Y99.003 E6.64828
G1 X107.757 Y98.752 E6.68653
G1 X108.625 Y98.564 E6.72508
G1 X109.509 Y98.443 E6.76383
G1 X110.399 Y98.39 E6.80253
G1 X110.956 Y98.394 E6.82669
G1 X111.618 Y98.428 E6.85547
G1 X112.506 Y98.537 E6.8943
G1 X113.377 Y98.713 E6.93286
G1 X114.225 Y98.952 E6.97112
G1 X115.038 Y99.251 E7.00874
G1 X115.869 Y99.628 E7.04835
G1 X116.654 Y100.062 E7.08726
G1 X117.123 Y100.361 E7.11144
G1 X118.098 Y101.093 E7.16435
G1 X118.757 Y101.689 E7.20288
G1 X119.371 Y102.336 E7.24162
G1 X119.935 Y103.029 E7.28042
G1 X120.258 Y103.483 E7.30461
G1 X120.733 Y104.245 E7.34357
G1 X120.966 Y104.678 E7.36492
G1 X121.053 Y104.796 E7.37128
G1 X121.262 Y104.971 E7.38312
G1 X121.653 Y105.179 E7.40234
G1 X122.094 Y105.505 E7.42615
G1 X122.511 Y105.92 E7.45169
G1 X122.844 Y106.374 E7.47614
G1 X123.164 Y107.007 E7.50695
G1 X123.371 Y107.646 E7.53608
G1 X123.46 Y108.229 E7.56168
G1 X123.471 Y108.958 E7.59331
G1 X123.428 Y109.528 E7.61815
G1 X123.362 Y109.825 E7.63134
G1 X123.347 Y109.997 E7.63883
G1 X123.461 Y110.774 E7.67291
G1 X123.471 Y111.47 E7.70316
G1 X123.428 Y112.06 E7.7288
G1 X123.301 Y112.621 E7.75381
G1 X123.156 Y113.016 E7.77205
G1 X122.841 Y113.632 E7.80207
G1 X122.507 Y114.088 E7.82661
G1 X122.107 Y114.491 E7.85129
G1 X121.657 Y114.826 E7.87562
G1 X121.276 Y115.02 E7.89418
G1 X121.06 Y115.197 E7.9063
G1 X120.97 Y115.317 E7.91283
G1 X120.695 Y115.826 E7.93792
G1 X120.397 Y116.313 E7.96273
G1 X119.662 Y117.325 E8.01702
G1 X119.078 Y117.989 E8.05539
G1 X118.653 Y118.417 E8.08157
G1 X118.405 Y118.646 E8.09624
G1 X117.698 Y119.232 E8.1361
G1 X117.228 Y119.572 E8.16127
G1 X116.462 Y120.056 E8.20059
G1 X115.641 Y120.488 E8.24086
G1 X114.501 Y120.96 E8.29441
G1 X113.626 Y121.229 E8.33418
G1 X113.071 Y121.362 E8.35895
G1 X112.156 Y121.519 E8.39925
G1 X111.235 Y121.603 E8.43938
G1 X110.015 Y121.601 E8.49236
G1 X109.092 Y121.514 E8.53258
G1 X108.19 Y121.356 E8.57232
G1 X107.635 Y121.221 E8.59713
G1 X106.77 Y120.952 E8.63647
G1 X105.911 Y120.61 E8.67662
G1 X104.814 Y120.049 E8.73009
G1 X104.599 Y119.979 E8.73987
G1 X104.48 Y119.965 E8.7451
G1 X100.521 Y119.965 E8.91695
G1 X99.934 Y119.921 E8.94251
G1 X99.372 Y119.795 E8.96751
G1 X98.977 Y119.65 E8.98576
G1 X98.362 Y119.335 E9.01578
G1 X97.89 Y118.988 E9.04119
G1 X97.489 Y118.585 E9.06586
G1 X97.158 Y118.133 E9.09018
G1 X96.79 Y117.383 E9.12646
G1 X96.625 Y116.842 E9.15098
G1 X96.541 Y116.28 E9.17566
G1 X96.529 Y104.147 E9.70233
G1 X96.572 Y103.571 E9.72743
G1 X96.698 Y103.013 E9.75224
G1 X96.895 Y102.496 E9.77624
G1 X97.157 Y102.001 E9.80057
G1 X97.506 Y101.527 E9.82611
G1 X97.865 Y101.167 E9.84818
G1 X98.182 Y101.486 F18000
G1 F3000
G1 X98.195 Y101.473 E9.84897
G1 X98.571 Y101.194 E9.86931
G1 X99.158 Y100.893 E9.89792
G1 X99.728 Y100.707 E9.92395
G1 X100.244 Y100.626 E9.94663
G1 X100.507 Y100.614 E9.95808
G1 X104.263 Y100.614 E10.1211
G1 X104.442 Y100.595 E10.12891
G1 X104.852 Y100.457 E10.14769
G1 X105.486 Y100.099 E10.17931
G1 X106.263 Y99.732 E10.2166
G1 X107.052 Y99.43 E10.25326
G1 X107.864 Y99.188 E10.29004
G1 X108.698 Y99.007 E10.32709
G1 X109.548 Y98.89 E10.36435
G1 X110.406 Y98.838 E10.40166
G1 X110.94 Y98.842 E10.42482
G1 X111.584 Y98.876 E10.45282
G1 X112.439 Y98.981 E10.49023
G1 X113.266 Y99.148 E10.52685
G1 X114.081 Y99.378 E10.56362
G1 X114.873 Y99.668 E10.60021
G1 X115.663 Y100.027 E10.63789
G1 X116.421 Y100.446 E10.67547
G1 X116.864 Y100.727 E10.69824
G1 X117.817 Y101.444 E10.75001
G1 X118.447 Y102.014 E10.78687
G1 X119.03 Y102.628 E10.82367
G1 X119.575 Y103.298 E10.86115
G1 X119.883 Y103.729 E10.88412
G1 X120.342 Y104.466 E10.92183
G1 X120.565 Y104.88 E10.94223
G1 X120.775 Y105.148 E10.95704
G1 X120.964 Y105.307 E10.96773
G1 X121.407 Y105.557 E10.98982
G1 X121.793 Y105.84 E11.01059
G1 X122.176 Y106.222 E11.03407
G1 X122.466 Y106.62 E11.05544
G1 X122.752 Y107.189 E11.08308
G1 X122.93 Y107.739 E11.1082
G1 X123.012 Y108.276 E11.13175
G1 X123.021 Y108.95 E11.16104
G1 X122.984 Y109.453 E11.18292
G1 X122.926 Y109.72 E11.19479
G1 X122.901 Y109.952 E11.20491
G1 X123.013 Y110.819 E11.24284
G1 X123.023 Y111.451 E11.27031
G1 X122.984 Y111.984 E11.29348
G1 X122.872 Y112.486 E11.31581
G1 X122.748 Y112.828 E11.33163
G1 X122.463 Y113.386 E11.3588
G1 X122.171 Y113.787 E11.38035
G1 X121.819 Y114.144 E11.40211
G1 X121.428 Y114.437 E11.4233
G1 X120.985 Y114.68 E11.44527
G1 X120.695 Y114.937 E11.46205
G1 X120.571 Y115.112 E11.47138
G1 X120.308 Y115.599 E11.49541
G1 X120.026 Y116.059 E11.51885
G1 X119.307 Y117.049 E11.57197
G1 X118.753 Y117.679 E11.60838
G1 X118.343 Y118.092 E11.63362
G1 X118.106 Y118.311 E11.64764
G1 X117.426 Y118.875 E11.68599
G1 X116.973 Y119.203 E11.71028
G1 X116.242 Y119.665 E11.74779
G1 X115.445 Y120.084 E11.78688
G1 X114.343 Y120.539 E11.83863
G1 X113.511 Y120.795 E11.87642
G1 X112.985 Y120.922 E11.89993
G1 X112.103 Y121.073 E11.93878
G1 X111.209 Y121.155 E11.97773
G1 X110.043 Y121.152 E12.02837
G1 X109.147 Y121.068 E12.06742
G1 X108.278 Y120.916 E12.10572
G1 X107.75 Y120.788 E12.12928
G1 X106.925 Y120.531 E12.16682
G1 X106.091 Y120.198 E12.2058
G1 X105.028 Y119.655 E12.2576
G1 X104.643 Y119.533 E12.27513
G1 X104.473 Y119.516 E12.28254
G1 X100.542 Y119.516 E12.45316
G1 X100.01 Y119.477 E12.47635
G1 X99.508 Y119.366 E12.49868
G1 X99.165 Y119.241 E12.5145
G1 X98.608 Y118.957 E12.54164
G1 X98.177 Y118.639 E12.56489
G1 X97.825 Y118.284 E12.5866
G1 X97.538 Y117.889 E12.60779
G1 X97.205 Y117.207 E12.64073
G1 X97.062 Y116.733 E12.66222
G1 X96.99 Y116.237 E12.684
G1 X96.978 Y104.159 E13.20829
G1 X97.016 Y103.647 E13.23057
G1 X97.126 Y103.152 E13.25256
G1 X97.301 Y102.689 E13.27405
G1 X97.533 Y102.249 E13.29565
G1 X97.854 Y101.813 E13.31914
G1 X98.154 Y101.514 E13.33753
G1 X98.471 Y101.832 F18000
G1 F3000
G1 X98.482 Y101.821 E13.33823
G1 X98.8 Y101.583 E13.35548
G1 X99.321 Y101.313 E13.38095
G1 X99.823 Y101.148 E13.40387
G1 X100.281 Y101.074 E13.42404
G1 X100.514 Y101.063 E13.43416
G1 X104.257 Y101.062 E13.59661
G1 X104.482 Y101.042 E13.60645
G1 X105.082 Y100.842 E13.63388
G1 X105.697 Y100.496 E13.66451
G1 X106.444 Y100.143 E13.70038
G1 X107.191 Y99.857 E13.73512
G1 X107.971 Y99.624 E13.77041
G1 X108.771 Y99.45 E13.80598
G1 X109.587 Y99.338 E13.84174
G1 X110.414 Y99.287 E13.87768
G1 X110.923 Y99.291 E13.89981
G1 X111.55 Y99.323 E13.92703
G1 X112.372 Y99.425 E13.96301
G1 X113.166 Y99.586 E13.99814
G1 X113.938 Y99.804 E14.03299
G1 X114.707 Y100.086 E14.06855
G1 X115.457 Y100.426 E14.10429
G1 X116.188 Y100.829 E14.14054
G1 X116.604 Y101.094 E14.16191
G1 X117.536 Y101.794 E14.21253
G1 X118.136 Y102.338 E14.24771
G1 X118.69 Y102.921 E14.28258
G1 X119.216 Y103.567 E14.31876
G1 X119.507 Y103.974 E14.3405
G1 X119.952 Y104.687 E14.37696
G1 X120.165 Y105.083 E14.39647
G1 X120.416 Y105.417 E14.41462
G1 X120.669 Y105.644 E14.42937
G1 X121.159 Y105.931 E14.45401
G1 X121.492 Y106.175 E14.47194
G1 X121.84 Y106.523 E14.4933
G1 X122.087 Y106.864 E14.51157
G1 X122.339 Y107.369 E14.53607
G1 X122.493 Y107.853 E14.55814
G1 X122.564 Y108.322 E14.57872
G1 X122.572 Y108.943 E14.60566
G1 X122.54 Y109.379 E14.62464
G1 X122.456 Y109.896 E14.6474
G1 X122.565 Y110.858 E14.68943
G1 X122.574 Y111.432 E14.71435
G1 X122.54 Y111.908 E14.73507
G1 X122.443 Y112.351 E14.75475
G1 X122.338 Y112.641 E14.76812
G1 X122.074 Y113.159 E14.79338
G1 X121.821 Y113.504 E14.8119
G1 X121.516 Y113.811 E14.83073
G1 X121.179 Y114.062 E14.84893
G1 X120.677 Y114.353 E14.87414
G1 X120.408 Y114.592 E14.88975
G1 X120.171 Y114.908 E14.90689
G1 X119.921 Y115.372 E14.92978
G1 X119.656 Y115.806 E14.95184
G1 X118.952 Y116.774 E15.00379
G1 X118.428 Y117.37 E15.03825
G1 X118.034 Y117.767 E15.06254
G1 X117.156 Y118.516 E15.11265
G1 X116.718 Y118.834 E15.13615
G1 X116.022 Y119.273 E15.17184
G1 X115.249 Y119.68 E15.20976
G1 X114.186 Y120.118 E15.2597
G1 X113.397 Y120.361 E15.29552
G1 X112.899 Y120.481 E15.31777
G1 X112.039 Y120.629 E15.35563
G1 X111.183 Y120.706 E15.39294
G1 X110.07 Y120.704 E15.44124
G1 X109.201 Y120.622 E15.47912
G1 X108.365 Y120.475 E15.51598
G1 X107.866 Y120.354 E15.53828
G1 X107.08 Y120.109 E15.57403
G1 X106.271 Y119.786 E15.61184
G1 X105.243 Y119.261 E15.66195
G1 X104.675 Y119.086 E15.68775
G1 X104.467 Y119.068 E15.69679
G1 X100.564 Y119.068 E15.86623
G1 X100.085 Y119.033 E15.88707
G1 X99.642 Y118.936 E15.90676
G1 X99.352 Y118.832 E15.92013
G1 X98.836 Y118.567 E15.94532
G1 X98.463 Y118.291 E15.96544
G1 X98.161 Y117.984 E15.98413
G1 X97.918 Y117.647 E16.00218
G1 X97.621 Y117.033 E16.0318
G1 X97.5 Y116.625 E16.05025
G1 X97.438 Y116.194 E16.06915
G1 X97.426 Y104.18 E16.59066
G1 X97.46 Y103.722 E16.6106
G1 X97.555 Y103.291 E16.62978
G1 X97.715 Y102.867 E16.64945
G1 X97.92 Y102.479 E16.66848
G1 X98.202 Y102.1 E16.68901
G1 X98.442 Y101.861 E16.70372
G1 X98.759 Y102.178 F18000
G1 F3000
G1 X98.77 Y102.168 E16.70439
G1 X99.03 Y101.971 E16.71857
G1 X99.486 Y101.733 E16.74089
G1 X99.94 Y101.583 E16.76164
G1 X100.32 Y101.522 E16.77837
G1 X100.528 Y101.511 E16.78739
G1 X104.251 Y101.511 E16.94901
G1 X104.516 Y101.489 E16.96054
G1 X105.212 Y101.271 E16.99221
G1 X105.907 Y100.892 E17.02657
G1 X106.625 Y100.554 E17.06101
G1 X107.341 Y100.28 E17.09428
G1 X108.078 Y100.06 E17.12765
G1 X108.844 Y99.893 E17.16172
G1 X109.626 Y99.785 E17.19599
G1 X110.421 Y99.736 E17.23055
G1 X110.907 Y99.739 E17.25166
G1 X111.515 Y99.771 E17.27808
G1 X112.305 Y99.869 E17.31263
G1 X113.055 Y100.021 E17.34585
G1 X113.795 Y100.229 E17.37921
G1 X114.532 Y100.499 E17.4133
G1 X115.251 Y100.825 E17.44755
G1 X115.956 Y101.213 E17.48248
G1 X116.344 Y101.46 E17.50244
G1 X117.255 Y102.144 E17.55189
G1 X117.819 Y102.656 E17.58496
G1 X118.349 Y103.214 E17.61836
G1 X118.857 Y103.836 E17.65323
G1 X119.132 Y104.22 E17.67374
G1 X119.561 Y104.909 E17.70895
G1 X119.811 Y105.359 E17.73132
G1 X120.124 Y105.757 E17.75328
G1 X120.452 Y106.037 E17.77201
G1 X120.906 Y106.303 E17.79486
G1 X121.191 Y106.511 E17.81016
G1 X121.504 Y106.823 E17.82936
G1 X121.707 Y107.107 E17.84448
G1 X121.925 Y107.548 E17.86587
G1 X122.057 Y107.966 E17.88489
G1 X122.116 Y108.368 E17.90251
G1 X122.123 Y108.935 E17.92712
G1 X122.094 Y109.32 E17.9439
G1 X122.015 Y109.816 E17.96567
G1 X122.011 Y109.956 E17.97178
G1 X122.117 Y110.894 E18.01274
G1 X122.125 Y111.414 E18.03531
G1 X122.095 Y111.834 E18.05362
G1 X122.013 Y112.218 E18.07067
G1 X121.929 Y112.454 E18.08154
G1 X121.684 Y112.932 E18.10483
G1 X121.472 Y113.218 E18.1203
G1 X121.213 Y113.477 E18.13621
G1 X120.927 Y113.689 E18.15165
G1 X120.372 Y114.025 E18.17983
G1 X120.043 Y114.332 E18.19936
G1 X119.772 Y114.703 E18.2193
G1 X119.534 Y115.145 E18.2411
G1 X119.285 Y115.552 E18.26178
G1 X118.598 Y116.498 E18.31255
G1 X118.103 Y117.06 E18.34507
G1 X117.733 Y117.434 E18.3679
G1 X116.882 Y118.16 E18.41645
G1 X116.462 Y118.465 E18.43897
G1 X115.802 Y118.882 E18.47285
G1 X115.053 Y119.275 E18.50959
G1 X114.028 Y119.698 E18.55772
G1 X113.282 Y119.927 E18.59158
G1 X112.812 Y120.04 E18.61257
G1 X111.986 Y120.183 E18.64897
G1 X111.157 Y120.258 E18.6851
G1 X110.098 Y120.255 E18.73107
G1 X109.256 Y120.176 E18.76778
G1 X108.453 Y120.035 E18.80318
G1 X107.982 Y119.92 E18.82423
