; HEADER_BLOCK_START
; generated by AnycubicSlicerNext 1.3.1 on 2026-02-13 at 01:40:35
; total layer number: 225
; filament_density: 1.24
; filament_diameter: 1.75
; max_z_height: 45.04
; HEADER_BLOCK_END

; THUMBNAIL_BLOCK_START

;
; THUMBNAIL_BLOCK_END

; external perimeters extrusion width = 0.42mm
; perimeters extrusion width = 0.45mm
; infill extrusion width = 0.45mm
; solid infill extrusion width = 0.42mm
; top infill extrusion width = 0.42mm
; support material extrusion width = 0.40mm
; first layer extrusion width = 0.50mm

; external perimeters extrusion width = 0.42mm
; perimeters extrusion width = 0.45mm
; infill extrusion width = 0.45mm
; solid infill extrusion width = 0.42mm
; top infill extrusion width = 0.42mm
; support material extrusion width = 0.40mm
; first layer extrusion width = 0.50mm

; EXECUTABLE_BLOCK_START
M201 X2000 Y2000 Z800 E2000
M203 X300 Y300 Z8 E100
M204 P2000 R2000 T2000
M205 X10.00 Y10.00 Z2.00 E5.00 ; sets the jerk limits, mm/sec
;TYPE:Custom
G90 ; use absolute coordinates
M83 ; extruder relative mode
M104 S220 ; set extruder temp
M140 S60 ; set bed temp
M190 S60 ; wait for bed temp
M109 S220 ; wait for extruder temp
G28                                        ; move X/Y/Z to min endstops
G1 Z0.28                                   ; lift nozzle a bit 
G92 E0 
G1 Y3 F1800                                    ; zero the extruded length 
G1 X60  E25 F500                       ; Extrude 25mm of filament in a 5cm line. 
G92 E0                                     ; zero the extruded length again 
G1 E-2 F500                                ; Retract a little 
G1 X70 F4000                              ; Quickly wipe away from the filament line
M117
G90
G21
M82 ; use absolute distances for extrusion
G92 E0
; filament start gcode
M106 S0
;LAYER_CHANGE
;Z:0.24
;HEIGHT:0.24
; BEFORE_LAYER_CHANGE 0 @ 0.24mm
G1 E-2.5 F6000
G92 E0
; AFTER_LAYER_CHANGE 0 @ 0.24mm
;_SET_FAN_SPEED_CHANGING_LAYER
M204 P500
; printing object "fineltank.stl" id:1971310784256 copy 0
M204 T500
G1 X107.811 Y100.672 F18000
G1 Z.24
G1 E2.5 F6000
;TYPE:Support
;WIDTH:0.5
G1 F3000
G2 X111.05 Y100.841 I2.053 J-8.202 E2.6417
G2 X113.009 Y100.837 I.971 J-4.471 E2.7274
G3 X115.925 Y102.775 I-.362 J3.708 E2.88561
G3 X118.61 Y107.122 I-.673 J3.418 E3.13459
G3 X119.143 Y111.696 I-2.337 J2.59 E3.35289
G3 X117.372 Y114.284 I-3.24 J-.317 E3.4949
G2 X116.245 Y115.955 I4.841 J4.481 E3.58272
G3 X111.137 Y118.979 I-3.526 J-.129 E3.88893
G2 X109.285 Y118.542 I-1.506 J2.242 E3.97334
G3 X107.349 Y118.894 I-8.607 J-41.915 E4.05876
G3 X104.692 Y117.34 I.475 J-3.861 E4.19612
G3 X102.328 Y113.645 I1.037 J-3.268 E4.40275
G3 X100.798 Y110.339 I2.409 J-3.121 E4.56711
G3 X101.104 Y107.153 I3.951 J-1.228 E4.70973
G3 X103.862 Y104.317 I3.332 J.481 E4.89328
G3 X107.744 Y100.661 I3.401 J-.278 E5.15901
G1 X109.58 Y103.169 F18000
G1 F3000
G3 X113.354 Y104.073 I.696 J5.425 E5.33124
G1 X113.392 Y104.009 E5.33447
G3 X116.238 Y107.583 I-2.511 J4.92 E5.53893
G1 X116.336 Y107.551 E5.54344
G1 X116.649 Y108.513 E5.58735
G1 X116.789 Y111.251 E5.70637
G3 X109.668 Y116.904 I-6.892 J-1.37 E6.13558
G1 X107.027 Y116.195 E6.25429
G3 X103.216 Y111.231 I3.508 J-6.637 E6.53453
G1 X103.267 Y111.22 E6.53679
G3 X109.513 Y103.177 I6.626 J-1.302 E7.03758
G1 E5.28758 F6000
;WIPE_START
G1 F3000
G1 X108.525 Y103.327 E4.53758
;WIPE_END
G92 E0
G1 X118.982 Y111.574 F18000
G1 E2.5 F6000
G1 F3000
G1 X118.982 Y108.177 E2.64747
G2 X118.484 Y107.534 I-1.434 J.597 E2.68318
G1 X118.484 Y112.54 E2.90048
G3 X117.985 Y113.298 I-1.658 J-.548 E2.9403
G1 X117.985 Y104.75 E3.31133
G2 X117.487 Y104.036 I-1.59 J.579 E3.34956
G1 X117.487 Y113.727 E3.7702
G2 X116.989 Y114.146 I.578 J1.191 E3.79878
G1 X116.989 Y112.087 E3.88819
G2 X116.49 Y114.812 I4.782 J2.283 E4.00988
G2 X115.992 Y115.522 I.567 J.928 E4.04863
G1 X115.992 Y114.149 E4.10825
G1 X115.494 Y114.739 E4.14178
G1 X115.494 Y117.216 E4.24928
G3 X114.995 Y117.979 I-1.696 J-.563 E4.2893
G1 X114.995 Y115.286 E4.40619
G2 X114.497 Y115.78 I4.581 J5.122 E4.43665
G1 X114.497 Y118.4 E4.5504
G3 X113.999 Y118.672 I-.777 J-.836 E4.57528
G1 X113.999 Y116.015 E4.69059
G1 X113.5 Y116.392 E4.71771
G1 X113.5 Y118.86 E4.82482
G1 X113.002 Y118.946 E4.84678
G1 X113.002 Y116.701 E4.94421
G3 X112.504 Y116.842 I-.63 J-1.274 E4.96682
G1 X112.504 Y118.935 E5.05768
G3 X112.005 Y118.872 I-.133 J-.952 E5.07974
G1 X112.005 Y116.962 E5.16269
G1 X111.507 Y117.081 E5.18493
G1 X111.507 Y118.687 E5.25465
G2 X111.009 Y118.506 I-4.856 J12.601 E5.27766
G1 X111.009 Y117.2 E5.33435
G3 X110.51 Y117.236 I-.347 J-1.327 E5.35616
G1 X110.51 Y118.331 E5.40367
G3 X110.012 Y117.299 I.206 J-.736 E5.45991
G3 X109.514 Y117.28 I-.182 J-1.818 E5.48163
G1 X109.514 Y118.106 E5.51747
G3 X109.015 Y118.117 I-.274 J-1.196 E5.53926
G1 X109.015 Y117.147 E5.58135
G1 X108.517 Y117.013 E5.60375
G1 X108.517 Y118.286 E5.65901
G3 X108.019 Y118.43 I-.5 J-.798 E5.68182
G1 X108.019 Y116.879 E5.74913
G1 X107.52 Y116.746 E5.77153
G1 X107.52 Y118.474 E5.84653
G3 X107.022 Y118.418 I-.153 J-.893 E5.86858
G1 X107.022 Y116.612 E5.94698
G3 X106.524 Y116.371 I.2 J-1.049 E5.97129
G1 X106.524 Y118.305 E6.05523
G1 X106.025 Y118.049 E6.07955
G1 X106.022 Y116.044 E6.16657
G3 X105.527 Y115.659 I1.94 J-3.009 E6.19381
G1 X105.527 Y117.653 E6.28037
G3 X105.029 Y117.106 I4.594 J-4.683 E6.31252
G1 X105.029 Y115.194 E6.39551
G1 X104.53 Y114.729 E6.4251
G1 X104.53 Y116.849 E6.51711
G3 X104.032 Y116.573 I.538 J-1.563 E6.54195
G1 X104.032 Y114.153 E6.64702
G3 X103.534 Y113.161 I1.996 J-1.624 E6.69559
G1 X103.534 Y116.137 E6.82477
G3 X103.035 Y115.415 I1.132 J-1.314 E6.86327
G1 X103.035 Y112.16 E7.00454
G3 X102.737 Y110.92 I6.011 J-2.102 E7.06
G1 X102.818 Y110.903 E7.06361
G3 X103.035 Y108.11 I4.503 J-1.055 E7.18713
G1 X103.035 Y105.018 E7.32138
G3 X103.534 Y104.787 I.653 J.756 E7.34553
G1 X103.534 Y106.757 E7.43107
G2 X104.032 Y104.696 I-1.432 J-1.437 E7.52793
G1 X104.271 Y104.653 E7.53848
G3 X104.53 Y102.837 I3.613 J-.411 E7.61899
G1 X104.53 Y105.162 E7.71993
G3 X105.029 Y104.672 I1.572 J1.102 E7.75043
G1 X105.029 Y102.069 E7.86344
G3 X105.527 Y101.613 I1.101 J.702 E7.8931
G1 X105.527 Y104.29 E8.00933
G1 X106.025 Y103.909 E8.03658
G1 X106.025 Y101.303 E8.1497
G1 X106.524 Y101.141 E8.17244
G1 X106.524 Y103.551 E8.27706
G3 X107.022 Y103.359 I.913 J1.623 E8.30033
G1 X107.022 Y101.056 E8.40032
G3 X107.52 Y101.033 I.3 J1.11 E8.42214
G1 X107.52 Y103.19 E8.51578
G1 X108.019 Y103.021 E8.53863
G1 X108.019 Y101.128 E8.6208
G3 X108.517 Y101.295 I-.08 J1.064 E8.64386
G1 X108.517 Y102.909 E8.71389
G3 X109.015 Y102.829 I.858 J3.755 E8.73581
G1 X109.015 Y101.254 E8.80416
G3 X109.514 Y101.232 I.317 J1.489 E8.82591
G1 X109.514 Y102.77 E8.89269
G3 X110.012 Y102.742 I.462 J3.782 E8.91437
G1 X110.012 Y101.285 E8.9776
G2 X110.51 Y101.279 I.238 J-.859 E8.99953
G1 X110.51 Y102.783 E9.06483
G1 X111.009 Y102.836 E9.08658
G1 X111.009 Y101.248 E9.15551
G3 X111.507 Y101.303 I.1 J1.369 E9.17739
G1 X111.507 Y102.888 E9.24618
G3 X112.005 Y102.979 I-.073 J1.799 E9.26825
G1 X112.005 Y101.356 E9.3387
G3 X112.504 Y101.273 I.412 J.927 E9.36087
G1 X112.504 Y103.132 E9.44156
G3 X113.002 Y103.409 I-.382 J1.274 E9.4665
G1 X113.002 Y101.247 E9.56034
G1 X113.5 Y101.344 E9.58238
G1 X113.5 Y103.605 E9.68052
G1 X113.999 Y103.893 E9.70551
G1 X113.999 Y101.515 E9.80875
G3 X114.497 Y101.772 I-.273 J1.141 E9.83332
G1 X114.497 Y104.258 E9.94123
G3 X114.995 Y104.682 I-.717 J1.347 E9.96986
G1 X114.995 Y102.169 E10.07893
G3 X115.494 Y102.805 I-1.039 J1.326 E10.11437
G1 X115.494 Y105.137 E10.21559
G3 X115.992 Y105.913 I-.854 J1.096 E10.25641
G1 X115.992 Y103.2 E10.37418
G3 X116.49 Y103.365 I-.117 J1.187 E10.39716
G1 X116.49 Y107.076 E10.55824
G1 X116.596 Y107.042 E10.56305
G1 X116.989 Y108.252 E10.61829
G1 X116.989 Y103.376 E10.82995
G1 E9.07995 F6000
;WIPE_START
G1 F3000
G1 X116.989 Y104.376 E8.32995
;WIPE_END
G92 E0
G1 X102.537 Y113.554 F18000
G1 E2.5 F6000
G1 F3000
G1 X102.537 Y105.357 E2.85584
G2 X102.039 Y105.897 I.688 J1.134 E2.88818
G1 X102.039 Y112.865 E3.19065
G3 X101.54 Y112.075 I1.853 J-1.721 E3.23142
G1 X101.54 Y107.091 E3.44777
G2 X101.042 Y110.374 I5.086 J2.451 E3.59406
G1 E1.84406 F6000
;WIPE_START
G1 F3000
G1 X101.042 Y109.374 E1.09406
;WIPE_END
G92 E0
G1 X104.096 Y110.257 F18000
G1 E2.5 F6000
;TYPE:Brim
G1 F3000
G1 X104.082 Y109.907 E2.51519
G1 X104.099 Y109.6 E2.52854
G1 X104.225 Y108.769 E2.56504
G1 X104.479 Y108.021 E2.59931
G1 X104.697 Y107.505 E2.62367
G1 X105.05 Y106.789 E2.6583
G1 X105.554 Y106.107 E2.69511
G1 X105.833 Y105.798 E2.71317
G1 X106.413 Y105.263 E2.74744
G1 X107.244 Y104.748 E2.78989
G1 X107.817 Y104.506 E2.81686
G1 X108.458 Y104.336 E2.84568
G1 X109.058 Y104.225 E2.87216
G1 X109.616 Y104.159 E2.89653
G1 X110.083 Y104.133 E2.91683
G1 X110.768 Y104.15 E2.94659
G1 X111.473 Y104.277 E2.97769
G1 X112.035 Y104.445 E3.00314
G1 X112.891 Y104.815 E3.04363
G1 X114.013 Y105.595 E3.10293
G1 X114.669 Y106.276 E3.14398
G1 X115.03 Y106.798 E3.17153
G1 X115.299 Y107.343 E3.1979
G1 X115.527 Y108.028 E3.22927
G1 X115.607 Y108.5 E3.25005
G1 X115.695 Y108.779 E3.26274
G1 X115.848 Y109.406 E3.29075
G1 X115.904 Y109.96 E3.31492
G1 X115.889 Y110.6 E3.34273
G1 X115.814 Y111.077 E3.36369
G1 X115.676 Y111.614 E3.38775
G1 X115.441 Y112.3 E3.41923
G1 X115.211 Y112.785 E3.4425
G1 X114.968 Y113.206 E3.46361
G1 X114.609 Y113.698 E3.49007
G1 X114.05 Y114.288 E3.52533
G1 X113.585 Y114.739 E3.55345
G1 X113.067 Y115.109 E3.5811
G1 X112.579 Y115.365 E3.60501
G1 X112.394 Y115.447 E3.61381
G1 X111.646 Y115.7 E3.6481
G1 X110.694 Y115.841 E3.68986
G1 X109.901 Y115.914 E3.7244
G1 X109.064 Y115.866 E3.76081
G1 X108.525 Y115.749 E3.78476
G1 X107.922 Y115.539 E3.81246
G1 X107.233 Y115.172 E3.84637
G1 X106.522 Y114.695 E3.88353
G1 X105.926 Y114.23 E3.91634
G1 X105.384 Y113.633 E3.95131
G1 X105.078 Y113.226 E3.97345
G1 X104.599 Y112.42 E4.01416
G1 X104.294 Y111.526 E4.05513
G1 X104.113 Y110.7 E4.09184
G1 X104.097 Y110.297 E4.10936
G1 X104.545 Y110.28 F18000
G1 F3000
G1 X104.531 Y109.917 E4.12512
G1 X104.546 Y109.64 E4.13718
G1 X104.666 Y108.864 E4.17124
G1 X104.9 Y108.177 E4.20277
G1 X105.107 Y107.688 E4.22582
G1 X105.429 Y107.034 E4.25745
G1 X105.906 Y106.386 E4.29237
G1 X106.156 Y106.109 E4.30856
G1 X106.676 Y105.63 E4.33925
G1 X107.46 Y105.143 E4.37932
G1 X107.971 Y104.929 E4.40336
G1 X108.552 Y104.775 E4.42944
G1 X109.121 Y104.67 E4.45459
G1 X109.659 Y104.606 E4.47808
G1 X110.095 Y104.582 E4.49702
G1 X110.712 Y104.598 E4.52384
G1 X111.361 Y104.713 E4.55247
G1 X111.873 Y104.865 E4.57565
G1 X112.66 Y105.204 E4.61281
G1 X113.71 Y105.93 E4.66824
G1 X114.327 Y106.57 E4.70682
G1 X114.637 Y107.018 E4.73048
G1 X114.879 Y107.505 E4.7541
G1 X115.088 Y108.127 E4.78257
G1 X115.164 Y108.569 E4.80202
G1 X115.406 Y109.491 E4.84342
G1 X115.454 Y109.985 E4.86498
G1 X115.44 Y110.569 E4.89032
G1 X115.373 Y110.993 E4.90896
G1 X115.245 Y111.491 E4.93126
G1 X115.027 Y112.124 E4.96031
G1 X114.811 Y112.581 E4.98227
G1 X114.587 Y112.966 E5.00162
G1 X114.258 Y113.417 E5.02585
G1 X113.733 Y113.97 E5.05895
G1 X113.289 Y114.399 E5.08576
G1 X112.839 Y114.721 E5.10975
G1 X112.387 Y114.959 E5.13191
G1 X111.528 Y115.264 E5.17151
G1 X110.644 Y115.395 E5.21029
G1 X109.904 Y115.464 E5.24257
G1 X109.114 Y115.418 E5.27689
G1 X108.639 Y115.314 E5.29801
G1 X108.113 Y115.13 E5.32222
G1 X107.458 Y114.783 E5.35439
G1 X106.789 Y114.335 E5.38934
G1 X106.241 Y113.907 E5.4195
G1 X105.726 Y113.342 E5.45267
G1 X105.447 Y112.97 E5.47289
G1 X105.015 Y112.243 E5.50958
G1 X104.729 Y111.412 E5.54771
G1 X104.559 Y110.631 E5.58243
G1 X104.547 Y110.32 E5.59594
G1 X104.995 Y110.303 F18000
G1 F3000
G1 X104.981 Y109.927 E5.61228
G1 X104.994 Y109.679 E5.62302
G1 X105.107 Y108.96 E5.65462
G1 X105.321 Y108.332 E5.68345
G1 X105.517 Y107.871 E5.70519
G1 X105.809 Y107.278 E5.73385
G1 X106.258 Y106.665 E5.76686
G1 X106.48 Y106.421 E5.78116
G1 X106.939 Y105.997 E5.8083
G1 X107.676 Y105.539 E5.84597
G1 X108.125 Y105.353 E5.86706
G1 X108.645 Y105.214 E5.89044
G1 X109.185 Y105.114 E5.91425
G1 X109.702 Y105.052 E5.93685
G1 X110.106 Y105.031 E5.95444
G1 X110.657 Y105.045 E5.97835
G1 X111.251 Y105.149 E6.00451
G1 X111.713 Y105.285 E6.02542
G1 X112.429 Y105.593 E6.05926
G1 X113.407 Y106.266 E6.1108
G1 X113.985 Y106.864 E6.1469
G1 X114.254 Y107.255 E6.16752
G1 X114.46 Y107.669 E6.18757
G1 X114.648 Y108.227 E6.21315
G1 X114.731 Y108.688 E6.23346
G1 X114.964 Y109.581 E6.27354
G1 X115.005 Y110.01 E6.29225
G1 X114.991 Y110.537 E6.31512
G1 X114.931 Y110.908 E6.33145
G1 X114.813 Y111.367 E6.35199
G1 X114.613 Y111.947 E6.37865
G1 X114.411 Y112.377 E6.39928
G1 X114.207 Y112.727 E6.41683
G1 X113.907 Y113.135 E6.43885
G1 X113.416 Y113.652 E6.46979
G1 X112.993 Y114.059 E6.49529
G1 X112.61 Y114.333 E6.51569
G1 X112.215 Y114.542 E6.5351
G1 X111.406 Y114.829 E6.57238
G1 X110.594 Y114.949 E6.60799
G1 X109.906 Y115.013 E6.638
G1 X109.165 Y114.97 E6.67021
G1 X108.754 Y114.879 E6.6885
G1 X108.302 Y114.721 E6.70926
G1 X107.683 Y114.393 E6.73969
G1 X107.056 Y113.974 E6.77242
G1 X106.556 Y113.584 E6.79995
G1 X106.068 Y113.051 E6.83131
G1 X105.817 Y112.714 E6.84957
G1 X105.431 Y112.065 E6.88231
G1 X105.164 Y111.299 E6.91755
G1 X105.005 Y110.562 E6.95025
G1 X104.997 Y110.343 E6.9598
G1 X105.445 Y110.326 F18000
G1 F3000
G1 X105.43 Y109.937 E6.97669
G1 X105.442 Y109.72 E6.98611
G1 X105.548 Y109.057 E7.01524
G1 X105.743 Y108.488 E7.04138
G1 X105.927 Y108.054 E7.06181
G1 X106.188 Y107.523 E7.08754
G1 X106.611 Y106.944 E7.11863
G1 X106.803 Y106.733 E7.13101
G1 X107.203 Y106.364 E7.15463
G1 X107.892 Y105.935 E7.18988
G1 X108.278 Y105.776 E7.20798
G1 X108.739 Y105.654 E7.22871
G1 X109.248 Y105.558 E7.25118
G1 X109.736 Y105.5 E7.2725
G1 X110.118 Y105.48 E7.2891
G1 X110.603 Y105.492 E7.31016
G1 X111.141 Y105.585 E7.33386
G1 X111.552 Y105.705 E7.35248
G1 X112.199 Y105.982 E7.38301
G1 X113.104 Y106.602 E7.43065
G1 X113.643 Y107.158 E7.46424
G1 X113.861 Y107.475 E7.48097
G1 X114.04 Y107.833 E7.49834
G1 X114.21 Y108.33 E7.52112
G1 X114.298 Y108.805 E7.54211
G1 X114.522 Y109.67 E7.58089
G1 X114.556 Y110.034 E7.59673
G1 X114.542 Y110.504 E7.61715
G1 X114.49 Y110.823 E7.63118
G1 X114.381 Y111.242 E7.64999
G1 X114.2 Y111.771 E7.67427
G1 X114.01 Y112.173 E7.69355
G1 X113.827 Y112.486 E7.70928
G1 X113.556 Y112.853 E7.72909
G1 X113.1 Y113.334 E7.75786
G1 X112.697 Y113.719 E7.78206
G1 X112.381 Y113.945 E7.79894
G1 X112.043 Y114.126 E7.81557
G1 X111.284 Y114.394 E7.85051
G1 X110.545 Y114.503 E7.88296
G1 X109.908 Y114.562 E7.9107
G1 X109.216 Y114.522 E7.94079
G1 X108.869 Y114.444 E7.95623
G1 X108.492 Y114.312 E7.97358
G1 X107.907 Y114.004 E8.00227
G1 X107.323 Y113.613 E8.03278
G1 X106.871 Y113.26 E8.05769
G1 X106.41 Y112.759 E8.08723
G1 X106.187 Y112.458 E8.1035
G1 X105.847 Y111.887 E8.13236
G1 X105.6 Y111.185 E8.16467
G1 X105.451 Y110.494 E8.19533
G1 X105.446 Y110.365 E8.20092
G1 X105.897 Y110.36 F18000
G1 F3000
G1 X105.889 Y109.761 E8.22693
G1 X105.989 Y109.155 E8.25357
G1 X106.164 Y108.643 E8.27706
G1 X106.336 Y108.238 E8.2962
G1 X106.568 Y107.766 E8.31901
G1 X106.964 Y107.223 E8.34818
G1 X107.126 Y107.046 E8.35859
G1 X107.467 Y106.731 E8.37872
G1 X108.108 Y106.331 E8.41154
G1 X108.43 Y106.2 E8.42663
G1 X108.833 Y106.093 E8.44475
G1 X109.312 Y106.003 E8.46588
G1 X109.77 Y105.948 E8.4859
G1 X110.129 Y105.929 E8.50152
G1 X110.549 Y105.939 E8.51977
G1 X111.032 Y106.021 E8.54101
G1 X111.393 Y106.126 E8.55733
G1 X111.993 Y106.384 E8.58569
G1 X112.803 Y106.939 E8.6283
G1 X113.301 Y107.452 E8.65935
G1 X113.478 Y107.712 E8.67301
G1 X113.622 Y107.999 E8.68691
G1 X113.776 Y108.453 E8.70776
G1 X113.865 Y108.922 E8.72847
G1 X114.08 Y109.758 E8.76595
G1 X114.106 Y110.056 E8.77893
G1 X114.093 Y110.47 E8.7969
G1 X114.049 Y110.737 E8.80864
G1 X113.95 Y111.118 E8.82573
G1 X113.786 Y111.595 E8.84766
G1 X113.61 Y111.969 E8.86558
G1 X113.448 Y112.245 E8.87945
G1 X113.206 Y112.57 E8.89706
G1 X112.784 Y113.015 E8.92367
G1 X112.403 Y113.379 E8.94656
G1 X112.151 Y113.559 E8.95998
G1 X111.871 Y113.71 E8.9738
G1 X111.163 Y113.958 E9.00638
G1 X110.495 Y114.057 E9.0357
G1 X109.911 Y114.112 E9.06115
G1 X109.268 Y114.074 E9.0891
G1 X108.985 Y114.01 E9.10168
G1 X108.681 Y113.903 E9.11567
G1 X108.131 Y113.614 E9.14263
