; HEADER_BLOCK_START
; generated by AnycubicSlicerNext 1.3.1 on 2026-02-08 at 04:02:49
; total layer number: 195
; filament_density: 1.24
; filament_diameter: 1.75
; max_z_height: 39.04
; HEADER_BLOCK_END

; THUMBNAIL_BLOCK_START

;
; THUMBNAIL_BLOCK_END

; external perimeters extrusion width = 0.42mm
; perimeters extrusion width = 0.45mm
; infill extrusion width = 0.45mm
; solid infill extrusion width = 0.42mm
; top infill extrusion width = 0.42mm
; first layer extrusion width = 0.50mm

; EXECUTABLE_BLOCK_START
M201 X2000 Y2000 Z800 E2000
M203 X300 Y300 Z8 E100
M204 P2000 R2000 T2000
M205 X10.00 Y10.00 Z2.00 E5.00 ; sets the jerk limits, mm/sec
;TYPE:Custom
G90 ; use absolute coordinates
M83 ; extruder relative mode
M104 S220 ; set extruder temp
M140 S60 ; set bed temp
M190 S60 ; wait for bed temp
M109 S220 ; wait for extruder temp
G28                                        ; move X/Y/Z to min endstops
G1 Z0.28                                   ; lift nozzle a bit 
G92 E0 
G1 Y3 F1800                                    ; zero the extruded length 
G1 X60  E25 F500                       ; Extrude 25mm of filament in a 5cm line. 
G92 E0                                     ; zero the extruded length again 
G1 E-2 F500                                ; Retract a little 
G1 X70 F4000                              ; Quickly wipe away from the filament line
M117
G90
G21
M82 ; use absolute distances for extrusion
G92 E0
; filament start gcode
M106 S0
;LAYER_CHANGE
;Z:0.24
;HEIGHT:0.24
; BEFORE_LAYER_CHANGE 0 @ 0.24mm
G1 E-2.5 F6000
G92 E0
; AFTER_LAYER_CHANGE 0 @ 0.24mm
;_SET_FAN_SPEED_CHANGING_LAYER
M204 P500
; printing object "Heartshapemade.stl" id:2175473592576 copy 0
M204 T500
G1 X110.798 Y54.606 F18000
G1 Z.24
G1 E2.5 F6000
;TYPE:Brim
;WIDTH:0.5
G1 F3000
G1 X111.147 Y54.073 E2.52763
G1 X111.539 Y53.627 E2.55343
G1 X112.016 Y53.202 E2.58116
G1 X112.548 Y52.854 E2.60876
G1 X113.126 Y52.589 E2.63635
G1 X113.733 Y52.414 E2.66377
G1 X114.556 Y52.334 E2.69969
G1 X114.691 Y52.273 E2.7061
G1 X114.737 Y52.208 E2.70955
G1 X117.223 Y47.038 E2.9586
G1 X117.515 Y46.525 E2.98419
G1 X117.895 Y46.023 E3.01153
G1 X122.699 Y40.56 E3.32733
G1 X124.077 Y39.065 E3.41557
G1 X124.345 Y38.798 E3.43201
G1 X127.993 Y35.475 E3.6462
G1 X128.469 Y35.098 E3.67257
G1 X134.053 Y31.278 E3.96626
G1 X134.473 Y31.025 E3.98753
G1 X134.887 Y30.829 E4.0074
G1 X141.975 Y27.934 E4.33978
G1 X142.629 Y27.726 E4.36954
G1 X143.352 Y27.614 E4.40132
G1 X151.543 Y27.039 E4.75777
G1 X152.428 Y27.068 E4.79618
G1 X153.347 Y27.285 E4.83719
G1 X162.232 Y30.431 E5.24634
G1 X163.05 Y30.821 E5.28568
G1 X163.733 Y31.325 E5.32252
G1 X172.917 Y39.608 E5.85936
G1 X173.341 Y40.049 E5.88591
G1 X173.725 Y40.577 E5.91427
G1 X176.251 Y44.665 E6.12285
G1 X176.488 Y45.103 E6.1445
G1 X176.688 Y45.598 E6.16764
G1 X178.153 Y49.984 E6.36839
G1 X178.263 Y50.373 E6.38595
G1 X178.343 Y50.798 E6.40469
G1 X178.971 Y55.521 E6.61151
G1 X178.979 Y55.873 E6.62679
G1 X178.9 Y59.964 E6.80442
G1 X178.859 Y60.428 E6.82465
G1 X178.895 Y60.571 E6.83106
G1 X179 Y60.656 E6.83692
G1 X185.382 Y63.177 E7.13475
G1 X186.035 Y63.498 E7.16634
G1 X189.722 Y64.81 E7.33623
G1 X190.096 Y64.963 E7.35379
G1 X190.48 Y65.162 E7.37255
G1 X194.472 Y67.496 E7.57328
G1 X194.915 Y67.793 E7.59641
G1 X195.295 Y68.115 E7.61807
G1 X198.778 Y71.426 E7.82667
G1 X199.19 Y71.878 E7.85322
G1 X199.561 Y72.416 E7.88158
G1 X205.783 Y83.103 E8.41837
G1 X206.155 Y83.929 E8.45771
G1 X206.35 Y84.755 E8.49455
G1 X207.607 Y94.098 E8.90376
G1 X207.634 Y94.983 E8.94216
G1 X207.476 Y95.914 E8.98318
G1 X205.234 Y103.813 E9.33959
G1 X204.975 Y104.498 E9.37138
G1 X204.638 Y105.094 E9.40113
G1 X200.35 Y111.438 E9.73352
G1 X200.073 Y111.804 E9.75342
G1 X199.739 Y112.162 E9.77468
G1 X194.87 Y116.829 E10.06746
G1 X194.406 Y117.216 E10.09365
G1 X190.402 Y120.111 E10.30818
G1 X190.083 Y120.321 E10.32471
G1 X188.329 Y121.368 E10.41343
G1 X181.993 Y124.951 E10.7294
G1 X181.461 Y125.206 E10.75499
G1 X180.862 Y125.4 E10.78232
G1 X172.955 Y127.349 E11.13581
G1 X172.563 Y127.426 E11.15315
G1 X172.448 Y127.487 E11.1588
G1 X172.126 Y127.809 E11.1786
G1 X171.381 Y128.325 E11.21791
G1 X170.813 Y128.599 E11.24528
G1 X169.88 Y128.849 E11.28721
G1 X168.578 Y129.048 E11.3444
G1 X167.936 Y129.097 E11.37236
G1 X167.3 Y129.05 E11.40004
G1 X166.834 Y128.954 E11.4207
G1 X166.115 Y128.713 E11.45358
G1 X165.554 Y128.418 E11.48111
G1 X165.042 Y128.041 E11.50871
G1 X164.593 Y127.594 E11.5362
G1 X164.121 Y126.931 E11.57155
G1 X163.792 Y126.264 E11.60382
G1 X163.603 Y125.654 E11.63154
G1 X163.542 Y125.328 E11.64592
G1 X161.976 Y114.722 E12.11134
G1 X161.59 Y113.125 E12.18264
G1 X161.486 Y112.489 E12.2106
G1 X161.478 Y111.852 E12.23828
G1 X161.533 Y111.379 E12.25894
G1 X161.711 Y110.643 E12.29182
G1 X161.957 Y110.058 E12.31935
G1 X162.288 Y109.515 E12.34695
G1 X162.695 Y109.028 E12.37454
G1 X163.173 Y108.604 E12.40224
G1 X163.575 Y108.332 E12.4233
G1 X164.14 Y108.031 E12.4511
G1 X164.741 Y107.819 E12.47876
G1 X165.262 Y107.712 E12.50185
G1 X168.251 Y107.285 E12.63292
G1 X170.264 Y106.688 E12.72408
G1 X172.217 Y105.807 E12.81707
G1 X173.995 Y104.692 E12.9082
G1 X175.63 Y103.331 E13.0005
G1 X177.065 Y101.756 E13.09299
G1 X178.292 Y99.977 E13.18682
G1 X179.248 Y98.071 E13.27936
G1 X179.941 Y96.048 E13.3722
G1 X180.353 Y93.955 E13.4648
G1 X180.48 Y91.83 E13.55721
G1 X180.317 Y89.657 E13.65181
G1 X179.877 Y87.575 E13.74417
G1 X179.153 Y85.543 E13.8378
G1 X178.159 Y83.621 E13.93175
G1 X176.902 Y81.825 E14.02692
G1 X175.433 Y80.236 E14.12085
G1 X173.774 Y78.863 E14.2143
G1 X171.946 Y77.723 E14.30785
G1 X169.912 Y76.807 E14.40464
G1 X167.762 Y76.168 E14.50202
G1 X165.316 Y75.504 E14.61206
G1 X164.709 Y75.288 E14.64001
G1 X164.148 Y74.988 E14.66764
G1 X163.667 Y74.635 E14.69354
G1 X163.201 Y74.198 E14.72128
G1 X162.807 Y73.699 E14.74887
G1 X162.494 Y73.151 E14.77626
G1 X162.168 Y72.187 E14.82041
G1 X162.073 Y71.555 E14.84815
G1 X161.938 Y69.186 E14.95117
G1 X161.726 Y66.684 E15.06017
G1 X161.255 Y64.547 E15.15516
G1 X160.517 Y62.538 E15.24806
G1 X159.515 Y60.635 E15.34145
G1 X158.24 Y58.846 E15.4368
G1 X156.761 Y57.271 E15.53058
G1 X155.086 Y55.907 E15.62433
G1 X153.244 Y54.781 E15.71807
G1 X151.296 Y53.923 E15.81045
G1 X149.227 Y53.32 E15.90401
G1 X147.109 Y53.007 E15.99696
G1 X144.966 Y52.98 E16.08999
G1 X142.833 Y53.245 E16.18328
G1 X140.78 Y53.789 E16.27547
G1 X138.826 Y54.603 E16.36734
G1 X136.974 Y55.689 E16.46053
G1 X135.283 Y57.023 E16.55404
G1 X133.809 Y58.559 E16.64645
G1 X132.557 Y60.281 E16.73889
G1 X131.571 Y62.113 E16.8292
G1 X130.539 Y64.953 E16.96036
G1 X130.275 Y65.54 E16.98832
G1 X129.93 Y66.076 E17.01595
G1 X129.541 Y66.525 E17.04175
G1 X129.068 Y66.954 E17.06948
G1 X128.539 Y67.307 E17.09708
G1 X127.964 Y67.577 E17.12467
G1 X127.354 Y67.758 E17.15226
G1 X126.721 Y67.847 E17.18004
G1 X126.406 Y67.856 E17.19369
G1 X125.649 Y67.8 E17.22666
G1 X125.032 Y67.653 E17.2542
G1 X124.442 Y67.415 E17.28179
G1 X124.002 Y67.157 E17.30392
G1 X122.955 Y66.729 E17.35304
G1 X112.404 Y62.006 E17.85484
G1 X111.837 Y61.699 E17.8828
G1 X111.328 Y61.316 E17.91048
G1 X110.988 Y60.983 E17.93114
G1 X110.514 Y60.392 E17.96402
G1 X110.202 Y59.84 E17.99156
G1 X109.975 Y59.246 E18.01915
G1 X109.839 Y58.625 E18.04673
G1 X109.797 Y57.962 E18.07556
G1 X109.855 Y57.231 E18.10739
G1 X110.068 Y56.428 E18.14347
G1 X110.529 Y55.191 E18.20078
G1 X110.781 Y54.642 E18.227
G1 X111.189 Y54.831 F18000
G1 F3000
G1 X111.197 Y54.815 E18.22776
G1 X111.511 Y54.339 E18.25253
G1 X111.864 Y53.938 E18.27571
G1 X112.282 Y53.565 E18.30003
G1 X112.775 Y53.243 E18.32558
G1 X113.273 Y53.014 E18.34938
G1 X113.805 Y52.86 E18.37343
G1 X114.588 Y52.782 E18.40759
G1 X114.754 Y52.737 E18.41506
G1 X114.862 Y52.687 E18.42023
G1 X115.061 Y52.524 E18.43142
G1 X115.145 Y52.395 E18.43807
G1 X117.619 Y47.25 E18.68589
G1 X117.895 Y46.765 E18.71011
G1 X118.24 Y46.311 E18.73485
G1 X123.032 Y40.861 E19.04986
G1 X124.402 Y39.374 E19.13765
G1 X124.657 Y39.121 E19.15323
G1 X128.28 Y35.82 E19.366
G1 X128.731 Y35.462 E19.39101
G1 X134.293 Y31.657 E19.68351
G1 X134.691 Y31.417 E19.7037
G1 X135.07 Y31.239 E19.7219
G1 X142.134 Y28.355 E20.05307
G1 X142.742 Y28.163 E20.08077
G1 X143.408 Y28.059 E20.11002
G1 X151.545 Y27.489 E20.4641
G1 X152.355 Y27.514 E20.49928
G1 X153.228 Y27.718 E20.53818
G1 X162.054 Y30.844 E20.94463
G1 X162.829 Y31.215 E20.98194
G1 X163.454 Y31.677 E21.01569
G1 X172.601 Y39.927 E21.55039
G1 X172.99 Y40.331 E21.57471
G1 X173.355 Y40.832 E21.60162
G1 X175.861 Y44.886 E21.80851
G1 X176.078 Y45.288 E21.82835
G1 X176.268 Y45.757 E21.85031
G1 X177.723 Y50.113 E22.04968
G1 X177.824 Y50.47 E22.06578
G1 X177.9 Y50.872 E22.08354
G1 X178.522 Y55.548 E22.2883
G1 X178.452 Y59.935 E22.47875
G1 X178.414 Y60.377 E22.49803
G1 X178.457 Y60.667 E22.51076
G1 X178.545 Y60.847 E22.51946
G1 X178.713 Y61 E22.5293
G1 X178.845 Y61.077 E22.53596
G1 X185.195 Y63.585 E22.83231
G1 X185.891 Y63.923 E22.86592
G1 X189.559 Y65.228 E23.03489
G1 X189.902 Y65.368 E23.05098
G1 X190.266 Y65.557 E23.06878
G1 X194.23 Y67.874 E23.2681
G1 X194.638 Y68.147 E23.2894
G1 X194.993 Y68.447 E23.30956
G1 X198.454 Y71.737 E23.51686
G1 X198.844 Y72.165 E23.54199
G1 X199.179 Y72.653 E23.56766
G1 X205.38 Y83.302 E24.10261
G1 X205.723 Y84.063 E24.13882
G1 X205.909 Y84.844 E24.17367
G1 X207.158 Y94.128 E24.58034
G1 X207.182 Y94.965 E24.61667
G1 X207.036 Y95.822 E24.65442
G1 X204.809 Y103.666 E25.00838
G1 X204.571 Y104.297 E25.03764
G1 X204.253 Y104.862 E25.0658
G1 X199.987 Y111.174 E25.39651
G1 X199.734 Y111.51 E25.41474
G1 X199.417 Y111.85 E25.43491
G1 X194.574 Y116.491 E25.7261
G1 X194.127 Y116.864 E25.75136
G1 X190.149 Y119.74 E25.96445
G1 X189.843 Y119.942 E25.98039
G1 X188.102 Y120.981 E26.06838
G1 X181.789 Y124.551 E26.3832
G1 X181.286 Y124.791 E26.40741
G1 X180.734 Y124.97 E26.43257
G1 X172.861 Y126.91 E26.78456
G1 X172.49 Y126.983 E26.80096
G1 X172.242 Y127.09 E26.81272
G1 X172.124 Y127.177 E26.81904
G1 X171.827 Y127.47 E26.83717
G1 X171.145 Y127.941 E26.87314
G1 X170.644 Y128.18 E26.89724
G1 X169.781 Y128.411 E26.93604
G1 X168.532 Y128.601 E26.99087
G1 X167.925 Y128.646 E27.0173
G1 X167.37 Y128.606 E27.04143
G1 X166.959 Y128.522 E27.05967
G1 X166.303 Y128.303 E27.08969
G1 X165.784 Y128.03 E27.1151
G1 X165.342 Y127.706 E27.13891
G1 X164.944 Y127.311 E27.16323
G1 X164.513 Y126.709 E27.19539
G1 X164.214 Y126.107 E27.22454
G1 X164.042 Y125.554 E27.24972
G1 X163.984 Y125.252 E27.26306
G1 X162.42 Y114.662 E27.72773
G1 X162.031 Y113.041 E27.80011
G1 X161.936 Y112.46 E27.82566
G1 X161.926 Y111.884 E27.85067
G1 X161.975 Y111.466 E27.86891
G1 X162.136 Y110.794 E27.89893
G1 X162.363 Y110.254 E27.92434
G1 X162.66 Y109.769 E27.94902
G1 X163.012 Y109.349 E27.97282
G1 X163.456 Y108.954 E27.99862
G1 X163.813 Y108.713 E28.01732
G1 X164.312 Y108.448 E28.04186
G1 X164.852 Y108.255 E28.06676
G1 X165.335 Y108.155 E28.08815
G1 X168.388 Y107.712 E28.22205
G1 X170.457 Y107.093 E28.3158
G1 X172.463 Y106.182 E28.41144
G1 X174.289 Y105.031 E28.50517
G1 X175.91 Y103.681 E28.59669
G1 X177.39 Y102.065 E28.69185
G1 X178.697 Y100.17 E28.79177
G1 X179.675 Y98.208 E28.88692
G1 X180.363 Y96.202 E28.97898
G1 X180.791 Y94.05 E29.07423
G1 X180.927 Y91.865 E29.16924
G1 X180.754 Y89.555 E29.26981
G1 X180.297 Y87.416 E29.36476
G1 X179.579 Y85.401 E29.45762
G1 X178.562 Y83.422 E29.55419
G1 X177.274 Y81.575 E29.65195
G1 X175.712 Y79.885 E29.75186
G1 X174.004 Y78.478 E29.84788
G1 X172.122 Y77.31 E29.94405
G1 X170.032 Y76.375 E30.04345
G1 X167.878 Y75.735 E30.14097
G1 X165.455 Y75.077 E30.24997
G1 X164.901 Y74.88 E30.27551
G1 X164.396 Y74.612 E30.30031
G1 X163.948 Y74.284 E30.32442
G1 X163.539 Y73.901 E30.34874
G1 X163.186 Y73.455 E30.37341
G1 X162.901 Y72.954 E30.39844
G1 X162.604 Y72.069 E30.43895
G1 X162.519 Y71.503 E30.46381
G1 X162.384 Y69.146 E30.56627
G1 X162.174 Y66.655 E30.67479
G1 X161.673 Y64.384 E30.77575
G1 X160.91 Y62.321 E30.87123
G1 X159.916 Y60.434 E30.96384
G1 X158.561 Y58.532 E31.06519
G1 X157.037 Y56.918 E31.16154
G1 X155.313 Y55.52 E31.25791
G1 X153.417 Y54.367 E31.35424
G1 X151.413 Y53.49 E31.44917
G1 X149.361 Y52.892 E31.54196
G1 X147.183 Y52.564 E31.63756
G1 X144.98 Y52.532 E31.73321
G1 X142.786 Y52.799 E31.82913
G1 X140.674 Y53.353 E31.92394
G1 X138.662 Y54.185 E32.01845
G1 X136.755 Y55.297 E32.11425
G1 X134.954 Y56.719 E32.21388
G1 X133.441 Y58.302 E32.30894
G1 X132.158 Y60.076 E32.40399
G1 X131.18 Y61.892 E32.49349
G1 X130.121 Y64.789 E32.62738
G1 X129.874 Y65.334 E32.65338
G1 X129.564 Y65.813 E32.67814
G1 X129.214 Y66.216 E32.70132
G1 X128.799 Y66.593 E32.72564
G1 X128.309 Y66.919 E32.75119
G1 X127.813 Y67.152 E32.775
G1 X127.268 Y67.316 E32.79967
G1 X126.691 Y67.399 E32.825
G1 X126.423 Y67.407 E32.8366
G1 X125.707 Y67.353 E32.86777
G1 X125.159 Y67.22 E32.89225
G1 X124.649 Y67.014 E32.91612
G1 X124.164 Y66.739 E32.94034
G1 X123.13 Y66.316 E32.98886
G1 X112.607 Y61.605 E33.48931
G1 X112.089 Y61.326 E33.51487
G1 X111.628 Y60.981 E33.53987
G1 X111.327 Y60.687 E33.55811
G1 X110.882 Y60.13 E33.58907
G1 X110.605 Y59.639 E33.61355
G1 X110.409 Y59.126 E33.63735
G1 X110.286 Y58.573 E33.66197
G1 X110.247 Y57.956 E33.68878
G1 X110.297 Y57.32 E33.71651
G1 X110.494 Y56.571 E33.75013
G1 X110.945 Y55.358 E33.80627
G1 X111.173 Y54.867 E33.82976
G1 X111.58 Y55.056 F18000
G1 F3000
G1 X111.585 Y55.043 E33.83037
G1 X111.874 Y54.605 E33.85314
G1 X112.189 Y54.25 E33.87372
G1 X112.548 Y53.929 E33.89465
G1 X113.001 Y53.633 E33.91815
G1 X113.421 Y53.44 E33.9382
G1 X113.879 Y53.305 E33.95891
G1 X114.623 Y53.229 E33.9914
G1 X114.865 Y53.172 E34.00216
G1 X115.039 Y53.099 E34.01036
G1 X115.34 Y52.874 E34.02669
G1 X115.442 Y52.76 E34.03333
G1 X115.552 Y52.583 E34.04238
G1 X118.014 Y47.463 E34.28901
G1 X118.266 Y47.02 E34.31109
G1 X118.584 Y46.599 E34.33402
G1 X123.364 Y41.163 E34.64824
G1 X124.727 Y39.683 E34.73557
G1 X124.968 Y39.444 E34.7503
G1 X128.567 Y36.165 E34.96165
G1 X129.002 Y35.821 E34.98571
G1 X134.532 Y32.037 E35.27659
G1 X134.909 Y31.81 E35.29569
G1 X135.254 Y31.648 E35.31224
G1 X142.291 Y28.775 E35.64219
G1 X142.855 Y28.599 E35.6678
G1 X143.464 Y28.505 E35.69456
G1 X151.547 Y27.938 E36.04629
G1 X152.283 Y27.961 E36.07827
G1 X153.109 Y28.152 E36.11505
G1 X161.875 Y31.256 E36.51874
G1 X162.607 Y31.609 E36.55402
G1 X163.175 Y32.029 E36.58469
G1 X172.286 Y40.247 E37.11726
G1 X172.639 Y40.613 E37.13938
G1 X172.985 Y41.086 E37.16483
G1 X175.47 Y45.108 E37.37002
G1 X175.668 Y45.473 E37.38806
G1 X175.849 Y45.916 E37.40883
G1 X177.294 Y50.242 E37.60683
G1 X177.386 Y50.567 E37.62146
G1 X177.457 Y50.947 E37.63824
G1 X178.072 Y55.564 E37.84045
G1 X178.004 Y59.907 E38.02898
G1 X177.968 Y60.325 E38.04719
G1 X178.013 Y60.726 E38.06473
G1 X178.059 Y60.873 E38.07142
G1 X178.137 Y61.033 E38.07912
G1 X178.253 Y61.188 E38.08753
G1 X178.401 Y61.323 E38.09625
G1 X178.691 Y61.499 E38.11095
G1 X185.01 Y63.994 E38.40585
G1 X185.748 Y64.348 E38.44139
G1 X189.396 Y65.646 E38.60946
G1 X189.719 Y65.778 E38.62462
G1 X190.052 Y65.952 E38.64093
G1 X193.988 Y68.253 E38.83884
G1 X194.361 Y68.502 E38.85832
G1 X194.69 Y68.778 E38.87698
G1 X198.13 Y72.048 E39.08295
G1 X198.485 Y72.438 E39.10587
G1 X198.797 Y72.889 E39.12965
G1 X204.977 Y83.502 E39.66278
G1 X205.291 Y84.197 E39.69587
G1 X205.469 Y84.932 E39.72873
G1 X206.71 Y94.158 E40.1328
G1 X206.73 Y94.947 E40.16705
G1 X206.596 Y95.73 E40.20155
G1 X204.384 Y103.521 E40.55309
G1 X204.167 Y104.097 E40.57984
G1 X203.868 Y104.631 E40.6064
G1 X199.624 Y110.911 E40.93541
G1 X199.394 Y111.215 E40.95199
G1 X199.095 Y111.538 E40.97107
G1 X194.278 Y116.154 E41.26066
G1 X193.848 Y116.512 E41.28497
G1 X189.897 Y119.369 E41.49665
G1 X189.602 Y119.564 E41.51198
G1 X187.875 Y120.594 E41.59926
G1 X181.586 Y124.151 E41.91289
G1 X181.111 Y124.376 E41.93573
G1 X180.606 Y124.54 E41.95874
G1 X172.305 Y126.575 E42.32974
G1 X171.966 Y126.737 E42.34607
G1 X171.804 Y126.863 E42.35501
G1 X171.53 Y127.13 E42.37159
G1 X170.91 Y127.556 E42.40424
G1 X170.476 Y127.76 E42.42506
G1 X169.681 Y127.972 E42.46077
G1 X168.487 Y128.154 E42.51324
G1 X167.915 Y128.196 E42.53813
G1 X167.44 Y128.161 E42.55877
G1 X167.083 Y128.089 E42.5746
G1 X166.489 Y127.892 E42.60175
G1 X166.015 Y127.643 E42.62502
