; HEADER_BLOCK_START
; generated by AnycubicSlicerNext 1.3.1 on 2026-02-10 at 02:34:12
; total layer number: 190
; filament_density: 1.24
; filament_diameter: 1.75
; max_z_height: 38.04
; HEADER_BLOCK_END

; THUMBNAIL_BLOCK_START

;
; THUMBNAIL_BLOCK_END

; external perimeters extrusion width = 0.42mm
; perimeters extrusion width = 0.45mm
; infill extrusion width = 0.45mm
; solid infill extrusion width = 0.42mm
; top infill extrusion width = 0.42mm
; first layer extrusion width = 0.50mm

; EXECUTABLE_BLOCK_START
M201 X2000 Y2000 Z800 E2000
M203 X300 Y300 Z8 E100
M204 P2000 R2000 T2000
M205 X10.00 Y10.00 Z2.00 E5.00 ; sets the jerk limits, mm/sec
;TYPE:Custom
G90 ; use absolute coordinates
M83 ; extruder relative mode
M104 S220 ; set extruder temp
M140 S60 ; set bed temp
M190 S60 ; wait for bed temp
M109 S220 ; wait for extruder temp
G28                                        ; move X/Y/Z to min endstops
G1 Z0.28                                   ; lift nozzle a bit 
G92 E0 
G1 Y3 F1800                                    ; zero the extruded length 
G1 X60  E25 F500                       ; Extrude 25mm of filament in a 5cm line. 
G92 E0                                     ; zero the extruded length again 
G1 E-2 F500                                ; Retract a little 
G1 X70 F4000                              ; Quickly wipe away from the filament line
M117
G90
G21
M82 ; use absolute distances for extrusion
G92 E0
; filament start gcode
M106 S0
;LAYER_CHANGE
;Z:0.24
;HEIGHT:0.24
; BEFORE_LAYER_CHANGE 0 @ 0.24mm
G1 E-2.5 F6000
G92 E0
; AFTER_LAYER_CHANGE 0 @ 0.24mm
;_SET_FAN_SPEED_CHANGING_LAYER
M204 P500
; printing object "Heartfinal.stl" id:54288383 copy 0
M204 T500
G1 X118.227 Y109.315 F18000
G1 Z.24
G1 E2.5 F6000
;TYPE:Brim
;WIDTH:0.5
G1 F3000
G1 X118.507 Y109.022 E2.51758
G1 X122.014 Y105.683 E2.72779
G1 X122.296 Y105.437 E2.74403
G1 X122.618 Y105.2 E2.76139
G1 X126.675 Y102.499 E2.97294
G1 X126.991 Y102.307 E2.98899
G1 X127.345 Y102.131 E3.00614
G1 X131.827 Y100.149 E3.21888
G1 X132.168 Y100.015 E3.23477
G1 X132.542 Y99.903 E3.25176
G1 X137.314 Y98.701 E3.46537
G1 X137.671 Y98.627 E3.48116
G1 X138.056 Y98.579 E3.49804
G1 X142.973 Y98.193 E3.71212
G1 X143.34 Y98.18 E3.72805
G1 X148.094 Y98.207 E3.93443
G1 X149.873 Y98.233 E4.01166
G1 X154.794 Y98.676 E4.22614
G1 X155.155 Y98.724 E4.24195
G1 X155.535 Y98.806 E4.25883
G1 X160.293 Y100.063 E4.47244
G1 X160.643 Y100.172 E4.48834
G1 X161.005 Y100.318 E4.50532
G1 X165.464 Y102.351 E4.71806
G1 X165.794 Y102.519 E4.73411
G1 X166.13 Y102.727 E4.75126
G1 X170.155 Y105.475 E4.96281
G1 X170.454 Y105.699 E4.97905
G1 X170.753 Y105.965 E4.99641
G1 X174.222 Y109.344 E5.20662
G1 X174.481 Y109.62 E5.22308
G1 X174.733 Y109.938 E5.24065
G1 X177.539 Y113.845 E5.44948
G1 X177.762 Y114.189 E5.46727
G1 X177.943 Y114.528 E5.48394
G1 X180.002 Y118.845 E5.69157
G1 X180.163 Y119.227 E5.70956
G1 X180.281 Y119.596 E5.72639
G1 X181.531 Y124.192 E5.93312
G1 X181.621 Y124.599 E5.95122
G1 X181.672 Y124.986 E5.96817
G1 X181.756 Y125.977 E6.01134
G1 X181.816 Y126.112 E6.01775
G1 X181.959 Y126.181 E6.02466
G1 X183.135 Y126.288 E6.07588
G1 X183.519 Y126.34 E6.09272
G1 X183.874 Y126.418 E6.10852
G1 X188.632 Y127.675 E6.32215
G1 X188.982 Y127.783 E6.33805
G1 X189.345 Y127.93 E6.35502
G1 X193.804 Y129.963 E6.56777
G1 X194.134 Y130.131 E6.58381
G1 X194.47 Y130.339 E6.60096
G1 X198.495 Y133.087 E6.81252
G1 X198.794 Y133.311 E6.82876
G1 X199.093 Y133.577 E6.84612
G1 X202.561 Y136.956 E7.05632
G1 X202.821 Y137.232 E7.07278
G1 X203.072 Y137.55 E7.09036
G1 X205.879 Y141.457 E7.29919
G1 X206.102 Y141.801 E7.31699
G1 X206.283 Y142.14 E7.33365
G1 X208.342 Y146.457 E7.54128
G1 X208.502 Y146.839 E7.55926
G1 X208.621 Y147.208 E7.57609
G1 X209.871 Y151.804 E7.78283
G1 X209.961 Y152.211 E7.80093
G1 X210.011 Y152.598 E7.81787
G1 X210.414 Y157.333 E8.02414
G1 X210.43 Y157.728 E8.04131
G1 X210.396 Y163.663 E8.29897
G1 X210.376 Y164.059 E8.31615
G1 X209.918 Y168.802 E8.52301
G1 X209.863 Y169.189 E8.53997
G1 X209.768 Y169.595 E8.55808
G1 X208.465 Y174.176 E8.76481
G1 X208.342 Y174.544 E8.78164
G1 X208.178 Y174.924 E8.79962
G1 X206.069 Y179.216 E9.00724
G1 X205.871 Y179.576 E9.02504
G1 X205.657 Y179.894 E9.0417
G1 X202.806 Y183.769 E9.25054
G1 X202.551 Y184.084 E9.26812
G1 X202.288 Y184.357 E9.28458
G1 X198.78 Y187.696 E9.4948
G1 X198.498 Y187.942 E9.51104
G1 X198.176 Y188.179 E9.5284
G1 X194.12 Y190.881 E9.73994
G1 X193.782 Y191.084 E9.75709
G1 X193.45 Y191.248 E9.77314
G1 X188.968 Y193.23 E9.98589
G1 X188.627 Y193.364 E10.00178
G1 X188.252 Y193.477 E10.01877
G1 X183.481 Y194.679 E10.23237
G1 X183.1 Y194.757 E10.24924
G1 X182.738 Y194.8 E10.26504
G1 X177.822 Y195.186 E10.47913
G1 X177.454 Y195.199 E10.49508
G1 X120.783 Y194.866 E12.95516
G1 X119.854 Y194.792 E12.99562
G1 X119.217 Y194.696 E13.02356
G1 X118.479 Y194.539 E13.05629
G1 X117.86 Y194.367 E13.08419
G1 X116.98 Y194.054 E13.12473
G1 X116.294 Y193.751 E13.15728
G1 X115.719 Y193.453 E13.1854
G1 X115.077 Y193.067 E13.21791
G1 X114.314 Y192.527 E13.25849
G1 X113.812 Y192.115 E13.28671
G1 X113.264 Y191.604 E13.31921
G1 X112.816 Y191.129 E13.34757
G1 X112.338 Y190.552 E13.38008
G1 X111.798 Y189.789 E13.42066
G1 X111.46 Y189.227 E13.44914
G1 X111.117 Y188.563 E13.4816
G1 X110.926 Y188.137 E13.50182
G1 X110.688 Y187.52 E13.53053
G1 X110.543 Y187.076 E13.55081
G1 X110.352 Y186.353 E13.58328
G1 X110.258 Y185.894 E13.60362
G1 X110.16 Y185.239 E13.63235
G1 X110.115 Y184.775 E13.65261
G1 X110.086 Y184.026 E13.68512
G1 X110.399 Y129.716 E16.04271
G1 X110.419 Y129.321 E16.05988
G1 X110.877 Y124.578 E16.26672
G1 X110.937 Y124.164 E16.28485
G1 X111.026 Y123.785 E16.30179
G1 X112.329 Y119.204 E16.50853
G1 X112.462 Y118.811 E16.52651
G1 X112.617 Y118.456 E16.54334
G1 X114.726 Y114.163 E16.75097
G1 X114.924 Y113.804 E16.76877
G1 X115.138 Y113.485 E16.78543
G1 X117.989 Y109.61 E16.99428
G1 X118.202 Y109.346 E17.009
G1 X118.551 Y109.628 F18000
G1 F3000
G1 X118.568 Y109.607 E17.01018
G1 X118.826 Y109.337 E17.02637
G1 X122.314 Y106.016 E17.23543
G1 X122.581 Y105.784 E17.2508
G1 X122.878 Y105.566 E17.26678
G1 X126.913 Y102.879 E17.47721
G1 X127.203 Y102.703 E17.49193
G1 X127.538 Y102.536 E17.50819
G1 X131.997 Y100.564 E17.71982
G1 X132.32 Y100.438 E17.73487
G1 X132.665 Y100.334 E17.7505
G1 X137.412 Y99.139 E17.96301
G1 X137.738 Y99.071 E17.97749
G1 X138.104 Y99.025 E17.9935
G1 X143.002 Y98.641 E18.20673
G1 X143.349 Y98.628 E18.22184
G1 X148.089 Y98.655 E18.42758
G1 X149.855 Y98.682 E18.50423
G1 X154.742 Y99.121 E18.71722
G1 X155.072 Y99.165 E18.73171
G1 X155.433 Y99.243 E18.74773
G1 X160.166 Y100.494 E18.96024
G1 X160.487 Y100.593 E18.97481
G1 X160.831 Y100.731 E18.99092
G1 X165.267 Y102.754 E19.20255
G1 X165.579 Y102.913 E19.21774
G1 X165.888 Y103.105 E19.23353
G1 X169.892 Y105.838 E19.44396
G1 X170.166 Y106.044 E19.45884
G1 X170.45 Y106.295 E19.47532
G1 X173.9 Y109.656 E19.68438
G1 X174.145 Y109.918 E19.69996
G1 X174.376 Y110.211 E19.71615
G1 X177.167 Y114.096 E19.92378
G1 X177.378 Y114.422 E19.94067
G1 X177.544 Y114.733 E19.95594
G1 X179.592 Y119.026 E20.16241
G1 X179.743 Y119.388 E20.17948
G1 X179.852 Y119.727 E20.19489
G1 X181.095 Y124.296 E20.40045
G1 X181.178 Y124.671 E20.41712
G1 X181.225 Y125.031 E20.43289
G1 X181.308 Y126.004 E20.47527
G1 X181.401 Y126.282 E20.48801
G1 X181.517 Y126.442 E20.49658
G1 X181.757 Y126.581 E20.50861
G1 X181.931 Y126.629 E20.51646
G1 X183.087 Y126.734 E20.56685
G1 X183.435 Y126.781 E20.58209
G1 X183.766 Y126.853 E20.5968
G1 X188.506 Y128.105 E20.8096
G1 X188.827 Y128.205 E20.82418
G1 X189.171 Y128.343 E20.84028
G1 X193.607 Y130.366 E21.05191
G1 X193.918 Y130.525 E21.0671
G1 X194.228 Y130.716 E21.08289
G1 X198.231 Y133.45 E21.29333
G1 X198.515 Y133.663 E21.3087
G1 X198.79 Y133.907 E21.32468
G1 X202.239 Y137.268 E21.53375
G1 X202.485 Y137.53 E21.54932
G1 X202.716 Y137.822 E21.56551
G1 X205.507 Y141.708 E21.77315
G1 X205.712 Y142.024 E21.78953
G1 X205.883 Y142.345 E21.8053
G1 X207.931 Y146.637 E22.01177
G1 X208.083 Y147 E22.02883
G1 X208.192 Y147.338 E22.04426
G1 X209.434 Y151.908 E22.24982
G1 X209.517 Y152.283 E22.26648
G1 X209.565 Y152.643 E22.28226
G1 X209.966 Y157.357 E22.48764
G1 X209.981 Y157.732 E22.50393
G1 X209.948 Y163.647 E22.76071
G1 X209.928 Y164.029 E22.77727
G1 X209.473 Y168.746 E22.98298
G1 X209.42 Y169.112 E22.99904
G1 X209.333 Y169.486 E23.01571
G1 X208.037 Y174.04 E23.22127
G1 X207.921 Y174.389 E23.2372
G1 X207.769 Y174.738 E23.25375
G1 X205.672 Y179.006 E23.46017
G1 X205.49 Y179.337 E23.47656
G1 X205.288 Y179.639 E23.49233
G1 X202.452 Y183.493 E23.70002
G1 X202.218 Y183.782 E23.7162
G1 X201.969 Y184.041 E23.73178
G1 X198.48 Y187.363 E23.94089
G1 X198.213 Y187.595 E23.95626
G1 X197.916 Y187.813 E23.97225
G1 X193.883 Y190.5 E24.18263
G1 X193.571 Y190.688 E24.19842
G1 X193.263 Y190.841 E24.21336
G1 X188.798 Y192.815 E24.42528
G1 X188.475 Y192.941 E24.44033
G1 X188.13 Y193.045 E24.45596
G1 X183.384 Y194.241 E24.66843
G1 X183.033 Y194.312 E24.68397
G1 X182.691 Y194.354 E24.69892
G1 X177.793 Y194.738 E24.91219
G1 X177.445 Y194.751 E24.92732
G1 X120.807 Y194.417 E27.38593
G1 X119.909 Y194.346 E27.42502
G1 X119.301 Y194.255 E27.45171
G1 X118.591 Y194.104 E27.48324
G1 X118 Y193.94 E27.50983
G1 X117.151 Y193.639 E27.54896
G1 X116.492 Y193.348 E27.58021
G1 X115.935 Y193.059 E27.60748
G1 X115.327 Y192.694 E27.63824
G1 X114.59 Y192.173 E27.67741
G1 X114.11 Y191.78 E27.70434
G1 X113.584 Y191.289 E27.7356
G1 X113.149 Y190.828 E27.76309
G1 X112.691 Y190.275 E27.79426
G1 X112.177 Y189.547 E27.83294
G1 X111.85 Y189.004 E27.86047
G1 X111.523 Y188.371 E27.8914
G1 X111.339 Y187.962 E27.91087
G1 X111.11 Y187.367 E27.93856
G1 X110.973 Y186.945 E27.95779
G1 X110.788 Y186.247 E27.98915
G1 X110.699 Y185.812 E28.00841
G1 X110.605 Y185.181 E28.03611
G1 X110.563 Y184.741 E28.05531
G1 X110.535 Y184.016 E28.0868
G1 X110.847 Y129.731 E30.44325
G1 X110.866 Y129.351 E30.4598
G1 X111.322 Y124.635 E30.66546
G1 X111.377 Y124.254 E30.68215
G1 X111.461 Y123.895 E30.69819
G1 X112.757 Y119.34 E30.90374
G1 X112.883 Y118.967 E30.92081
G1 X113.025 Y118.642 E30.93623
G1 X115.122 Y114.373 E31.1427
G1 X115.305 Y114.042 E31.15908
G1 X115.506 Y113.74 E31.17486
G1 X118.343 Y109.886 E31.38259
G1 X118.526 Y109.659 E31.39525
G1 X118.875 Y109.941 F18000
G1 F3000
G1 X118.909 Y109.899 E31.39761
G1 X119.145 Y109.653 E31.41241
G1 X122.614 Y106.35 E31.62033
G1 X122.866 Y106.131 E31.63483
G1 X123.138 Y105.932 E31.64946
G1 X127.424 Y103.094 E31.87261
G1 X127.732 Y102.941 E31.88752
G1 X132.167 Y100.979 E32.09801
G1 X132.471 Y100.861 E32.1122
G1 X132.787 Y100.766 E32.12652
G1 X137.801 Y99.516 E32.35084
G1 X138.153 Y99.471 E32.36622
G1 X143.03 Y99.089 E32.57858
G1 X143.359 Y99.077 E32.59287
G1 X148.084 Y99.104 E32.79797
G1 X149.836 Y99.13 E32.87406
G1 X155.001 Y99.608 E33.0992
G1 X155.332 Y99.68 E33.11389
G1 X160.342 Y101.018 E33.33899
G1 X160.657 Y101.145 E33.35375
G1 X165.069 Y103.157 E33.56425
G1 X165.354 Y103.302 E33.5781
G1 X165.646 Y103.483 E33.59303
G1 X169.874 Y106.385 E33.81562
G1 X170.147 Y106.626 E33.83144
G1 X173.577 Y109.968 E34.03934
G1 X173.809 Y110.216 E34.05404
G1 X174.02 Y110.483 E34.06884
G1 X176.794 Y114.346 E34.27528
G1 X176.994 Y114.655 E34.29126
G1 X177.144 Y114.937 E34.30515
G1 X179.181 Y119.206 E34.51044
G1 X179.324 Y119.549 E34.52659
G1 X179.422 Y119.857 E34.54061
G1 X180.66 Y124.407 E34.74528
G1 X180.734 Y124.743 E34.76024
G1 X180.779 Y125.076 E34.77484
G1 X180.861 Y126.034 E34.81656
G1 X180.885 Y126.153 E34.82185
G1 X180.972 Y126.414 E34.83379
G1 X181.044 Y126.554 E34.8406
G1 X181.146 Y126.694 E34.84812
G1 X181.305 Y126.837 E34.85741
G1 X181.521 Y126.962 E34.86824
G1 X181.804 Y127.059 E34.88121
G1 X183.035 Y127.179 E34.93492
G1 X183.664 Y127.29 E34.96265
G1 X188.682 Y128.63 E35.18808
G1 X188.997 Y128.757 E35.20284
G1 X193.409 Y130.769 E35.41334
G1 X193.703 Y130.919 E35.42766
G1 X193.986 Y131.094 E35.4421
G1 X197.968 Y133.813 E35.65141
G1 X198.235 Y134.014 E35.66591
G1 X198.486 Y134.238 E35.68052
G1 X201.917 Y137.58 E35.88844
G1 X202.148 Y137.827 E35.90314
G1 X202.36 Y138.095 E35.91794
G1 X205.134 Y141.958 E36.1244
G1 X205.322 Y142.247 E36.13938
G1 X205.484 Y142.55 E36.15426
G1 X207.52 Y146.818 E36.35954
G1 X207.664 Y147.161 E36.37568
G1 X207.762 Y147.469 E36.3897
G1 X208.998 Y152.012 E36.5941
G1 X209.074 Y152.355 E36.60934
G1 X209.119 Y152.688 E36.62394
G1 X209.518 Y157.382 E36.82844
G1 X209.532 Y157.737 E36.84384
G1 X209.499 Y163.632 E37.09973
G1 X209.48 Y163.999 E37.11568
G1 X209.028 Y168.689 E37.32023
G1 X208.978 Y169.035 E37.33538
G1 X208.898 Y169.376 E37.35062
G1 X207.61 Y173.905 E37.555
G1 X207.499 Y174.233 E37.57003
G1 X207.36 Y174.553 E37.58517
G1 X205.276 Y178.796 E37.79039
G1 X205.109 Y179.099 E37.80538
G1 X204.919 Y179.384 E37.82026
G1 X202.099 Y183.216 E38.02678
G1 X201.885 Y183.481 E38.04158
G1 X201.65 Y183.725 E38.05628
G1 X198.18 Y187.029 E38.26426
G1 X197.928 Y187.248 E38.27876
G1 X197.657 Y187.447 E38.29338
G1 X193.645 Y190.119 E38.50261
G1 X193.36 Y190.291 E38.51706
G1 X193.075 Y190.433 E38.53088
G1 X188.628 Y192.4 E38.74195
G1 X188.323 Y192.519 E38.75615
G1 X188.008 Y192.613 E38.77044
G1 X183.287 Y193.802 E38.98178
G1 X182.966 Y193.868 E38.99599
G1 X177.765 Y194.291 E39.22252
G1 X177.435 Y194.302 E39.23683
G1 X120.831 Y193.969 E41.69399
G1 X119.965 Y193.901 E41.7317
G1 X119.385 Y193.815 E41.75714
G1 X118.702 Y193.669 E41.78747
G1 X118.14 Y193.513 E41.81276
G1 X117.321 Y193.223 E41.85047
G1 X116.69 Y192.945 E41.88042
G1 X116.15 Y192.665 E41.90683
G1 X115.576 Y192.321 E41.93586
G1 X114.866 Y191.819 E41.97361
G1 X114.409 Y191.445 E41.99925
G1 X113.903 Y190.973 E42.02927
G1 X113.482 Y190.528 E42.05588
G1 X113.044 Y189.998 E42.08571
G1 X112.555 Y189.306 E42.12249
G1 X112.239 Y188.781 E42.14908
G1 X111.929 Y188.18 E42.17847
G1 X111.752 Y187.786 E42.1972
G1 X111.532 Y187.213 E42.22386
G1 X111.402 Y186.815 E42.24204
G1 X111.224 Y186.141 E42.27229
G1 X111.14 Y185.73 E42.29047
G1 X111.05 Y185.123 E42.31713
G1 X111.01 Y184.707 E42.33528
G1 X110.983 Y184.006 E42.36574
G1 X111.295 Y129.747 E44.72106
G1 X111.314 Y129.381 E44.73699
G1 X111.767 Y124.692 E44.94148
G1 X111.817 Y124.344 E44.95674
G1 X111.896 Y124.004 E44.97187
G1 X113.184 Y119.476 E45.17622
G1 X113.304 Y119.124 E45.19237
G1 X113.433 Y118.828 E45.20639
G1 X115.519 Y114.583 E45.4117
G1 X115.685 Y114.281 E45.42669
G1 X115.875 Y113.995 E45.44157
G1 X118.696 Y110.162 E45.64816
G1 X118.85 Y109.972 E45.65876
G1 X119.199 Y110.255 F18000
G1 F3000
G1 X119.25 Y110.192 E45.66229
G1 X119.464 Y109.968 E45.67573
G1 X122.914 Y106.684 E45.88249
G1 X123.151 Y106.478 E45.89612
G1 X123.397 Y106.298 E45.90937
G1 X127.656 Y103.479 E46.13108
G1 X127.926 Y103.345 E46.14413
G1 X132.623 Y101.284 E46.36679
G1 X132.909 Y101.198 E46.37976
G1 X137.876 Y99.959 E46.602
G1 X138.202 Y99.917 E46.61624
G1 X143.053 Y99.537 E46.82746
G1 X148.078 Y99.552 E47.04561
G1 X149.818 Y99.579 E47.12112
G1 X154.94 Y100.054 E47.34445
G1 X155.229 Y100.117 E47.35729
G1 X160.207 Y101.447 E47.58096
G1 X160.484 Y101.559 E47.59388
G1 X165.138 Y103.696 E47.81622
G1 X165.404 Y103.86 E47.82979
G1 X169.591 Y106.735 E48.05023
G1 X169.844 Y106.957 E48.06488
G1 X173.255 Y110.28 E48.27157
G1 X173.465 Y110.504 E48.2849
G1 X173.664 Y110.756 E48.29881
G1 X176.422 Y114.596 E48.50406
G1 X176.612 Y114.892 E48.51935
G1 X178.77 Y119.386 E48.73572
G1 X178.901 Y119.699 E48.75045
G1 X180.225 Y124.517 E48.96736
G1 X180.291 Y124.816 E48.98065
G1 X180.333 Y125.122 E48.99406
G1 X180.413 Y126.066 E49.03516
G1 X180.445 Y126.238 E49.04279
G1 X180.545 Y126.549 E49.05696
G1 X180.641 Y126.75 E49.06664
G1 X180.854 Y127.034 E49.08202
G1 X181.09 Y127.231 E49.0954
G1 X181.286 Y127.345 E49.10524
G1 X181.653 Y127.481 E49.12223
G1 X182.969 Y127.624 E49.17967
G1 X183.573 Y127.73 E49.20629
G1 X188.532 Y129.054 E49.42908
G1 X193.211 Y131.171 E49.65202
G1 X193.744 Y131.472 E49.67858
G1 X197.704 Y134.176 E49.88674
G1 X197.946 Y134.358 E49.89989
G1 X198.183 Y134.568 E49.91363
G1 X201.594 Y137.892 E50.1204
G1 X201.812 Y138.125 E50.13421
G1 X202.003 Y138.367 E50.14763
G1 X204.762 Y142.209 E50.35293
G1 X204.933 Y142.471 E50.36652
G1 X205.085 Y142.755 E50.3805
