; HEADER_BLOCK_START
; generated by AnycubicSlicerNext 1.3.1 on 2026-02-11 at 11:21:20
; total layer number: 51
; filament_density: 1.24
; filament_diameter: 1.75
; max_z_height: 10.24
; HEADER_BLOCK_END

; THUMBNAIL_BLOCK_START

;
; THUMBNAIL_BLOCK_END

; external perimeters extrusion width = 0.42mm
; perimeters extrusion width = 0.45mm
; infill extrusion width = 0.45mm
; solid infill extrusion width = 0.42mm
; top infill extrusion width = 0.42mm
; first layer extrusion width = 0.50mm

; external perimeters extrusion width = 0.42mm
; perimeters extrusion width = 0.45mm
; infill extrusion width = 0.45mm
; solid infill extrusion width = 0.42mm
; top infill extrusion width = 0.42mm
; first layer extrusion width = 0.50mm

; external perimeters extrusion width = 0.42mm
; perimeters extrusion width = 0.45mm
; infill extrusion width = 0.45mm
; solid infill extrusion width = 0.42mm
; top infill extrusion width = 0.42mm
; first layer extrusion width = 0.50mm

; external perimeters extrusion width = 0.42mm
; perimeters extrusion width = 0.45mm
; infill extrusion width = 0.45mm
; solid infill extrusion width = 0.42mm
; top infill extrusion width = 0.42mm
; first layer extrusion width = 0.50mm

; external perimeters extrusion width = 0.42mm
; perimeters extrusion width = 0.45mm
; infill extrusion width = 0.45mm
; solid infill extrusion width = 0.42mm
; top infill extrusion width = 0.42mm
; first layer extrusion width = 0.50mm

; external perimeters extrusion width = 0.42mm
; perimeters extrusion width = 0.45mm
; infill extrusion width = 0.45mm
; solid infill extrusion width = 0.42mm
; top infill extrusion width = 0.42mm
; first layer extrusion width = 0.50mm

; EXECUTABLE_BLOCK_START
M201 X2000 Y2000 Z800 E2000
M203 X300 Y300 Z8 E100
M204 P2000 R2000 T2000
M205 X10.00 Y10.00 Z2.00 E5.00 ; sets the jerk limits, mm/sec
;TYPE:Custom
G90 ; use absolute coordinates
M83 ; extruder relative mode
M104 S220 ; set extruder temp
M140 S60 ; set bed temp
M190 S60 ; wait for bed temp
M109 S220 ; wait for extruder temp
G28                                        ; move X/Y/Z to min endstops
G1 Z0.28                                   ; lift nozzle a bit 
G92 E0 
G1 Y3 F1800                                    ; zero the extruded length 
G1 X60  E25 F500                       ; Extrude 25mm of filament in a 5cm line. 
G92 E0                                     ; zero the extruded length again 
G1 E-2 F500                                ; Retract a little 
G1 X70 F4000                              ; Quickly wipe away from the filament line
M117
G90
G21
M82 ; use absolute distances for extrusion
G92 E0
; filament start gcode
M106 S0
;LAYER_CHANGE
;Z:0.24
;HEIGHT:0.24
; BEFORE_LAYER_CHANGE 0 @ 0.24mm
G1 E-2.5 F6000
G92 E0
; AFTER_LAYER_CHANGE 0 @ 0.24mm
;_SET_FAN_SPEED_CHANGING_LAYER
M204 P500
; printing object "Wheel Hub Front 1.stl" id:1628582260224 copy 0
M204 T500
G1 X126.882 Y81.064 F18000
G1 Z.24
G1 E2.5 F6000
;TYPE:Brim
;WIDTH:0.5
G1 F3000
G1 X127.246 Y80.536 E2.52787
G1 X127.858 Y79.812 E2.569
G1 X128.319 Y79.363 E2.59693
G1 X128.575 Y79.142 E2.6116
G1 X129.329 Y78.589 E2.65222
G1 X129.628 Y78.403 E2.66751
G1 X130.196 Y78.098 E2.6955
G1 X131.068 Y77.733 E2.73654
G1 X131.683 Y77.544 E2.76446
G1 X132.311 Y77.403 E2.7924
G1 X132.648 Y77.349 E2.80722
G1 X133.289 Y77.285 E2.83519
G1 X133.772 Y77.269 E2.85615
G1 X154.399 Y77.273 E3.75155
G1 X155.309 Y77.344 E3.79117
G1 X155.957 Y77.457 E3.81972
G1 X156.579 Y77.618 E3.84762
G1 X157.188 Y77.829 E3.87559
G1 X157.778 Y78.086 E3.9035
G1 X158.346 Y78.389 E3.93144
G1 X158.888 Y78.736 E3.95938
G1 X159.401 Y79.124 E3.9873
G1 X159.882 Y79.552 E4.01526
G1 X160.327 Y80.016 E4.04315
G1 X160.735 Y80.514 E4.07114
G1 X161.102 Y81.042 E4.09901
G1 X161.427 Y81.599 E4.12702
G1 X161.706 Y82.177 E4.15487
G1 X161.938 Y82.775 E4.18274
G1 X162.189 Y83.66 E4.22264
G1 X162.347 Y84.424 E4.25651
G1 X162.547 Y85.779 E4.31597
G1 X162.628 Y86.741 E4.35787
G1 X162.656 Y88.111 E4.41736
G1 X162.616 Y89.075 E4.45927
G1 X162.474 Y90.438 E4.51874
G1 X162.314 Y91.388 E4.56054
G1 X162.129 Y92.224 E4.59772
G1 X161.845 Y93.12 E4.63853
G1 X161.592 Y93.711 E4.66642
G1 X161.293 Y94.281 E4.69439
G1 X161.116 Y94.573 E4.70921
G1 X160.75 Y95.104 E4.73717
G1 X160.345 Y95.602 E4.76507
G1 X159.679 Y96.274 E4.80614
G1 X159.186 Y96.684 E4.83397
G1 X158.659 Y97.055 E4.86193
G1 X158.105 Y97.384 E4.88991
G1 X157.804 Y97.539 E4.90462
G1 X156.929 Y97.905 E4.94576
G1 X156.315 Y98.094 E4.97368
G1 X155.686 Y98.235 E5.00162
G1 X155.349 Y98.289 E5.01644
G1 X154.708 Y98.352 E5.04441
G1 X154.226 Y98.369 E5.06537
G1 X133.78 Y98.369 E5.95288
G1 X132.972 Y98.327 E5.98799
G1 X132.038 Y98.18 E6.02904
G1 X131.417 Y98.019 E6.05692
G1 X131.094 Y97.914 E6.07165
G1 X130.218 Y97.551 E6.11279
G1 X129.652 Y97.249 E6.14065
G1 X129.108 Y96.901 E6.16868
G1 X128.835 Y96.702 E6.18336
G1 X128.114 Y96.084 E6.22455
G1 X127.669 Y95.621 E6.25244
G1 X127.45 Y95.363 E6.26715
G1 X126.894 Y94.593 E6.30837
G1 X126.717 Y94.303 E6.32311
G1 X126.417 Y93.735 E6.35099
G1 X126.059 Y92.86 E6.39201
G1 X125.809 Y91.978 E6.43182
G1 X125.651 Y91.215 E6.46566
G1 X125.525 Y90.447 E6.49945
G1 X125.431 Y89.674 E6.53322
G1 X125.37 Y88.898 E6.56703
G1 X125.341 Y87.526 E6.62657
G1 X125.37 Y86.748 E6.6604
G1 X125.431 Y85.972 E6.69417
G1 X125.551 Y85.016 E6.73601
G1 X125.684 Y84.25 E6.76976
G1 X125.806 Y83.669 E6.7955
G1 X125.948 Y83.125 E6.81993
G1 X126.153 Y82.518 E6.84774
G1 X126.281 Y82.203 E6.86247
G1 X126.706 Y81.355 E6.90368
G1 X126.861 Y81.099 E6.91667
G1 X127.245 Y81.33 F18000
G1 F3000
G1 X127.261 Y81.305 E6.91799
G1 X127.607 Y80.804 E6.94443
G1 X128.182 Y80.123 E6.98309
G1 X128.619 Y79.697 E7.0096
G1 X128.859 Y79.49 E7.02332
G1 X129.576 Y78.964 E7.06196
G1 X129.849 Y78.794 E7.07593
G1 X130.395 Y78.5 E7.10283
G1 X131.215 Y78.158 E7.14141
G1 X131.793 Y77.979 E7.16767
G1 X132.697 Y77.796 E7.20769
G1 X133.324 Y77.733 E7.23504
G1 X133.782 Y77.718 E7.25494
G1 X154.377 Y77.721 E8.14892
G1 X155.247 Y77.789 E8.1868
G1 X155.857 Y77.895 E8.21369
G1 X156.444 Y78.047 E8.24004
G1 X157.02 Y78.245 E8.26648
G1 X157.577 Y78.488 E8.29285
G1 X158.114 Y78.774 E8.31926
G1 X158.627 Y79.101 E8.34566
G1 X159.111 Y79.468 E8.37204
G1 X159.567 Y79.872 E8.39846
G1 X159.987 Y80.31 E8.42481
G1 X160.374 Y80.781 E8.45127
G1 X160.726 Y81.288 E8.47806
G1 X161.033 Y81.815 E8.50453
G1 X161.296 Y82.361 E8.53085
G1 X161.514 Y82.924 E8.55708
G1 X161.754 Y83.771 E8.59529
G1 X161.906 Y84.506 E8.62785
G1 X162.101 Y85.834 E8.68614
G1 X162.18 Y86.768 E8.72682
G1 X162.208 Y88.102 E8.78473
G1 X162.168 Y89.047 E8.82579
G1 X162.03 Y90.373 E8.88367
G1 X161.874 Y91.299 E8.9244
G1 X161.697 Y92.101 E8.96009
G1 X161.426 Y92.957 E8.99907
G1 X161.189 Y93.513 E9.0253
G1 X160.744 Y94.322 E9.06535
G1 X160.394 Y94.83 E9.09214
G1 X160.006 Y95.307 E9.11883
G1 X159.38 Y95.939 E9.15744
G1 X158.909 Y96.331 E9.18407
G1 X158.408 Y96.683 E9.21061
G1 X157.609 Y97.134 E9.25045
G1 X156.77 Y97.485 E9.28992
G1 X156.194 Y97.662 E9.31607
G1 X155.606 Y97.793 E9.34225
G1 X154.674 Y97.905 E9.38298
G1 X154.216 Y97.92 E9.40289
G1 X133.795 Y97.92 E10.28932
G1 X133.026 Y97.881 E10.32275
G1 X132.121 Y97.738 E10.36254
G1 X131.244 Y97.491 E10.40207
G1 X130.404 Y97.142 E10.44154
G1 X129.874 Y96.859 E10.46763
G1 X129.365 Y96.533 E10.49389
G1 X129.109 Y96.346 E10.50762
G1 X128.428 Y95.762 E10.54658
G1 X128.005 Y95.323 E10.57304
G1 X127.8 Y95.081 E10.5868
G1 X127.271 Y94.349 E10.62603
G1 X127.11 Y94.085 E10.63946
G1 X126.822 Y93.538 E10.66626
G1 X126.486 Y92.721 E10.70462
G1 X126.246 Y91.876 E10.74274
G1 X126.091 Y91.13 E10.77581
G1 X125.969 Y90.381 E10.80879
G1 X125.878 Y89.633 E10.8415
G1 X125.818 Y88.872 E10.87463
G1 X125.79 Y87.534 E10.93271
G1 X125.818 Y86.776 E10.96562
G1 X125.877 Y86.015 E10.99878
G1 X125.994 Y85.085 E11.03945
G1 X126.124 Y84.337 E11.07241
G1 X126.242 Y83.775 E11.09732
G1 X126.377 Y83.258 E11.12054
G1 X126.575 Y82.67 E11.14745
G1 X126.692 Y82.384 E11.16088
G1 X127.097 Y81.576 E11.20009
G1 X127.224 Y81.365 E11.21082
G1 X127.609 Y81.596 F18000
G1 F3000
G1 X127.64 Y81.545 E11.21343
G1 X127.968 Y81.072 E11.23843
G1 X128.506 Y80.434 E11.27466
G1 X128.919 Y80.03 E11.29972
G1 X129.142 Y79.839 E11.31249
G1 X129.824 Y79.338 E11.34918
G1 X130.07 Y79.184 E11.36181
G1 X130.594 Y78.903 E11.38761
G1 X131.362 Y78.582 E11.42375
G1 X131.898 Y78.416 E11.44809
G1 X132.757 Y78.241 E11.48616
G1 X133.358 Y78.181 E11.51236
G1 X133.792 Y78.166 E11.5312
G1 X154.354 Y78.17 E12.42378
G1 X155.184 Y78.234 E12.45993
G1 X155.757 Y78.333 E12.48515
G1 X156.31 Y78.475 E12.50996
G1 X156.852 Y78.662 E12.53486
G1 X157.377 Y78.89 E12.55969
G1 X157.883 Y79.159 E12.58456
G1 X158.366 Y79.467 E12.60942
G1 X158.831 Y79.818 E12.63472
G1 X159.259 Y80.199 E12.65961
G1 X159.655 Y80.612 E12.68443
G1 X160.019 Y81.056 E12.70934
G1 X160.35 Y81.534 E12.73458
G1 X160.639 Y82.03 E12.7595
G1 X160.886 Y82.544 E12.78428
G1 X161.09 Y83.073 E12.80887
G1 X161.319 Y83.882 E12.8454
G1 X161.465 Y84.588 E12.87665
G1 X161.656 Y85.89 E12.93379
G1 X161.732 Y86.796 E12.97325
G1 X161.759 Y88.093 E13.02958
G1 X161.72 Y89.018 E13.06978
G1 X161.586 Y90.309 E13.12609
G1 X161.435 Y91.21 E13.16575
G1 X161.265 Y91.979 E13.19996
G1 X161.007 Y92.795 E13.2371
G1 X160.788 Y93.31 E13.26141
G1 X160.365 Y94.08 E13.29951
G1 X160.038 Y94.556 E13.3246
G1 X159.667 Y95.011 E13.35008
G1 X159.081 Y95.603 E13.38623
G1 X158.631 Y95.978 E13.41165
G1 X158.163 Y96.307 E13.4365
G1 X157.405 Y96.734 E13.47427
G1 X156.611 Y97.064 E13.51157
G1 X156.084 Y97.226 E13.5355
G1 X155.537 Y97.349 E13.55987
G1 X154.634 Y97.457 E13.59933
G1 X154.206 Y97.472 E13.61792
G1 X133.81 Y97.472 E14.50328
G1 X133.08 Y97.435 E14.53503
G1 X132.225 Y97.3 E14.5726
G1 X131.399 Y97.069 E14.60981
G1 X130.603 Y96.739 E14.64724
G1 X130.097 Y96.469 E14.67213
G1 X129.392 Y95.997 E14.70893
G1 X128.732 Y95.431 E14.7467
G1 X128.157 Y94.808 E14.78349
G1 X127.648 Y94.104 E14.8212
G1 X127.502 Y93.867 E14.83331
G1 X127.226 Y93.342 E14.85902
G1 X126.914 Y92.581 E14.89475
G1 X126.683 Y91.774 E14.93118
G1 X126.532 Y91.046 E14.96346
G1 X126.413 Y90.315 E14.99562
G1 X126.324 Y89.585 E15.02751
G1 X126.266 Y88.845 E15.05973
G1 X126.239 Y87.541 E15.11636
G1 X126.265 Y86.805 E15.14835
G1 X126.324 Y86.057 E15.1809
G1 X126.437 Y85.154 E15.22038
G1 X126.564 Y84.424 E15.25257
G1 X126.805 Y83.394 E15.29849
G1 X126.997 Y82.823 E15.32464
G1 X127.103 Y82.565 E15.33675
G1 X127.487 Y81.798 E15.37399
G1 X127.588 Y81.631 E15.38246
G1 X127.973 Y81.862 F18000
G1 F3000
G1 X128.014 Y81.792 E15.38597
G1 X128.329 Y81.34 E15.40989
G1 X128.831 Y80.745 E15.44371
G1 X129.22 Y80.364 E15.46731
G1 X129.426 Y80.187 E15.47912
G1 X130.071 Y79.713 E15.51388
G1 X130.299 Y79.57 E15.52555
G1 X130.793 Y79.306 E15.54986
G1 X131.51 Y79.007 E15.58357
G1 X132.003 Y78.853 E15.606
G1 X132.818 Y78.686 E15.6421
G1 X133.392 Y78.628 E15.66716
G1 X133.801 Y78.615 E15.68493
G1 X154.331 Y78.618 E16.57611
G1 X155.122 Y78.679 E16.61055
G1 X155.657 Y78.771 E16.6341
G1 X156.176 Y78.904 E16.65735
G1 X156.685 Y79.078 E16.68071
G1 X157.177 Y79.292 E16.70401
G1 X157.652 Y79.544 E16.72734
G1 X158.105 Y79.832 E16.75066
G1 X158.542 Y80.162 E16.7744
G1 X158.944 Y80.519 E16.79775
G1 X159.323 Y80.914 E16.82149
G1 X159.663 Y81.33 E16.84486
G1 X159.974 Y81.779 E16.86855
G1 X160.245 Y82.245 E16.89193
G1 X160.476 Y82.727 E16.91516
G1 X160.666 Y83.221 E16.93811
G1 X160.884 Y83.994 E16.97297
G1 X161.023 Y84.669 E17.00292
G1 X161.211 Y85.945 E17.0589
G1 X161.283 Y86.823 E17.09715
G1 X161.31 Y88.084 E17.1519
G1 X161.272 Y88.99 E17.19124
G1 X161.141 Y90.244 E17.24597
G1 X160.995 Y91.121 E17.28456
G1 X160.832 Y91.857 E17.3173
G1 X160.588 Y92.633 E17.35261
G1 X160.386 Y93.108 E17.375
G1 X159.986 Y93.839 E17.41116
G1 X159.682 Y94.283 E17.43452
G1 X159.329 Y94.716 E17.45879
G1 X158.782 Y95.268 E17.4925
G1 X158.363 Y95.618 E17.51622
G1 X157.917 Y95.93 E17.53983
G1 X157.2 Y96.333 E17.57554
G1 X156.453 Y96.644 E17.61068
G1 X155.964 Y96.793 E17.63286
G1 X155.467 Y96.905 E17.65497
G1 X154.594 Y97.01 E17.69314
G1 X154.196 Y97.023 E17.71042
G1 X133.825 Y97.023 E18.59471
G1 X133.133 Y96.988 E18.62478
G1 X132.328 Y96.863 E18.66014
G1 X131.554 Y96.646 E18.69504
G1 X130.801 Y96.335 E18.73042
G1 X130.322 Y96.08 E18.75396
G1 X129.657 Y95.634 E18.7887
G1 X129.038 Y95.102 E18.82416
G1 X128.5 Y94.517 E18.85865
G1 X128.024 Y93.86 E18.89387
G1 X127.89 Y93.641 E18.90502
G1 X127.63 Y93.146 E18.92927
G1 X127.341 Y92.441 E18.96238
G1 X127.12 Y91.671 E18.99712
G1 X126.973 Y90.961 E19.02861
G1 X126.857 Y90.254 E19.05969
G1 X126.771 Y89.543 E19.09077
G1 X126.714 Y88.819 E19.12231
G1 X126.688 Y87.541 E19.17783
G1 X126.713 Y86.827 E19.2088
G1 X126.77 Y86.106 E19.24023
G1 X126.882 Y85.218 E19.27908
G1 X127.004 Y84.509 E19.31028
G1 X127.24 Y83.508 E19.35492
G1 X127.514 Y82.746 E19.39009
G1 X127.878 Y82.019 E19.42538
G1 X127.952 Y81.896 E19.43162
G1 X128.329 Y82.148 F18000
G1 F3000
G1 X128.689 Y81.608 E19.45975
G1 X129.167 Y81.044 E19.49185
G1 X129.709 Y80.535 E19.52414
G1 X130.319 Y80.087 E19.55698
G1 X130.528 Y79.957 E19.56768
G1 X130.992 Y79.709 E19.59049
G1 X131.657 Y79.431 E19.62181
G1 X132.108 Y79.29 E19.64232
G1 X132.879 Y79.132 E19.67646
G1 X133.431 Y79.076 E19.70056
G1 X154.319 Y79.067 E20.60728
G1 X155.061 Y79.124 E20.63956
G1 X155.558 Y79.209 E20.66145
G1 X156.052 Y79.336 E20.68361
G1 X156.528 Y79.499 E20.70543
G1 X156.987 Y79.699 E20.72719
G1 X157.421 Y79.929 E20.74853
G1 X157.845 Y80.198 E20.7703
G1 X158.253 Y80.506 E20.79249
G1 X158.629 Y80.839 E20.81429
G1 X158.983 Y81.207 E20.83647
G1 X159.302 Y81.596 E20.85829
G1 X159.592 Y82.015 E20.88043
G1 X159.85 Y82.46 E20.90272
G1 X160.066 Y82.91 E20.92442
G1 X160.242 Y83.369 E20.94573
G1 X160.447 Y84.095 E20.97851
G1 X160.582 Y84.751 E21.00757
G1 X160.764 Y85.992 E21.06203
G1 X160.835 Y86.843 E21.09906
G1 X160.861 Y88.076 E21.1526
G1 X160.825 Y88.953 E21.19072
G1 X160.697 Y90.179 E21.24424
G1 X160.555 Y91.032 E21.28177
G1 X160.397 Y91.747 E21.31355
G1 X160.168 Y92.472 E21.34654
G1 X159.979 Y92.918 E21.36759
G1 X159.607 Y93.598 E21.40122
G1 X159.319 Y94.018 E21.42333
G1 X158.99 Y94.42 E21.44588
G1 X158.483 Y94.932 E21.47716
G1 X158.085 Y95.264 E21.49966
G1 X157.672 Y95.553 E21.52154
G1 X157.011 Y95.925 E21.55449
G1 X156.307 Y96.219 E21.5876
G1 X155.844 Y96.361 E21.60859
G1 X155.384 Y96.463 E21.62904
G1 X154.566 Y96.562 E21.66484
G1 X154.191 Y96.575 E21.68111
G1 X133.84 Y96.575 E22.56453
G1 X133.186 Y96.542 E22.59294
G1 X132.431 Y96.425 E22.6261
G1 X131.708 Y96.224 E22.65869
G1 X130.998 Y95.932 E22.69199
G1 X130.548 Y95.691 E22.71418
G1 X129.923 Y95.271 E22.74683
G1 X129.345 Y94.773 E22.77998
G1 X128.843 Y94.227 E22.81218
G1 X128.401 Y93.615 E22.84495
G1 X128.278 Y93.415 E22.85512
G1 X128.035 Y92.951 E22.87788
G1 X127.768 Y92.3 E22.9084
G1 X127.557 Y91.568 E22.94145
G1 X127.413 Y90.876 E22.97214
G1 X127.301 Y90.188 E23.0024
G1 X127.218 Y89.502 E23.03242
G1 X127.162 Y88.793 E23.06328
G1 X127.136 Y87.54 E23.11768
G1 X127.162 Y86.85 E23.14765
G1 X127.216 Y86.154 E23.17795
G1 X127.326 Y85.281 E23.21617
G1 X127.445 Y84.595 E23.24637
G1 X127.673 Y83.629 E23.28948
G1 X127.93 Y82.916 E23.32238
G1 X128.277 Y82.226 E23.3559
G1 X128.307 Y82.181 E23.35825
G1 X128.686 Y82.421 F18000
G1 F3000
G1 X128.939 Y82.022 E23.37875
G1 X129.288 Y81.577 E23.40331
G1 X129.865 Y80.993 E23.43893
G1 X130.32 Y80.629 E23.46425
G1 X130.788 Y80.326 E23.48843
G1 X131.326 Y80.048 E23.51474
G1 X131.871 Y79.83 E23.54021
G1 X132.576 Y79.64 E23.5719
G1 X133.172 Y79.548 E23.59808
G1 X133.79 Y79.512 E23.62493
G1 X154.204 Y79.512 E24.5111
G1 X154.954 Y79.563 E24.54371
G1 X155.473 Y79.648 E24.56654
G1 X156.096 Y79.819 E24.59461
G1 X156.645 Y80.036 E24.62023
G1 X157.266 Y80.36 E24.6506
G1 X157.783 Y80.709 E24.67771
G1 X158.318 Y81.166 E24.70825
G1 X158.791 Y81.675 E24.73843
G1 X159.202 Y82.242 E24.7688
G1 X159.511 Y82.783 E24.79586
G1 X159.81 Y83.497 E24.82946
G1 X160.009 Y84.193 E24.86088
G1 X160.225 Y85.329 E24.91107
G1 X160.32 Y86.048 E24.94257
G1 X160.409 Y87.369 E25.00006
G1 X160.409 Y88.251 E25.03831
G1 X160.336 Y89.424 E25.08936
G1 X160.224 Y90.312 E25.12818
G1 X159.973 Y91.583 E25.18444
G1 X159.604 Y92.653 E25.23358
G1 X159.189 Y93.414 E25.27119
