; HEADER_BLOCK_START
; generated by AnycubicSlicerNext 1.3.1 on 2026-02-06 at 13:05:42
; total layer number: 111
; filament_density: 1.24
; filament_diameter: 1.75
; max_z_height: 22.24
; HEADER_BLOCK_END

; THUMBNAIL_BLOCK_START

;
; THUMBNAIL_BLOCK_END

; external perimeters extrusion width = 0.42mm
; perimeters extrusion width = 0.45mm
; infill extrusion width = 0.45mm
; solid infill extrusion width = 0.42mm
; top infill extrusion width = 0.42mm
; support material extrusion width = 0.40mm
; first layer extrusion width = 0.50mm

; EXECUTABLE_BLOCK_START
M201 X2000 Y2000 Z800 E2000
M203 X300 Y300 Z8 E100
M204 P2000 R2000 T2000
M205 X10.00 Y10.00 Z2.00 E5.00 ; sets the jerk limits, mm/sec
;TYPE:Custom
G90 ; use absolute coordinates
M83 ; extruder relative mode
M104 S220 ; set extruder temp
M140 S60 ; set bed temp
M190 S60 ; wait for bed temp
M109 S220 ; wait for extruder temp
G28                                        ; move X/Y/Z to min endstops
G1 Z0.28                                   ; lift nozzle a bit 
G92 E0 
G1 Y3 F1800                                    ; zero the extruded length 
G1 X60  E25 F500                       ; Extrude 25mm of filament in a 5cm line. 
G92 E0                                     ; zero the extruded length again 
G1 E-2 F500                                ; Retract a little 
G1 X70 F4000                              ; Quickly wipe away from the filament line
M117
G90
G21
M82 ; use absolute distances for extrusion
G92 E0
; filament start gcode
M106 S0
;LAYER_CHANGE
;Z:0.24
;HEIGHT:0.24
; BEFORE_LAYER_CHANGE 0 @ 0.24mm
G1 E-2.5 F6000
G92 E0
; AFTER_LAYER_CHANGE 0 @ 0.24mm
;_SET_FAN_SPEED_CHANGING_LAYER
M204 P500
; printing object "locksysfinal.stl" id:0 copy 0
M204 T500
G1 X65.917 Y48.752 F18000
G1 Z.24
G1 E2.5 F6000
;TYPE:Support
;WIDTH:0.5
G1 F3000
G3 X67.427 Y53.172 I-1.275 J2.903 E2.72792
G3 X67.167 Y56.833 I-2.727 J1.645 E2.8977
G3 X67.056 Y59.581 I-2.805 J1.263 E3.02145
G3 X66.444 Y63.569 I-2.974 J1.585 E3.20922
G3 X68.689 Y67.356 I-.654 J2.947 E3.42337
G3 X68.524 Y70.345 I-8.48 J1.031 E3.55401
G3 X62.714 Y68.491 I-2.819 J-1.198 E3.94698
G3 X63.153 Y64.873 I6.1 J-1.095 E4.10754
G1 X63.643 Y64.161 E4.14507
G3 X61.723 Y59.838 I.841 J-2.962 E4.37925
G3 X61.895 Y56.081 I2.614 J-1.763 E4.55419
G3 X62.022 Y53.324 I2.896 J-1.248 E4.6782
G3 X65.852 Y48.735 I2.694 J-1.644 E5.01895
G1 E3.26895 F6000
;WIPE_START
G1 F3000
G1 X65.055 Y48.523 E2.65035
G1 X64.88 Y48.528 E2.51895
;WIPE_END
G92 E0
G1 X68.14 Y70.678 F18000
G1 E2.5 F6000
G1 F3000
G1 X68.14 Y65.448 E2.72699
G2 X67.642 Y64.709 I-1.451 J.441 E2.76626
G1 X67.642 Y70.951 E3.03718
G3 X67.144 Y71.362 I-.919 J-.607 E3.06564
G1 X67.144 Y64.298 E3.37226
G2 X66.645 Y64.031 I-.688 J.687 E3.39715
G1 X66.645 Y71.628 E3.72693
G3 X66.147 Y71.746 I-11.049 J-45.787 E3.74915
G1 X66.147 Y63.914 E4.08914
G1 X65.678 Y63.803 E4.11008
G1 X66.147 Y63.295 E4.14009
G1 X66.147 Y49.355 E4.74521
G2 X65.649 Y49.099 I-1.4 J2.105 E4.7696
G1 X65.649 Y71.776 E5.75398
G1 X65.15 Y71.742 E5.77566
G1 X65.15 Y48.966 E6.76434
G2 X64.652 Y48.939 I-.293 J.817 E6.78631
G1 X64.652 Y71.554 E7.76799
G3 X64.154 Y71.267 I.215 J-.949 E7.79333
G1 X64.154 Y48.973 E8.76109
G1 X63.656 Y49.14 E8.78391
G1 X63.656 Y63.733 E9.41737
G1 X63.157 Y63.537 E9.4406
G1 X63.157 Y49.407 E10.05397
G2 X62.659 Y49.853 I1.28 J1.933 E10.08309
G1 X62.659 Y63.146 E10.66012
G3 X62.161 Y62.507 I.785 J-1.126 E10.69583
G1 X62.161 Y54.043 E11.06325
G3 X62.465 Y53.324 I2.93 J.818 E11.09724
G1 X62.161 Y52.658 E11.12904
G1 X62.161 Y50.165 E11.23726
G1 X67.144 Y56.556 F18000
G1 F3000
G1 X67.144 Y50.481 E11.50095
G2 X66.645 Y49.762 I-1.448 J.471 E11.53947
G1 X66.645 Y63.054 E12.11648
G1 X63.655 Y71.131 F18000
G1 F3000
G1 X63.656 Y64.856 E12.3889
G1 X63.486 Y65.102 E12.40188
G2 X63.157 Y65.839 I1.024 J.899 E12.43744
G1 X63.157 Y70.437 E12.63702
G1 E10.88702 F6000
;WIPE_START
G1 F3000
G1 X63.157 Y69.437 E10.13702
;WIPE_END
G92 E0
G1 X61.662 Y59.328 F18000
G1 E2.5 F6000
G1 F3000
G1 X61.662 Y56.849 E2.6076
G1 E.8576 F6000
;WIPE_START
G1 F3000
G1 X61.662 Y57.849 E.1076
;WIPE_END
G92 E0
G1 X66.472 Y148.25 F18000
G1 E2.5 F6000
G1 F3000
G3 X68.726 Y150.641 I-.757 J2.971 E2.65053
G3 X68.313 Y152.875 I-3.18 J.567 E2.75132
G3 X62.841 Y152.252 I-2.799 J.237 E3.18254
G3 X66.407 Y148.234 I2.827 J-1.082 E3.46942
G1 X68.14 Y152.767 F18000
G1 F3000
G1 X68.14 Y150.121 E3.58429
G2 X67.642 Y149.383 I-1.45 J.441 E3.62354
G1 X67.642 Y154.182 E3.83188
G3 X67.144 Y154.838 I-1.186 J-.384 E3.86831
G1 X67.144 Y148.971 E4.12295
G2 X66.645 Y148.705 I-.688 J.685 E4.14785
G1 X66.645 Y155.206 E4.43007
G1 X66.147 Y155.412 E4.45346
G1 X66.147 Y148.589 E4.74963
G2 X65.649 Y148.559 I-.299 J.8 E4.77162
G1 X65.649 Y155.474 E5.0718
G3 X65.15 Y155.468 I-.24 J-.737 E5.09383
G1 X65.15 Y148.594 E5.39222
G2 X64.652 Y148.781 I.056 J.903 E5.41568
G1 X64.652 Y155.332 E5.70002
G3 X64.154 Y155.058 I.155 J-.873 E5.72514
G1 X64.154 Y149.068 E5.98516
G2 X63.655 Y149.53 I.497 J1.035 E6.01511
G1 X63.655 Y154.604 E6.23533
G3 X63.157 Y153.607 I1.225 J-1.235 E6.28456
G1 X63.157 Y149.899 E6.44552
G1 E4.69552 F6000
;WIPE_START
G1 F3000
G1 X63.157 Y150.899 E3.94552
;WIPE_END
G92 E0
G1 X63.893 Y156.283 F18000
G1 E2.5 F6000
G1 F3000
G3 X65.402 Y157.491 I-1.177 J3.018 E2.5852
G3 X67.064 Y162.532 I-.729 J3.034 E2.8607
G3 X68.357 Y166.964 I-1.437 J2.824 E3.08521
G3 X63.445 Y170.793 I-2.305 J2.108 E3.53254
G3 X61.11 Y165.898 I.217 J-3.108 E3.81815
G3 X60.784 Y163.363 I3.157 J-1.695 E3.93157
G3 X60.001 Y160.24 I2.433 J-2.27 E4.0775
G3 X63.826 Y156.276 I2.856 J-1.071 E4.37577
G1 X68.639 Y170.414 F18000
G1 F3000
G1 X68.639 Y168.188 E4.47239
G2 X68.14 Y167.327 I-1.684 J.399 E4.51619
G1 X68.14 Y170.799 E4.66689
G3 X67.642 Y171.272 I-1.037 J-.594 E4.69713
G1 X67.642 Y163.466 E5.03597
G2 X67.144 Y163.055 I-.933 J.625 E5.06441
G1 X67.144 Y171.577 E5.43434
G3 X66.645 Y171.714 I-.476 J-.762 E5.45709
G1 X66.645 Y158.654 E6.024
G2 X66.147 Y158.242 I-.936 J.625 E6.05247
G1 X66.147 Y171.782 E6.64024
G1 X65.649 Y171.766 E6.66189
G1 X65.649 Y157.973 E7.26059
G3 X65.15 Y157.813 I-.123 J-.471 E7.28458
G1 X65.15 Y171.634 E7.88455
G3 X64.652 Y171.399 I.339 J-1.365 E7.90862
G1 X64.652 Y157.272 E8.52189
G2 X64.154 Y156.9 I-.844 J.611 E8.5493
G1 X64.154 Y171.031 E9.16271
G3 X63.655 Y170.396 I6.5 J-5.615 E9.19775
G1 X63.655 Y156.665 E9.79379
G1 X63.157 Y156.616 E9.81552
G1 X63.157 Y170.37 E10.41258
G1 X62.659 Y170.203 E10.4354
G1 X62.659 Y156.567 E11.02733
G2 X62.161 Y156.608 I-.209 J.503 E11.04988
G1 X62.161 Y169.934 E11.62837
G3 X61.662 Y169.515 I.604 J-1.224 E11.6569
G1 X61.662 Y156.806 E12.20861
G2 X61.164 Y157.138 I.278 J.957 E12.23502
G1 X61.164 Y164.969 E12.57494
G2 X61.58 Y165.954 I4.018 J-1.117 E12.62146
G2 X61.164 Y166.624 I1.181 J1.197 E12.65602
G1 X61.164 Y169.193 E12.76753
G1 X68.14 Y166.95 F18000
G1 F3000
G1 X68.14 Y163.725 E12.90754
G1 X67.144 Y162.133 F18000
G1 F3000
G1 X67.144 Y158.916 E13.04715
G1 X60.666 Y162.918 F18000
G1 F3000
G1 X60.666 Y157.32 E13.29015
G1 E11.54015 F6000
;WIPE_START
G1 F3000
G1 X60.666 Y158.32 E10.79015
;WIPE_END
G92 E0
G1 X161.458 Y156.299 F18000
G1 E2.5 F6000
G1 F3000
G3 X163.257 Y159.822 I-1.284 J2.877 E2.68561
G3 X163.516 Y161.929 I-2.837 J1.418 E2.77961
G3 X163.63 Y163.771 I-3.186 J1.121 E2.86074
G3 X163.615 Y166.397 I-2.276 J1.3 E2.98013
G3 X158.405 Y166.903 I-2.449 J1.857 E3.54658
G3 X157.769 Y164.116 I4.82 J-2.565 E3.67214
G3 X157.647 Y162.293 I3.913 J-1.179 E3.75212
G3 X157.518 Y160.546 I3.889 J-1.163 E3.82875
G3 X161.393 Y156.283 I2.753 J-1.39 E4.15148
G1 X163.819 Y169.329 F18000
G1 F3000
G1 X163.819 Y167.177 E4.24488
G1 X163.321 Y170.133 F18000
G1 F3000
G1 X163.321 Y162.942 E4.557
G3 X163.098 Y160.428 I14.735 J-2.577 E4.66671
G3 X162.948 Y159.154 I.878 J-.749 E4.72577
G2 X162.823 Y158.354 I-1.384 J-.193 E4.76141
G1 X162.823 Y170.357 E5.28245
G1 X162.324 Y170.658 E5.30773
G1 X162.324 Y157.473 E5.88011
G2 X161.826 Y156.994 I-1.043 J.587 E5.91055
G1 X161.826 Y170.834 E6.51134
G3 X161.328 Y170.921 I-.409 J-.871 E6.53355
G1 X161.328 Y156.692 E7.15118
G2 X160.829 Y156.555 I-.478 J.759 E7.17395
G1 X160.829 Y170.9 E7.79664
G3 X160.331 Y170.778 I-.046 J-.889 E7.81924
G1 X160.331 Y156.49 E8.43946
G1 X159.833 Y156.51 E8.4611
G1 X159.833 Y170.567 E9.07131
G3 X159.334 Y170.203 I1.493 J-2.567 E9.09814
G1 X159.334 Y156.654 E9.6863
G2 X158.836 Y156.902 I.232 J1.089 E9.71074
G1 X158.836 Y169.916 E10.27562
G1 X158.338 Y166.465 F18000
G1 F3000
G1 X158.338 Y157.292 E10.67384
G2 X157.839 Y158.03 I1.348 J1.448 E10.71283
G1 X157.839 Y162.234 E10.89533
G1 E9.14533 F6000
;WIPE_START
G1 F3000
G1 X157.839 Y161.234 E8.39533
;WIPE_END
G92 E0
G1 X146.738 Y148.707 F18000
G1 E2.5 F6000
;TYPE:Brim
G1 F3000
G1 X141.234 Y153.224 E2.80909
G1 X140.869 Y153.493 E2.82875
G1 X140.506 Y153.711 E2.84716
G1 X132.304 Y158.095 E3.25087
G1 X131.894 Y158.287 E3.27053
G1 X131.494 Y158.43 E3.28893
G1 X122.595 Y161.13 E3.69265
G1 X122.155 Y161.239 E3.71231
G1 X121.736 Y161.301 E3.73071
G1 X112.48 Y162.213 E4.13442
G1 X112.028 Y162.233 E4.15409
G1 X111.604 Y162.213 E4.17249
G1 X102.349 Y161.301 E4.5762
G1 X101.901 Y161.233 E4.59587
G1 X101.489 Y161.13 E4.61427
G1 X92.59 Y158.43 E5.01798
G1 X92.164 Y158.276 E5.03764
G1 X91.78 Y158.095 E5.05605
G1 X83.578 Y153.711 E5.45976
G1 X83.19 Y153.477 E5.47942
G1 X82.85 Y153.224 E5.49782
G1 X75.661 Y147.324 E5.90154
G1 X75.326 Y147.019 E5.9212
G1 X75.041 Y146.705 E5.9396
G1 X69.141 Y139.516 E6.34331
G1 X68.873 Y139.151 E6.36298
G1 X68.655 Y138.788 E6.38138
G1 X64.27 Y130.585 E6.78509
G1 X64.078 Y130.175 E6.80475
G1 X63.935 Y129.776 E6.82316
G1 X61.236 Y120.876 E7.22687
G1 X61.127 Y120.437 E7.24653
G1 X61.065 Y120.017 E7.26494
G1 X60.153 Y110.762 E7.66865
G1 X60.132 Y110.309 E7.68831
G1 X60.153 Y109.886 E7.70671
G1 X61.065 Y100.63 E8.11042
G1 X61.132 Y100.182 E8.13009
G1 X61.235 Y99.771 E8.14849
G1 X63.935 Y90.871 E8.5522
G1 X64.089 Y90.445 E8.57187
G1 X64.27 Y90.062 E8.59027
G1 X68.654 Y81.86 E8.99398
G1 X68.888 Y81.472 E9.01364
G1 X69.141 Y81.132 E9.03205
G1 X75.041 Y73.942 E9.43576
G1 X75.346 Y73.608 E9.45542
G1 X75.66 Y73.323 E9.47382
G1 X82.85 Y67.423 E9.87754
G1 X83.214 Y67.154 E9.8972
G1 X83.578 Y66.936 E9.9156
G1 X91.78 Y62.552 E10.31931
G1 X92.19 Y62.36 E10.33898
G1 X92.589 Y62.217 E10.35738
G1 X101.489 Y59.517 E10.76109
G1 X101.929 Y59.409 E10.78075
G1 X102.348 Y59.346 E10.79916
G1 X111.604 Y58.435 E11.20289
G1 X112.028 Y58.414 E11.22129
G1 X112.48 Y58.435 E11.24095
G1 X121.735 Y59.346 E11.64465
G1 X122.183 Y59.414 E11.66431
G1 X122.594 Y59.517 E11.68271
G1 X131.494 Y62.217 E12.08643
G1 X131.92 Y62.371 E12.10609
G1 X132.303 Y62.552 E12.12449
G1 X140.506 Y66.936 E12.5282
G1 X140.893 Y67.17 E12.54787
G1 X141.234 Y67.423 E12.56627
G1 X148.423 Y73.323 E12.96998
G1 X148.758 Y73.628 E12.98964
G1 X149.042 Y73.942 E13.00805
G1 X154.943 Y81.131 E13.41176
G1 X155.211 Y81.496 E13.43142
G1 X155.429 Y81.86 E13.44983
G1 X159.813 Y90.062 E13.85354
G1 X160.006 Y90.472 E13.8732
G1 X160.149 Y90.871 E13.8916
G1 X162.848 Y99.771 E14.29531
G1 X162.957 Y100.211 E14.31498
G1 X163.019 Y100.63 E14.33338
G1 X163.931 Y109.886 E14.73709
G1 X163.952 Y110.338 E14.75676
G1 X163.931 Y110.761 E14.77516
G1 X163.019 Y120.017 E15.17887
G1 X162.951 Y120.465 E15.19854
G1 X162.848 Y120.876 E15.21694
G1 X160.149 Y129.776 E15.62065
G1 X159.995 Y130.202 E15.64031
G1 X159.813 Y130.585 E15.65871
G1 X155.429 Y138.787 E16.06243
G1 X155.195 Y139.175 E16.08209
G1 X154.943 Y139.516 E16.10049
G1 X149.043 Y146.705 E16.5042
G1 X148.737 Y147.04 E16.52387
G1 X148.423 Y147.324 E16.54227
G1 X146.769 Y148.682 E16.63516
G1 X146.485 Y148.335 F18000
G1 F3000
G1 X140.961 Y152.868 E16.94532
G1 X140.626 Y153.115 E16.96343
G1 X140.282 Y153.322 E16.98084
G1 X132.106 Y157.692 E17.38327
G1 X131.728 Y157.87 E17.40138
G1 X131.351 Y158.005 E17.4188
G1 X122.479 Y160.696 E17.82123
G1 X122.074 Y160.797 E17.83933
G1 X121.677 Y160.856 E17.85675
G1 X112.451 Y161.765 E18.25918
G1 X112.022 Y161.784 E18.27784
G1 X111.634 Y161.765 E18.2947
G1 X102.408 Y160.856 E18.69713
G1 X101.995 Y160.794 E18.71524
G1 X101.606 Y160.697 E18.73265
G1 X92.734 Y158.006 E19.13508
G1 X92.342 Y157.864 E19.15319
G1 X91.979 Y157.693 E19.1706
G1 X83.803 Y153.323 E19.57303
G1 X83.446 Y153.107 E19.59113
G1 X83.123 Y152.869 E19.60855
G1 X75.957 Y146.987 E20.01099
G1 X75.649 Y146.707 E20.02909
G1 X75.379 Y146.409 E20.04651
G1 X69.498 Y139.243 E20.44894
G1 X69.25 Y138.907 E20.46704
G1 X69.043 Y138.564 E20.48446
G1 X64.673 Y130.387 E20.88689
G1 X64.496 Y130.01 E20.90499
G1 X64.36 Y129.632 E20.92241
G1 X61.669 Y120.761 E21.32484
G1 X61.569 Y120.356 E21.34294
G1 X61.51 Y119.959 E21.36036
G1 X60.601 Y110.733 E21.76279
G1 X60.581 Y110.304 E21.78145
G1 X60.601 Y109.916 E21.79831
G1 X61.509 Y100.689 E22.20074
G1 X61.572 Y100.277 E22.21885
G1 X61.669 Y99.888 E22.23627
G1 X64.36 Y91.016 E22.6387
G1 X64.501 Y90.624 E22.6568
G1 X64.673 Y90.261 E22.67422
G1 X69.043 Y82.085 E23.07665
G1 X69.258 Y81.728 E23.09475
G1 X69.497 Y81.405 E23.11217
G1 X75.378 Y74.239 E23.5146
G1 X75.668 Y73.921 E23.53326
G1 X75.956 Y73.661 E23.55012
G1 X83.122 Y67.779 E23.95255
G1 X83.458 Y67.532 E23.97066
G1 X83.802 Y67.325 E23.98807
G1 X91.978 Y62.955 E24.3905
G1 X92.367 Y62.773 E24.40916
G1 X92.733 Y62.642 E24.42603
G1 X101.605 Y59.951 E24.82846
G1 X102.022 Y59.848 E24.84711
G1 X102.406 Y59.791 E24.86398
G1 X111.634 Y58.882 E25.26646
G1 X112.035 Y58.863 E25.28388
G1 X112.444 Y58.882 E25.30168
G1 X121.676 Y59.791 E25.70436
G1 X122.101 Y59.856 E25.72302
G1 X122.478 Y59.951 E25.73988
G1 X131.349 Y62.642 E26.14231
G1 X131.753 Y62.788 E26.16097
G1 X132.105 Y62.954 E26.17783
G1 X140.281 Y67.325 E26.58026
G1 X140.638 Y67.54 E26.59836
G1 X140.96 Y67.779 E26.61578
G1 X148.127 Y73.66 E27.01821
G1 X148.444 Y73.95 E27.03687
G1 X148.705 Y74.238 E27.05374
G1 X154.586 Y81.404 E27.45617
G1 X154.834 Y81.74 E27.47427
G1 X155.04 Y82.084 E27.49169
G1 X159.411 Y90.26 E27.89412
G1 X159.588 Y90.637 E27.91222
G1 X159.724 Y91.015 E27.92964
G1 X162.415 Y99.887 E28.33207
G1 X162.515 Y100.291 E28.35017
G1 X162.574 Y100.688 E28.36759
G1 X163.483 Y109.914 E28.77002
G1 X163.502 Y110.344 E28.78868
G1 X163.483 Y110.732 E28.80554
G1 X162.574 Y119.958 E29.20797
G1 X162.512 Y120.37 E29.22608
G1 X162.415 Y120.76 E29.24349
G1 X159.724 Y129.631 E29.64592
G1 X159.582 Y130.023 E29.66403
G1 X159.411 Y130.386 E29.68145
G1 X155.041 Y138.562 E30.08388
G1 X154.826 Y138.92 E30.10198
G1 X154.587 Y139.242 E30.1194
G1 X148.706 Y146.409 E30.52183
G1 X148.425 Y146.717 E30.53993
G1 X148.128 Y146.987 E30.55735
G1 X146.516 Y148.31 E30.64788
G1 X146.231 Y147.963 F18000
G1 F3000
G1 X140.688 Y152.512 E30.95913
G1 X140.382 Y152.738 E30.97568
G1 X140.057 Y152.934 E30.99211
G1 X131.908 Y157.29 E31.39325
G1 X131.562 Y157.452 E31.40981
G1 X131.206 Y157.58 E31.42624
G1 X122.363 Y160.263 E31.82738
G1 X121.993 Y160.355 E31.84393
G1 X121.619 Y160.411 E31.86036
G1 X112.423 Y161.317 E32.26149
G1 X112.016 Y161.335 E32.27914
G1 X111.664 Y161.317 E32.29447
G1 X102.467 Y160.411 E32.69563
G1 X102.089 Y160.354 E32.71219
G1 X101.722 Y160.263 E32.72861
G1 X92.879 Y157.581 E33.12976
G1 X92.52 Y157.452 E33.14631
G1 X92.178 Y157.29 E33.16274
G1 X84.028 Y152.934 E33.56388
G1 X83.701 Y152.738 E33.58043
G1 X83.397 Y152.513 E33.59687
G1 X76.253 Y146.65 E33.99801
G1 X75.971 Y146.394 E34.01456
G1 X75.716 Y146.114 E34.03099
G1 X69.854 Y138.97 E34.43213
G1 X69.627 Y138.663 E34.44869
G1 X69.432 Y138.339 E34.46512
G1 X65.076 Y130.189 E34.86626
G1 X64.914 Y129.844 E34.88281
G1 X64.785 Y129.488 E34.89924
G1 X62.103 Y120.645 E35.30038
G1 X62.011 Y120.275 E35.31694
G1 X61.954 Y119.901 E35.33337
G1 X61.049 Y110.704 E35.73449
G1 X61.031 Y110.298 E35.75214
G1 X61.048 Y109.945 E35.76748
G1 X61.954 Y100.748 E36.16864
G1 X62.011 Y100.371 E36.18519
G1 X62.102 Y100.004 E36.20162
G1 X64.785 Y91.161 E36.60276
G1 X64.914 Y90.802 E36.61932
G1 X65.075 Y90.459 E36.63575
G1 X69.431 Y82.31 E37.03689
G1 X69.628 Y81.983 E37.05344
G1 X69.853 Y81.678 E37.06987
G1 X75.715 Y74.535 E37.471
G1 X75.99 Y74.235 E37.48864
G1 X76.252 Y73.998 E37.50398
G1 X83.395 Y68.136 E37.90514
G1 X83.702 Y67.909 E37.92169
G1 X84.026 Y67.714 E37.93812
G1 X92.176 Y63.358 E38.33925
