; HEADER_BLOCK_START
; generated by AnycubicSlicerNext 1.3.1 on 2026-02-13 at 02:44:48
; total layer number: 106
; filament_density: 1.24
; filament_diameter: 1.75
; max_z_height: 21.24
; HEADER_BLOCK_END

; THUMBNAIL_BLOCK_START

;
; THUMBNAIL_BLOCK_END

; external perimeters extrusion width = 0.42mm
; perimeters extrusion width = 0.45mm
; infill extrusion width = 0.45mm
; solid infill extrusion width = 0.42mm
; top infill extrusion width = 0.42mm
; support material extrusion width = 0.40mm
; first layer extrusion width = 0.50mm

; EXECUTABLE_BLOCK_START
M201 X2000 Y2000 Z800 E2000
M203 X300 Y300 Z8 E100
M204 P2000 R2000 T2000
M205 X10.00 Y10.00 Z2.00 E5.00 ; sets the jerk limits, mm/sec
;TYPE:Custom
G90 ; use absolute coordinates
M83 ; extruder relative mode
M104 S220 ; set extruder temp
M140 S60 ; set bed temp
M190 S60 ; wait for bed temp
M109 S220 ; wait for extruder temp
G28                                        ; move X/Y/Z to min endstops
G1 Z0.28                                   ; lift nozzle a bit 
G92 E0 
G1 Y3 F1800                                    ; zero the extruded length 
G1 X60  E25 F500                       ; Extrude 25mm of filament in a 5cm line. 
G92 E0                                     ; zero the extruded length again 
G1 E-2 F500                                ; Retract a little 
G1 X70 F4000                              ; Quickly wipe away from the filament line
M117
G90
G21
M82 ; use absolute distances for extrusion
G92 E0
; filament start gcode
M106 S0
;LAYER_CHANGE
;Z:0.24
;HEIGHT:0.24
; BEFORE_LAYER_CHANGE 0 @ 0.24mm
G1 E-2.5 F6000
G92 E0
; AFTER_LAYER_CHANGE 0 @ 0.24mm
;_SET_FAN_SPEED_CHANGING_LAYER
M204 P500
; printing object "metercon.stl" id:15835972321933770221 copy 0
M204 T500
G1 X95.774 Y85.39 F18000
G1 Z.24
G1 E2.5 F6000
;TYPE:Support
;WIDTH:0.5
G1 F3000
G2 X102.4 Y85.587 I4.962 J-55.524 E2.78793
G3 X95.725 Y85.385 I-3.261 J-2.63 E3.1234
G1 X101.03 Y86.48 F18000
G1 F3000
G1 X101.03 Y85.99 E3.14468
G1 X100.532 Y85.99 E3.16631
G1 X100.532 Y86.471 E3.18718
G3 X100.033 Y86.644 I-.643 J-1.047 E3.21026
G1 X100.033 Y85.99 E3.23865
G1 X99.535 Y85.99 E3.26028
G1 X99.535 Y86.726 E3.2922
G3 X99.037 Y86.742 I-.287 J-1.125 E3.31402
G1 X99.037 Y85.99 E3.34667
G1 X98.538 Y85.991 E3.3683
G1 X98.538 Y86.715 E3.39973
G3 X98.04 Y86.582 I.055 J-1.2 E3.4223
G1 X98.04 Y85.992 E3.44788
G1 X97.542 Y85.993 E3.46951
G1 X97.542 Y86.396 E3.48698
G1 X97.043 Y86.132 E3.51146
G1 X97.043 Y85.777 E3.52687
G1 E1.77687 F6000
;WIPE_START
G1 F3000
G1 X97.043 Y86.132 E1.51054
G1 X97.542 Y86.396 E1.08758
G1 X97.542 Y86.315 E1.02687
;WIPE_END
G92 E0
G1 X110.162 Y66.046 F18000
G1 E2.5 F6000
G1 F3000
G3 X115.143 Y70.059 I-.38 J5.569 E2.79567
G1 X104.838 Y70.059 E3.243
G3 X110.094 Y66.043 I5.171 J1.32 E3.55271
G1 X114.485 Y69.858 F18000
G1 F3000
G2 X113.987 Y68.504 I-1.957 J-.048 E3.61684
G1 X113.987 Y69.656 E3.66684
G1 X113.488 Y69.656 E3.68848
G1 X113.488 Y67.908 E3.76436
G2 X112.99 Y67.453 I-1.502 J1.146 E3.7938
G1 X112.99 Y69.656 E3.88941
G1 X112.492 Y69.656 E3.91105
G1 X112.492 Y67.124 E4.02094
G2 X111.993 Y66.873 I-.941 J1.247 E4.0453
G1 X111.993 Y69.656 E4.1661
G1 X111.495 Y69.656 E4.18773
G1 X111.495 Y66.664 E4.31759
G1 X110.997 Y66.55 E4.33978
G1 X110.997 Y69.656 E4.47458
G1 X110.498 Y69.656 E4.49621
G1 X110.498 Y66.466 E4.63469
G1 X110 Y66.443 E4.65634
G1 X110 Y69.656 E4.79579
G1 X109.502 Y69.656 E4.81742
G1 X109.502 Y66.47 E4.95571
G1 X109.003 Y66.538 E4.97754
G1 X109.003 Y69.656 E5.11289
G1 X108.505 Y69.656 E5.13453
G1 X108.505 Y66.68 E5.2637
G2 X108.007 Y66.854 I.229 J1.46 E5.28673
G1 X108.007 Y69.656 E5.40837
G1 X107.508 Y69.656 E5.43
G1 X107.508 Y67.122 E5.54
G2 X107.01 Y67.461 I.686 J1.543 E5.56631
G1 X107.01 Y69.656 E5.66158
G1 X106.512 Y69.656 E5.68321
G1 X106.512 Y67.887 E5.75998
G2 X106.013 Y68.458 I1.322 J1.657 E5.79305
G1 X106.013 Y69.656 E5.84504
G1 X105.515 Y69.656 E5.86668
G1 X105.515 Y68.899 E5.89954
G1 E4.14954 F6000
;WIPE_START
G1 F3000
G1 X105.515 Y69.656 E3.58164
G1 X105.758 Y69.656 E3.39954
;WIPE_END
G92 E0
G1 X125.208 Y85.519 F18000
G1 E2.5 F6000
G1 F3000
G3 X119.726 Y86.446 I-3.263 J-2.617 E2.76401
G3 X117.122 Y87.204 I-2.958 J-5.314 E2.88273
G2 X115.017 Y86.669 I-40.284 J154.083 E2.97702
G3 X110.189 Y85.993 I-1.87 J-4.22 E3.19994
G3 X102.746 Y85.587 I-3.601 J-2.415 E3.58937
G1 X122.615 Y85.587 E4.45184
G2 X125.604 Y84.879 I-.065 J-6.934 E4.58631
G1 X125.244 Y85.461 E4.61606
G1 E2.86606 F6000
;WIPE_START
G1 F3000
G1 X125.604 Y84.879 E2.35214
G1 X125.309 Y84.989 E2.11606
;WIPE_END
G92 E0
G1 X109.502 Y86.548 F18000
G1 E2.5 F6000
G1 F3000
G1 X109.502 Y85.991 E2.52421
G1 X109.003 Y85.991 E2.54585
G1 X109.003 Y86.739 E2.57832
G1 X108.505 Y87.095 E2.60491
G1 X108.505 Y85.99 E2.65285
G1 X108.007 Y85.99 E2.67449
G1 X108.007 Y87.315 E2.73199
G3 X107.508 Y87.477 I-.624 J-1.069 E2.75491
G1 X107.508 Y85.99 E2.81946
G1 X107.01 Y85.99 E2.84109
G1 X107.01 Y87.576 E2.9099
G3 X106.512 Y87.584 I-.269 J-1.144 E2.9317
G1 X106.512 Y85.99 E3.00087
G1 X106.013 Y85.99 E3.0225
G1 X106.013 Y87.555 E3.09041
G1 X105.515 Y87.436 E3.11264
G1 X105.515 Y85.99 E3.1754
G1 X105.017 Y85.99 E3.19703
G1 X105.017 Y87.249 E3.25167
G3 X104.518 Y86.999 I.323 J-1.264 E3.27606
G1 X104.518 Y85.99 E3.31983
G1 X104.02 Y85.99 E3.34146
G1 X104.02 Y86.609 E3.36832
G3 X103.522 Y85.789 I.724 J-1.001 E3.41112
G1 X123.953 Y86.331 F18000
G1 F3000
G1 X123.953 Y85.858 E3.43168
G3 X123.455 Y85.936 I-1.012 J-4.816 E3.45358
G1 X123.455 Y86.368 E3.47234
G1 X122.957 Y86.55 E3.49537
G1 X122.957 Y85.977 E3.52024
G2 X122.458 Y86.646 I-.16 J.401 E3.56932
G3 X121.96 Y86.697 I-.39 J-1.328 E3.59119
G1 X121.96 Y85.991 E3.62185
G1 X121.462 Y85.991 E3.64349
G1 X121.462 Y86.657 E3.67238
G3 X120.963 Y85.991 I-.135 J-.418 E3.71973
G1 X120.465 Y85.991 E3.74136
G1 X120.465 Y86.395 E3.75892
G3 X119.967 Y86.12 I.365 J-1.249 E3.78384
G1 X119.967 Y85.789 E3.79819
G1 X119.468 Y86.377 F18000
G1 F3000
G1 X119.468 Y85.991 E3.81497
G1 X118.97 Y85.991 E3.8366
G1 X118.97 Y86.436 E3.85594
G1 X118.472 Y86.635 E3.87922
G1 X118.472 Y85.991 E3.90717
G1 X117.973 Y85.991 E3.92881
G1 X117.973 Y86.749 E3.9617
G3 X117.475 Y86.819 I-.409 J-1.099 E3.98372
G1 X117.475 Y85.991 E4.01966
G1 X116.977 Y85.991 E4.04129
G1 X116.977 Y86.792 E4.07606
G3 X116.478 Y86.713 I-.07 J-1.173 E4.09813
G1 X116.478 Y85.991 E4.12948
G1 X115.98 Y85.991 E4.15111
G1 X115.98 Y86.575 E4.17646
G3 X115.482 Y86.325 I.319 J-1.258 E4.20084
G1 X115.482 Y85.991 E4.21535
G1 X114.983 Y85.991 E4.23698
G3 X114.485 Y86.446 I-.444 J.015 E4.27027
G1 X114.485 Y85.991 E4.29004
G1 X113.987 Y85.991 E4.31167
G1 X113.987 Y86.625 E4.33921
G1 X113.488 Y86.707 E4.36113
G1 X113.488 Y85.991 E4.3922
G1 X112.99 Y85.991 E4.41384
G1 X112.99 Y86.729 E4.44587
G1 X112.492 Y86.702 E4.46754
G1 X112.492 Y85.991 E4.4984
G1 X111.993 Y85.991 E4.52004
G1 X111.993 Y86.573 E4.54533
G3 X111.495 Y85.991 I-.09 J-.428 E4.58593
G1 X110.997 Y85.991 E4.60756
G1 X110.997 Y86.358 E4.6235
G1 E2.8735 F6000
;WIPE_START
G1 F3000
G1 X110.997 Y85.991 E2.59808
G1 X111.495 Y85.991 E2.22434
G1 X111.495 Y86.125 E2.1235
;WIPE_END
G92 E0
G1 X110.996 Y84.599 F18000
G1 E2.5 F6000
;TYPE:Brim
G1 F3000
G1 X97.515 Y84.601 E3.08521
G1 X96.86 Y84.57 E3.11366
G1 X96.444 Y84.517 E3.13188
G1 X96.044 Y84.437 E3.14957
G1 X95.577 Y84.308 E3.1706
G1 X95.026 Y84.092 E3.19629
G1 X94.669 Y83.915 E3.21358
G1 X94.297 Y83.687 E3.23255
G1 X93.842 Y83.342 E3.25735
G1 X93.46 Y82.971 E3.28043
G1 X93.079 Y82.502 E3.30667
G1 X92.752 Y81.967 E3.33389
G1 X92.502 Y81.397 E3.36089
G1 X92.332 Y80.798 E3.38795
G1 X92.26 Y80.35 E3.40764
G1 X92.232 Y79.858 E3.42901
G1 X92.233 Y75.466 E3.61966
G1 X92.281 Y74.824 E3.64762
G1 X92.423 Y74.203 E3.67525
G1 X92.636 Y73.649 E3.70105
G1 X92.934 Y73.084 E3.72879
G1 X93.312 Y72.572 E3.75638
G1 X93.761 Y72.122 E3.78398
G1 X94.269 Y71.746 E3.81142
G1 X95.088 Y71.344 E3.85103
G1 X95.695 Y71.156 E3.87858
G1 X96.327 Y71.061 E3.90636
G1 X96.648 Y71.049 E3.9203
G1 X123.348 Y71.049 E5.07929
G1 X123.99 Y71.097 E5.10725
G1 X124.612 Y71.238 E5.13493
G1 X125.058 Y71.404 E5.15559
G1 X125.732 Y71.75 E5.18846
G1 X126.242 Y72.126 E5.216
G1 X126.692 Y72.575 E5.24359
G1 X127.068 Y73.084 E5.27104
G1 X127.471 Y73.9 E5.31057
G1 X127.658 Y74.507 E5.33812
G1 X127.754 Y75.139 E5.3659
G1 X127.767 Y75.459 E5.37976
G1 X127.768 Y79.86 E5.57081
G1 X127.754 Y80.21 E5.58601
G1 X127.704 Y80.612 E5.60359
G1 X127.511 Y81.363 E5.63727
G1 X127.193 Y82.072 E5.67099
G1 X126.868 Y82.577 E5.69706
G1 X126.456 Y83.059 E5.72459
G1 X126.163 Y83.337 E5.74214
G1 X125.864 Y83.574 E5.75868
G1 X125.554 Y83.784 E5.77495
G1 X125.054 Y84.055 E5.79963
G1 X124.437 Y84.302 E5.82849
G1 X124.033 Y84.419 E5.84675
G1 X123.554 Y84.517 E5.86798
G1 X123.042 Y84.579 E5.89036
G1 X122.654 Y84.598 E5.90721
G1 X111.036 Y84.599 E6.41151
G1 X111.036 Y84.15 F18000
G1 F3000
G1 X97.529 Y84.152 E6.99786
G1 X96.905 Y84.123 E7.02496
G1 X96.521 Y84.074 E7.04177
G1 X96.153 Y84.002 E7.05804
G1 X95.713 Y83.879 E7.07787
G1 X95.203 Y83.679 E7.10168
G1 X94.881 Y83.519 E7.11724
G1 X94.545 Y83.312 E7.13439
G1 X94.141 Y83.006 E7.15641
G1 X93.797 Y82.673 E7.17716
G1 X93.452 Y82.25 E7.20088
G1 X93.155 Y81.767 E7.22548
G1 X92.923 Y81.236 E7.25063
G1 X92.769 Y80.693 E7.27515
G1 X92.706 Y80.295 E7.29265
G1 X92.68 Y79.842 E7.31233
G1 X92.682 Y75.488 E7.50132
G1 X92.725 Y74.901 E7.52687
G1 X92.851 Y74.344 E7.55168
G1 X93.049 Y73.827 E7.57569
G1 X93.31 Y73.332 E7.60001
G1 X93.66 Y72.858 E7.62555
G1 X94.047 Y72.47 E7.64936
G1 X94.494 Y72.138 E7.67351
G1 X95.264 Y71.759 E7.7108
G1 X95.805 Y71.593 E7.73532
G1 X96.362 Y71.509 E7.75978
G1 X96.659 Y71.497 E7.77269
G1 X123.336 Y71.498 E8.9307
G1 X123.933 Y71.544 E8.95669
G1 X124.475 Y71.667 E8.98082
G1 X124.869 Y71.812 E8.99906
G1 X125.485 Y72.127 E9.02908
G1 X125.956 Y72.474 E9.0545
G1 X126.358 Y72.877 E9.07917
G1 X126.689 Y73.329 E9.10349
G1 X127.056 Y74.077 E9.13966
G1 X127.221 Y74.617 E9.16419
G1 X127.308 Y75.189 E9.18931
G1 X127.319 Y79.854 E9.39177
G1 X127.306 Y80.178 E9.40588
G1 X127.264 Y80.519 E9.42079
G1 X127.089 Y81.203 E9.45143
G1 X126.792 Y81.866 E9.48296
G1 X126.501 Y82.316 E9.50621
G1 X126.125 Y82.755 E9.5313
G1 X125.864 Y83.002 E9.54691
G1 X125.603 Y83.209 E9.56139
G1 X125.327 Y83.397 E9.57587
G1 X124.856 Y83.651 E9.5991
G1 X124.284 Y83.88 E9.62582
G1 X123.92 Y83.984 E9.64226
G1 X123.487 Y84.073 E9.66147
G1 X123.009 Y84.131 E9.68237
G1 X122.64 Y84.149 E9.69841
G1 X111.076 Y84.15 E10.20036
G1 X111.076 Y83.702 F18000
G1 F3000
G1 X97.542 Y83.704 E10.78786
G1 X96.949 Y83.676 E10.81363
G1 X96.267 Y83.567 E10.84364
G1 X95.849 Y83.451 E10.86244
G1 X95.379 Y83.266 E10.88436
G1 X95.094 Y83.123 E10.8982
G1 X94.793 Y82.938 E10.91354
G1 X94.44 Y82.669 E10.93282
G1 X94.133 Y82.375 E10.95126
G1 X93.824 Y81.997 E10.97246
G1 X93.55 Y81.55 E10.99521
G1 X93.343 Y81.076 E11.01768
G1 X93.207 Y80.588 E11.03965
G1 X93.152 Y80.24 E11.05496
G1 X93.129 Y79.826 E11.07296
G1 X93.13 Y75.51 E11.2603
G1 X93.169 Y74.977 E11.28348
G1 X93.279 Y74.483 E11.30546
G1 X93.462 Y74.005 E11.32766
G1 X93.697 Y73.563 E11.34942
G1 X93.995 Y73.159 E11.37118
G1 X94.334 Y72.817 E11.3921
G1 X94.74 Y72.517 E11.41399
G1 X95.42 Y72.182 E11.44694
G1 X95.895 Y72.035 E11.4685
G1 X96.397 Y71.957 E11.49056
G1 X96.671 Y71.946 E11.50245
G1 X123.313 Y71.946 E12.65897
G1 X123.875 Y71.991 E12.68342
G1 X124.339 Y72.096 E12.70407
G1 X124.682 Y72.221 E12.71991
G1 X125.239 Y72.505 E12.74705
G1 X125.67 Y72.823 E12.7703
G1 X126.022 Y73.178 E12.79201
G1 X126.309 Y73.573 E12.81321
G1 X126.641 Y74.253 E12.84604
G1 X126.784 Y74.727 E12.86755
G1 X126.859 Y75.234 E12.88978
G1 X126.871 Y79.842 E13.08982
G1 X126.82 Y80.444 E13.11606
G1 X126.667 Y81.044 E13.14292
G1 X126.391 Y81.66 E13.17223
G1 X126.135 Y82.054 E13.19263
G1 X125.795 Y82.45 E13.21529
G1 X125.561 Y82.669 E13.22919
G1 X125.088 Y83.016 E13.25468
G1 X124.658 Y83.247 E13.27583
G1 X124.132 Y83.457 E13.30041
G1 X123.808 Y83.549 E13.31505
G1 X123.409 Y83.631 E13.33273
G1 X122.976 Y83.683 E13.35168
G1 X122.626 Y83.701 E13.36689
G1 X111.116 Y83.702 E13.8665
G1 X111.116 Y83.253 F18000
G1 F3000
G1 X97.556 Y83.255 E14.45515
G1 X97.003 Y83.23 E14.47917
G1 X96.37 Y83.129 E14.50698
G1 X95.985 Y83.022 E14.52431
G1 X95.557 Y82.853 E14.54432
G1 X95.307 Y82.728 E14.55643
G1 X95.042 Y82.563 E14.56997
G1 X94.738 Y82.332 E14.58656
G1 X94.469 Y82.076 E14.60269
G1 X94.196 Y81.744 E14.62135
G1 X93.954 Y81.35 E14.64141
G1 X93.764 Y80.916 E14.66198
G1 X93.644 Y80.485 E14.68141
G1 X93.598 Y80.186 E14.69455
G1 X93.577 Y79.81 E14.71089
G1 X93.579 Y75.532 E14.89659
G1 X93.614 Y75.053 E14.91744
G1 X93.708 Y74.622 E14.93657
G1 X93.868 Y74.199 E14.95619
G1 X94.073 Y73.811 E14.97525
G1 X94.33 Y73.46 E14.99415
G1 X94.622 Y73.165 E15.01215
G1 X94.985 Y72.896 E15.03176
G1 X95.577 Y72.604 E15.06043
G1 X95.986 Y72.476 E15.07904
G1 X96.434 Y72.406 E15.0987
G1 X96.683 Y72.394 E15.10954
G1 X123.29 Y72.395 E16.26452
G1 X123.817 Y72.437 E16.28744
G1 X124.204 Y72.525 E16.30466
G1 X124.495 Y72.63 E16.31809
G1 X124.993 Y72.883 E16.34233
G1 X125.383 Y73.171 E16.36339
G1 X125.685 Y73.478 E16.38209
G1 X125.928 Y73.815 E16.40015
G1 X126.225 Y74.427 E16.42967
G1 X126.347 Y74.835 E16.44815
G1 X126.411 Y75.277 E16.46751
G1 X126.422 Y79.818 E16.66463
G1 X126.377 Y80.358 E16.68817
G1 X126.244 Y80.884 E16.71173
G1 X125.99 Y81.454 E16.7388
G1 X125.769 Y81.792 E16.75632
G1 X125.465 Y82.145 E16.77656
G1 X125.268 Y82.328 E16.78825
G1 X124.84 Y82.64 E16.81125
G1 X124.461 Y82.843 E16.82987
G1 X123.981 Y83.033 E16.85231
G1 X123.696 Y83.114 E16.86515
G1 X123.332 Y83.188 E16.88131
G1 X122.942 Y83.236 E16.89833
G1 X122.611 Y83.252 E16.91272
G1 X111.156 Y83.253 E17.40996
G1 X111.156 Y82.805 F18000
G1 F3000
G1 X97.569 Y82.807 E17.99977
G1 X97.056 Y82.783 E18.02206
G1 X96.473 Y82.691 E18.04767
G1 X96.122 Y82.594 E18.06351
G1 X95.745 Y82.445 E18.08107
G1 X95.532 Y82.339 E18.09141
G1 X95.292 Y82.19 E18.1037
G1 X95.035 Y81.995 E18.11767
G1 X94.793 Y81.764 E18.13219
G1 X94.568 Y81.489 E18.14762
G1 X94.357 Y81.15 E18.16495
G1 X94.192 Y80.774 E18.18279
G1 X94.086 Y80.397 E18.19977
G1 X94.044 Y80.132 E18.21142
G1 X94.026 Y79.794 E18.22614
G1 X94.027 Y75.553 E18.41023
G1 X94.058 Y75.127 E18.42876
G1 X94.137 Y74.76 E18.44507
G1 X94.274 Y74.392 E18.4621
G1 X94.45 Y74.059 E18.47846
G1 X94.667 Y73.759 E18.49451
G1 X94.909 Y73.512 E18.50953
G1 X95.23 Y73.275 E18.52684
G1 X95.735 Y73.027 E18.55129
G1 X96.08 Y72.917 E18.56698
G1 X96.472 Y72.854 E18.58422
G1 X96.697 Y72.843 E18.59399
G1 X123.267 Y72.843 E19.74737
G1 X123.758 Y72.884 E19.76876
G1 X124.069 Y72.955 E19.78262
G1 X124.309 Y73.04 E19.79365
G1 X124.747 Y73.261 E19.81495
G1 X125.096 Y73.518 E19.83379
G1 X125.334 Y73.76 E19.84852
G1 X125.535 Y74.036 E19.86334
G1 X125.801 Y74.581 E19.88964
G1 X125.909 Y74.942 E19.90601
G1 X125.962 Y75.319 E19.92254
G1 X125.974 Y79.794 E20.11678
G1 X125.934 Y80.273 E20.13766
G1 X125.822 Y80.725 E20.15789
G1 X125.6 Y81.228 E20.18176
G1 X125.415 Y81.514 E20.19653
G1 X125.146 Y81.828 E20.21446
G1 X124.988 Y81.976 E20.22388
G1 X124.608 Y82.254 E20.2443
G1 X124.279 Y82.432 E20.26054
G1 X123.843 Y82.606 E20.28092
G1 X123.595 Y82.677 E20.2921
G1 X123.25 Y82.746 E20.30739
G1 X122.597 Y82.804 E20.33586
G1 X111.196 Y82.805 E20.83074
G1 X111.196 Y82.354 F18000
G1 F3000
G1 X97.529 Y82.358 E21.424
G1 X96.681 Y82.269 E21.46101
G1 X96.518 Y82.235 E21.46825
G1 X95.875 Y81.998 E21.49799
G1 X95.319 Y81.636 E21.52681
G1 X95.14 Y81.466 E21.5375
G1 X94.937 Y81.223 E21.55126
G1 X94.719 Y80.851 E21.56996
G1 X94.622 Y80.619 E21.5809
G1 X94.474 Y79.814 E21.61642
G1 X94.476 Y75.498 E21.80378
G1 X94.541 Y75.022 E21.82462
G1 X94.679 Y74.605 E21.84368
G1 X94.875 Y74.248 E21.86136
G1 X95.142 Y73.926 E21.87952
G1 X95.357 Y73.745 E21.8917
G1 X95.818 Y73.478 E21.91485
G1 X96.11 Y73.383 E21.92817
G1 X96.689 Y73.291 E21.95362
G1 X123.319 Y73.291 E23.10961
G1 X123.784 Y73.356 E23.12999
G1 X124.315 Y73.545 E23.15443
G1 X124.428 Y73.602 E23.15992
G1 X124.754 Y73.834 E23.17731
G1 X124.997 Y74.08 E23.19231
G1 X125.232 Y74.422 E23.21036
G1 X125.428 Y74.895 E23.23255
G1 X125.497 Y75.214 E23.24671
G1 X125.524 Y75.494 E23.25895
G1 X125.517 Y79.898 E23.45012
G1 X125.449 Y80.387 E23.47154
G1 X125.287 Y80.849 E23.49281
