; HEADER_BLOCK_START
; generated by AnycubicSlicerNext 1.3.1 on 2026-02-12 at 22:00:43
; total layer number: 51
; filament_density: 1.24
; filament_diameter: 1.75
; max_z_height: 10.24
; HEADER_BLOCK_END

; THUMBNAIL_BLOCK_START

;
; THUMBNAIL_BLOCK_END

; external perimeters extrusion width = 0.42mm
; perimeters extrusion width = 0.45mm
; infill extrusion width = 0.45mm
; solid infill extrusion width = 0.42mm
; top infill extrusion width = 0.42mm
; support material extrusion width = 0.40mm
; first layer extrusion width = 0.50mm

; EXECUTABLE_BLOCK_START
M201 X2000 Y2000 Z800 E2000
M203 X300 Y300 Z8 E100
M204 P2000 R2000 T2000
M205 X10.00 Y10.00 Z2.00 E5.00 ; sets the jerk limits, mm/sec
;TYPE:Custom
G90 ; use absolute coordinates
M83 ; extruder relative mode
M104 S220 ; set extruder temp
M140 S60 ; set bed temp
M190 S60 ; wait for bed temp
M109 S220 ; wait for extruder temp
G28                                        ; move X/Y/Z to min endstops
G1 Z0.28                                   ; lift nozzle a bit 
G92 E0 
G1 Y3 F1800                                    ; zero the extruded length 
G1 X60  E25 F500                       ; Extrude 25mm of filament in a 5cm line. 
G92 E0                                     ; zero the extruded length again 
G1 E-2 F500                                ; Retract a little 
G1 X70 F4000                              ; Quickly wipe away from the filament line
M117
G90
G21
M82 ; use absolute distances for extrusion
G92 E0
; filament start gcode
M106 S0
;LAYER_CHANGE
;Z:0.24
;HEIGHT:0.24
; BEFORE_LAYER_CHANGE 0 @ 0.24mm
G1 E-2.5 F6000
G92 E0
; AFTER_LAYER_CHANGE 0 @ 0.24mm
;_SET_FAN_SPEED_CHANGING_LAYER
M204 P500
; printing object "meterconsolehande1p.stl" id:15835972321933770221 copy 0
M204 T500
G1 X108.13 Y104.224 F18000
G1 Z.24
G1 E2.5 F6000
;TYPE:Support
;WIDTH:0.5
G1 F3000
G3 X109.582 Y104.665 I-.271 J3.504 E2.56642
G2 X111.428 Y104.2 I-3.639 J-18.347 E2.64909
G3 X114.08 Y105.299 I.224 J3.21 E2.77826
G2 X115.489 Y104.759 I-1.383 J-5.714 E2.84395
G3 X118.198 Y105.871 I-.165 J4.255 E2.97371
G3 X120.313 Y106.204 I.524 J3.553 E3.06809
G3 X121.365 Y107.615 I-7.542 J6.724 E3.14456
G1 X121.536 Y107.697 E3.15278
G3 X123.474 Y110.113 I-1.138 J2.898 E3.2935
G1 X123.35 Y110.613 E3.31586
G2 X122.38 Y111.831 I-.072 J.939 E3.3955
G2 X121.901 Y114.386 I12.714 J3.702 E3.50851
G2 X122.403 Y114.905 I1.026 J-.491 E3.54038
G3 X119.814 Y115.846 I-1.967 J-1.379 E3.66775
G3 X118.265 Y116.024 I-1.039 J-2.205 E3.73663
G3 X115.791 Y114.386 I.064 J-2.784 E3.87247
G2 X114.603 Y114.756 I-.34 J1.001 E3.9302
G3 X111.053 Y114.758 I-1.777 J-3.112 E4.09144
G3 X106.356 Y114.393 I-2.152 J-2.709 E4.31637
G1 X105.248 Y114.577 E4.36516
G3 X101.408 Y115.549 I-2.53 J-1.924 E4.55078
G3 X97.848 Y115.273 I-1.54 J-3.228 E4.71305
G1 X97.637 Y114.884 E4.73228
G2 X97.965 Y113.431 I-.557 J-.889 E4.80413
G2 X97.338 Y110.772 I-9.524 J.844 E4.92313
G2 X96.616 Y110.612 I-.553 J.786 E4.95607
G3 X98.022 Y107.929 I2.29 J-.51 E5.099
G2 X98.941 Y106.964 I-.986 J-1.861 E5.15787
G3 X102.064 Y105.7 I10.169 J20.642 E5.30426
G3 X105.463 Y105.29 I2.03 J2.543 E5.46071
G3 X108.062 Y104.219 I2.325 J1.952 E5.58761
G1 X122.957 Y110.423 F18000
G1 F3000
G2 X122.458 Y108.822 I-1.614 J-.376 E5.66392
G1 X122.458 Y110.418 E5.73318
G2 X121.96 Y111.891 I1.1 J1.193 E5.8036
G1 X121.96 Y108.478 E5.95176
G2 X121.462 Y108.109 I-2.528 J2.894 E5.97871
G1 X121.462 Y115.281 E6.29003
G1 X120.963 Y115.46 E6.31301
G1 X120.963 Y107.694 E6.65008
G2 X120.465 Y107.122 I-.74 J.141 E6.68462
G1 X120.465 Y115.518 E7.04909
G1 X119.967 Y115.458 E7.07088
G1 X119.967 Y106.521 E7.45882
G1 X119.468 Y106.368 E7.48144
G1 X119.468 Y115.526 E7.87895
G1 X118.97 Y115.716 E7.9021
G1 X118.97 Y106.246 E8.31317
G2 X118.472 Y106.241 I-.261 J1.269 E8.33494
G1 X118.472 Y115.655 E8.74357
G2 X117.973 Y115.626 I-.312 J1.077 E8.76542
G1 X117.973 Y106.208 E9.17423
G1 X117.475 Y105.807 E9.20201
G1 X117.475 Y115.481 E9.62194
G3 X116.977 Y115.183 I.519 J-1.436 E9.64729
G1 X116.977 Y105.529 E10.06636
G2 X116.478 Y105.347 I-.667 J1.055 E10.08957
G1 X116.478 Y114.712 E10.49606
G1 X115.98 Y113.998 E10.53382
G1 X115.98 Y105.257 E10.91326
G2 X115.482 Y105.241 I-.258 J.263 E10.93703
G1 X115.482 Y113.953 E11.31517
G1 X114.983 Y113.939 E11.33681
G1 X114.983 Y105.46 E11.70486
G2 X114.485 Y105.572 I.026 J1.286 E11.72718
G1 X114.485 Y114.338 E12.10772
G3 X113.987 Y114.588 I-.77 J-.914 E12.13215
G1 X113.954 Y105.784 E12.51432
G2 X113.488 Y105.284 I-1.128 J.584 E12.54435
G1 X113.488 Y114.753 E12.95537
G1 X112.99 Y114.834 E12.97729
G1 X112.99 Y104.932 E13.40715
G2 X112.492 Y104.752 I-.571 J.802 E13.43043
G1 X112.492 Y114.807 E13.8669
G3 X111.993 Y114.723 I-.089 J-.991 E13.88908
G1 X111.993 Y104.645 E14.32654
G1 X111.495 Y104.61 E14.34823
G1 X111.495 Y114.539 E14.77926
G3 X111.035 Y114.255 I.321 J-1.034 E14.803
G1 X110.997 Y104.701 E15.21775
G2 X110.498 Y104.859 I.034 J.969 E15.24073
G1 X110.498 Y114.683 E15.66717
G1 X110 Y114.905 E15.69086
G1 X110 Y105.044 E16.11895
G1 X109.502 Y105.074 E16.14062
G1 X109.502 Y115.048 E16.57354
G3 X109.003 Y115.128 I-.402 J-.909 E16.59569
G1 X109.003 Y104.833 E17.04258
G1 X108.505 Y104.657 E17.06552
G1 X108.505 Y115.081 E17.51801
G3 X108.007 Y114.975 I-.047 J-1.001 E17.54037
G1 X108.007 Y104.62 E17.98987
G2 X107.508 Y104.64 I-.213 J.898 E18.01179
G1 X107.508 Y114.793 E18.4525
G3 X107.01 Y114.455 I.395 J-1.117 E18.47894
G1 X107.01 Y104.745 E18.90042
G2 X106.512 Y104.979 I.169 J1.007 E18.92462
G1 X106.512 Y113.957 E19.31436
G1 X106.013 Y114.04 E19.33629
G1 X106.013 Y105.327 E19.7145
G1 X105.515 Y105.738 E19.74253
G1 X105.515 Y114.123 E20.10653
G1 X105.017 Y114.23 E20.12865
G1 X105.017 Y105.559 E20.50505
G2 X104.518 Y105.431 I-1.046 J3.036 E20.52741
G1 X104.518 Y114.785 E20.93347
G3 X104.02 Y115.107 I-.784 J-.669 E20.95957
G1 X104.02 Y105.411 E21.38044
G2 X103.522 Y105.476 I-.135 J.903 E21.40254
G1 X103.522 Y115.311 E21.82945
G3 X103.023 Y115.436 I-.458 J-.768 E21.85208
G1 X103.023 Y105.61 E22.2786
G2 X102.525 Y105.884 I1.218 J2.805 E22.30333
G1 X102.525 Y115.418 E22.71719
G3 X102.027 Y115.333 I-.107 J-.873 E22.73945
G1 X102.027 Y106.199 E23.13594
G2 X101.528 Y106.278 I.001 J1.628 E23.15792
G1 X101.528 Y115.164 E23.54367
G2 X101.03 Y115.267 I-.081 J.864 E23.56609
G1 X101.03 Y106.475 E23.94776
G3 X100.532 Y106.744 I-.536 J-.395 E23.97316
G1 X100.532 Y115.415 E24.34956
G3 X100.033 Y115.455 I-.366 J-1.439 E24.37136
G1 X100.033 Y106.843 E24.74519
G2 X99.535 Y107.082 I.161 J.973 E24.76951
G1 X99.534 Y115.515 E25.13556
G1 X99.037 Y115.455 E25.15732
G1 X99.037 Y107.481 E25.50346
G3 X98.538 Y108.11 I-3.224 J-2.041 E25.53837
G1 X98.538 Y115.454 E25.85716
G1 X98.04 Y112.92 F18000
G1 F3000
G1 X98.04 Y108.471 E26.05026
G2 X97.542 Y108.809 I.662 J1.515 E26.07653
G1 X97.542 Y110.422 E26.14659
G2 X97.043 Y110.212 I-.727 J1.027 E26.17025
G1 X97.043 Y109.146 E26.21652
G1 E24.46652 F6000
;WIPE_START
G1 F3000
G1 X97.043 Y110.146 E23.71652
;WIPE_END
G92 E0
G1 X89.513 Y108.64 F18000
G1 E2.5 F6000
;TYPE:Brim
G1 F3000
G1 X89.547 Y108.129 E2.52224
G1 X89.661 Y107.143 E2.56533
G1 X89.823 Y106.164 E2.60842
G1 X90.032 Y105.193 E2.6515
G1 X90.288 Y104.234 E2.69459
G1 X90.589 Y103.289 E2.73767
G1 X90.936 Y102.359 E2.78076
G1 X91.328 Y101.447 E2.82385
G1 X91.763 Y100.554 E2.86693
G1 X92.24 Y99.684 E2.91002
G1 X92.759 Y98.838 E2.9531
G1 X93.319 Y98.018 E2.99619
G1 X93.917 Y97.227 E3.03927
G1 X94.553 Y96.465 E3.08233
G1 X95.375 Y95.58 E3.13477
G1 X96.088 Y94.891 E3.17783
G1 X96.835 Y94.236 E3.22092
G1 X97.612 Y93.619 E3.26401
G1 X98.417 Y93.039 E3.30709
G1 X99.25 Y92.499 E3.35018
G1 X100.109 Y92.001 E3.39326
G1 X100.99 Y91.544 E3.43635
G1 X101.892 Y91.13 E3.47944
G1 X102.813 Y90.76 E3.52252
G1 X103.751 Y90.435 E3.56561
G1 X104.704 Y90.156 E3.60869
G1 X105.668 Y89.924 E3.65178
G1 X106.643 Y89.738 E3.69486
G1 X107.626 Y89.599 E3.73795
G1 X108.615 Y89.508 E3.78104
G1 X109.607 Y89.465 E3.82416
G1 X110.607 Y89.471 E3.86756
G1 X111.591 Y89.523 E3.91032
G1 X112.364 Y89.598 E3.94405
G1 X113.348 Y89.736 E3.98716
G1 X114.323 Y89.922 E4.03025
G1 X115.288 Y90.154 E4.07333
G1 X116.24 Y90.433 E4.11642
G1 X117.178 Y90.757 E4.1595
G1 X118.1 Y91.126 E4.20259
G1 X119.002 Y91.54 E4.24568
G1 X119.883 Y91.996 E4.28876
G1 X120.742 Y92.495 E4.33185
G1 X121.575 Y93.034 E4.37493
G1 X122.381 Y93.613 E4.41802
G1 X123.158 Y94.23 E4.4611
G1 X123.905 Y94.885 E4.50419
G1 X124.619 Y95.574 E4.54728
G1 X125.299 Y96.297 E4.59036
G1 X125.943 Y97.052 E4.63345
G1 X126.55 Y97.838 E4.67653
G1 X127.118 Y98.651 E4.71962
G1 X127.646 Y99.492 E4.76271
G1 X128.134 Y100.357 E4.80579
G1 X128.578 Y101.244 E4.84888
G1 X128.98 Y102.152 E4.89196
G1 X129.337 Y103.078 E4.93505
G1 X129.649 Y104.02 E4.97813
G1 X129.914 Y104.976 E5.02122
G1 X130.134 Y105.944 E5.06431
G1 X130.306 Y106.922 E5.10739
G1 X130.431 Y107.907 E5.15048
G1 X130.509 Y108.896 E5.19356
G1 X130.538 Y109.89 E5.23672
G1 X130.519 Y110.879 E5.27966
G1 X130.453 Y111.871 E5.32282
G1 X130.339 Y112.857 E5.36591
G1 X130.177 Y113.836 E5.40899
G1 X129.968 Y114.807 E5.45208
G1 X129.712 Y115.766 E5.49516
G1 X129.411 Y116.711 E5.53825
G1 X129.064 Y117.641 E5.58134
G1 X128.672 Y118.553 E5.62442
G1 X128.237 Y119.446 E5.66751
G1 X127.76 Y120.316 E5.71059
G1 X127.241 Y121.162 E5.75368
G1 X126.681 Y121.982 E5.79676
G1 X126.083 Y122.773 E5.83985
G1 X125.447 Y123.536 E5.88294
G1 X124.775 Y124.266 E5.92602
G1 X124.069 Y124.963 E5.96911
G1 X123.328 Y125.626 E6.01224
G1 X122.559 Y126.251 E6.05528
G1 X121.759 Y126.839 E6.09836
G1 X120.932 Y127.387 E6.14145
G1 X120.079 Y127.895 E6.18454
G1 X119.202 Y128.361 E6.22762
G1 X118.305 Y128.784 E6.27071
G1 X117.387 Y129.164 E6.31379
G1 X116.453 Y129.498 E6.35685
G1 X115.296 Y129.844 E6.40929
G1 X114.332 Y130.076 E6.45236
G1 X113.357 Y130.262 E6.49544
G1 X112.374 Y130.401 E6.53853
G1 X111.385 Y130.492 E6.58161
G1 X110.394 Y130.535 E6.6247
G1 X109.401 Y130.53 E6.66778
G1 X108.41 Y130.477 E6.71087
G1 X107.423 Y130.376 E6.75396
G1 X106.441 Y130.228 E6.79704
G1 X105.468 Y130.032 E6.84013
G1 X104.505 Y129.79 E6.88321
G1 X103.556 Y129.501 E6.9263
G1 X102.621 Y129.167 E6.96938
G1 X101.704 Y128.788 E7.01247
G1 X100.806 Y128.365 E7.05556
G1 X99.929 Y127.9 E7.09864
G1 X99.076 Y127.392 E7.14173
G1 X98.249 Y126.844 E7.18481
G1 X97.449 Y126.257 E7.2279
G1 X96.678 Y125.631 E7.27099
G1 X95.938 Y124.969 E7.31407
G1 X95.231 Y124.273 E7.35716
G1 X94.559 Y123.542 E7.40027
G1 X94.057 Y122.948 E7.434
G1 X93.45 Y122.162 E7.47711
G1 X92.882 Y121.349 E7.5202
G1 X92.354 Y120.508 E7.56328
G1 X91.866 Y119.643 E7.60637
G1 X91.422 Y118.756 E7.64945
G1 X91.02 Y117.848 E7.69254
G1 X90.663 Y116.922 E7.73562
G1 X90.351 Y115.98 E7.77871
G1 X90.086 Y115.024 E7.8218
G1 X89.866 Y114.056 E7.86488
G1 X89.694 Y113.078 E7.90797
G1 X89.569 Y112.093 E7.95105
G1 X89.491 Y111.104 E7.99414
G1 X89.462 Y110.112 E8.03722
G1 X89.481 Y109.119 E8.08031
G1 X89.51 Y108.68 E8.09942
G1 X89.958 Y108.71 F18000
G1 F3000
G1 X89.994 Y108.173 E8.12278
G1 X90.105 Y107.209 E8.16493
G1 X90.263 Y106.251 E8.20707
G1 X90.468 Y105.302 E8.24922
G1 X90.717 Y104.363 E8.29136
G1 X91.012 Y103.438 E8.3335
G1 X91.354 Y102.523 E8.37593
G1 X91.737 Y101.631 E8.41808
G1 X92.162 Y100.758 E8.46022
G1 X92.63 Y99.907 E8.50236
G1 X93.138 Y99.08 E8.54451
G1 X93.685 Y98.278 E8.58665
G1 X94.27 Y97.503 E8.6288
G1 X94.892 Y96.759 E8.67088
G1 X95.693 Y95.897 E8.72197
G1 X96.39 Y95.223 E8.76405
G1 X97.12 Y94.583 E8.80619
G1 X97.88 Y93.978 E8.84834
G1 X98.668 Y93.412 E8.89048
G1 X99.483 Y92.883 E8.93263
G1 X100.322 Y92.395 E8.97477
G1 X101.184 Y91.948 E9.01692
G1 X102.066 Y91.543 E9.05906
G1 X102.973 Y91.179 E9.10149
G1 X103.891 Y90.862 E9.14363
G1 X104.822 Y90.589 E9.18578
G1 X105.766 Y90.362 E9.22792
G1 X106.72 Y90.18 E9.27007
G1 X107.681 Y90.045 E9.31221
G1 X108.648 Y89.956 E9.35435
G1 X109.619 Y89.914 E9.39654
G1 X110.591 Y89.919 E9.43871
G1 X111.554 Y89.971 E9.4806
G1 X112.308 Y90.043 E9.51349
G1 X113.271 Y90.178 E9.55569
G1 X114.225 Y90.36 E9.59784
G1 X115.169 Y90.587 E9.63998
G1 X116.101 Y90.859 E9.68213
G1 X117.018 Y91.176 E9.72427
G1 X117.92 Y91.537 E9.76642
G1 X118.802 Y91.942 E9.80856
G1 X119.665 Y92.388 E9.85071
G1 X120.504 Y92.875 E9.89285
G1 X121.319 Y93.403 E9.935
G1 X122.108 Y93.969 E9.97714
G1 X122.868 Y94.573 E10.01928
G1 X123.599 Y95.213 E10.06143
G1 X124.297 Y95.887 E10.10357
G1 X124.962 Y96.594 E10.14572
G1 X125.593 Y97.333 E10.18786
G1 X126.186 Y98.101 E10.23001
G1 X126.742 Y98.897 E10.27215
G1 X127.259 Y99.718 E10.31429
G1 X127.736 Y100.564 E10.35644
G1 X128.171 Y101.432 E10.39858
G1 X128.564 Y102.32 E10.44073
G1 X128.913 Y103.226 E10.48287
G1 X129.218 Y104.148 E10.52502
G1 X129.479 Y105.083 E10.56716
G1 X129.693 Y106.03 E10.60931
G1 X129.862 Y106.986 E10.65145
G1 X129.985 Y107.949 E10.69359
G1 X130.06 Y108.917 E10.73574
G1 X130.089 Y109.889 E10.77796
G1 X130.071 Y110.857 E10.81996
G1 X130.006 Y111.827 E10.86217
G1 X129.895 Y112.791 E10.90432
G1 X129.737 Y113.749 E10.94646
G1 X129.532 Y114.698 E10.98861
G1 X129.283 Y115.637 E11.03075
G1 X128.988 Y116.562 E11.0729
G1 X128.649 Y117.471 E11.11504
G1 X128.266 Y118.364 E11.15719
G1 X127.841 Y119.236 E11.19933
G1 X127.373 Y120.087 E11.24147
G1 X126.866 Y120.915 E11.28362
G1 X126.319 Y121.717 E11.32576
G1 X125.734 Y122.492 E11.36791
G1 X125.107 Y123.242 E11.41033
G1 X124.45 Y123.957 E11.45248
G1 X123.759 Y124.639 E11.49462
G1 X123.035 Y125.287 E11.53681
G1 X122.282 Y125.898 E11.57891
G1 X121.499 Y126.473 E11.62106
G1 X120.69 Y127.009 E11.6632
G1 X119.856 Y127.506 E11.70535
G1 X118.999 Y127.962 E11.74749
G1 X118.12 Y128.375 E11.78963
G1 X117.223 Y128.746 E11.83178
G1 X116.31 Y129.073 E11.87386
G1 X115.183 Y129.41 E11.92495
G1 X114.24 Y129.637 E11.96703
G1 X113.286 Y129.819 E12.00917
G1 X112.325 Y129.955 E12.05132
G1 X111.358 Y130.044 E12.09346
G1 X110.382 Y130.086 E12.13589
G1 X109.411 Y130.081 E12.17803
G1 X108.441 Y130.029 E12.22018
G1 X107.476 Y129.93 E12.26232
G1 X106.516 Y129.785 E12.30447
G1 X105.564 Y129.594 E12.34661
G1 X104.622 Y129.356 E12.38876
G1 X103.693 Y129.074 E12.4309
G1 X102.779 Y128.747 E12.47305
G1 X101.882 Y128.376 E12.51519
G1 X101.004 Y127.963 E12.55734
G1 X100.146 Y127.507 E12.59948
G1 X99.312 Y127.011 E12.64162
G1 X98.503 Y126.474 E12.68377
G1 X97.72 Y125.9 E12.72591
G1 X96.966 Y125.288 E12.76806
G1 X96.243 Y124.64 E12.8102
G1 X95.552 Y123.958 E12.85235
G1 X94.893 Y123.243 E12.89455
G1 X94.405 Y122.664 E12.92744
G1 X93.814 Y121.899 E12.9694
G1 X93.258 Y121.103 E13.01154
G1 X92.741 Y120.282 E13.05369
G1 X92.264 Y119.436 E13.09583
G1 X91.829 Y118.568 E13.13797
G1 X91.436 Y117.68 E13.18012
G1 X91.087 Y116.774 E13.22226
G1 X90.782 Y115.852 E13.26441
G1 X90.521 Y114.917 E13.30655
G1 X90.307 Y113.97 E13.3487
G1 X90.138 Y113.014 E13.39084
G1 X90.015 Y112.051 E13.43299
G1 X89.94 Y111.083 E13.47513
G1 X89.911 Y110.113 E13.51728
G1 X89.929 Y109.142 E13.55942
G1 X89.955 Y108.75 E13.57646
G1 X90.403 Y108.78 F18000
G1 F3000
G1 X90.44 Y108.217 E13.60095
G1 X90.55 Y107.268 E13.64243
G1 X90.705 Y106.331 E13.68364
G1 X90.905 Y105.403 E13.72484
G1 X91.149 Y104.486 E13.76604
G1 X91.437 Y103.582 E13.80725
G1 X91.771 Y102.687 E13.84873
G1 X92.146 Y101.814 E13.88993
G1 X92.562 Y100.961 E13.93113
G1 X93.019 Y100.13 E13.97234
G1 X93.516 Y99.321 E14.01354
G1 X94.051 Y98.537 E14.05474
G1 X94.624 Y97.78 E14.09595
G1 X95.231 Y97.053 E14.13705
G1 X96.011 Y96.214 E14.18679
G1 X96.692 Y95.555 E14.22789
G1 X97.405 Y94.929 E14.2691
G1 X98.148 Y94.338 E14.3103
G1 X98.918 Y93.784 E14.3515
G1 X99.715 Y93.267 E14.39271
G1 X100.535 Y92.79 E14.43391
G1 X101.378 Y92.353 E14.47511
G1 X102.24 Y91.957 E14.51632
G1 X103.127 Y91.601 E14.5578
G1 X104.024 Y91.29 E14.599
G1 X104.935 Y91.023 E14.6402
G1 X105.858 Y90.801 E14.6814
G1 X106.79 Y90.623 E14.72261
G1 X107.73 Y90.491 E14.76381
G1 X108.675 Y90.404 E14.80501
G1 X109.624 Y90.363 E14.84626
G1 X110.574 Y90.367 E14.88749
G1 X111.518 Y90.418 E14.9285
G1 X112.253 Y90.489 E14.96056
G1 X113.195 Y90.621 E15.00186
G1 X114.127 Y90.798 E15.04306
G1 X115.05 Y91.02 E15.08426
G1 X115.961 Y91.286 E15.12547
G1 X116.859 Y91.596 E15.16667
G1 X117.74 Y91.948 E15.20787
G1 X118.603 Y92.343 E15.24908
G1 X119.446 Y92.78 E15.29028
G1 X120.267 Y93.256 E15.33148
