; HEADER_BLOCK_START
; generated by AnycubicSlicerNext 1.3.1 on 2026-02-10 at 20:34:20
; total layer number: 215
; filament_density: 1.24
; filament_diameter: 1.75
; max_z_height: 43.04
; HEADER_BLOCK_END

; THUMBNAIL_BLOCK_START

;
; THUMBNAIL_BLOCK_END

; external perimeters extrusion width = 0.42mm
; perimeters extrusion width = 0.45mm
; infill extrusion width = 0.45mm
; solid infill extrusion width = 0.42mm
; top infill extrusion width = 0.42mm
; support material extrusion width = 0.40mm
; first layer extrusion width = 0.50mm

; external perimeters extrusion width = 0.42mm
; perimeters extrusion width = 0.45mm
; infill extrusion width = 0.45mm
; solid infill extrusion width = 0.42mm
; top infill extrusion width = 0.42mm
; support material extrusion width = 0.40mm
; first layer extrusion width = 0.50mm

; EXECUTABLE_BLOCK_START
M201 X2000 Y2000 Z800 E2000
M203 X300 Y300 Z8 E100
M204 P2000 R2000 T2000
M205 X10.00 Y10.00 Z2.00 E5.00 ; sets the jerk limits, mm/sec
;TYPE:Custom
G90 ; use absolute coordinates
M83 ; extruder relative mode
M104 S220 ; set extruder temp
M140 S60 ; set bed temp
M190 S60 ; wait for bed temp
M109 S220 ; wait for extruder temp
G28                                        ; move X/Y/Z to min endstops
G1 Z0.28                                   ; lift nozzle a bit 
G92 E0 
G1 Y3 F1800                                    ; zero the extruded length 
G1 X60  E25 F500                       ; Extrude 25mm of filament in a 5cm line. 
G92 E0                                     ; zero the extruded length again 
G1 E-2 F500                                ; Retract a little 
G1 X70 F4000                              ; Quickly wipe away from the filament line
M117
G90
G21
M82 ; use absolute distances for extrusion
G92 E0
; filament start gcode
M106 S0
;LAYER_CHANGE
;Z:0.24
;HEIGHT:0.24
; BEFORE_LAYER_CHANGE 0 @ 0.24mm
G1 E-2.5 F6000
G92 E0
; AFTER_LAYER_CHANGE 0 @ 0.24mm
;_SET_FAN_SPEED_CHANGING_LAYER
M204 P500
; printing object "cc2d4c345b6c409aa11855e62daf084d-xy.stl" id:2870187794432 copy 0
M204 T500
G1 X122.29 Y80.266 F18000
G1 Z.24
G1 E2.5 F6000
;TYPE:Support
;WIDTH:0.5
G1 F3000
G3 X127.369 Y91.183 I-24.481 J18.03 E3.02616
G1 X127 Y91.323 E3.04331
G3 X121.986 Y79.865 I-2.263 J-5.836 E3.87371
G1 X122.249 Y80.212 E3.89262
G1 X126.943 Y91.129 F18000
G1 F3000
G2 X126.445 Y89.184 I-8.546 J1.153 E3.97997
G1 X126.445 Y91.102 E4.06323
G3 X125.946 Y91.227 I-.634 J-1.471 E4.08563
G1 X125.946 Y87.797 E4.23451
G2 X125.448 Y86.579 I-17.117 J6.289 E4.29167
G1 X125.448 Y91.329 E4.49786
G3 X124.95 Y91.359 I-.342 J-1.518 E4.51962
G1 X124.95 Y85.488 E4.77445
G2 X124.452 Y84.498 I-13.884 J6.365 E4.82259
G1 X124.452 Y91.379 E5.12129
G3 X123.953 Y91.32 I-.068 J-1.562 E5.14317
G1 X123.953 Y83.587 E5.47883
G2 X123.455 Y82.742 I-11.94 J6.471 E5.52143
G1 X123.455 Y91.251 E5.89079
G1 X122.957 Y91.107 E5.91331
G1 X122.957 Y81.951 E6.31073
G2 X122.458 Y81.205 I-10.515 J6.486 E6.34968
G1 X122.458 Y90.937 E6.7721
G1 X121.96 Y90.7 E6.79605
G1 X121.863 Y80.37 E7.24447
G2 X121.462 Y80.621 I.572 J1.359 E7.2651
G1 X121.462 Y90.403 E7.68971
G3 X120.963 Y90.059 I.81 J-1.705 E7.71612
G1 X120.963 Y80.966 E8.11083
G1 X120.465 Y81.445 E8.14083
G1 X120.465 Y89.58 E8.49398
G3 X119.967 Y88.984 I1.585 J-1.831 E8.52785
G1 X119.967 Y82.041 E8.82926
G2 X119.468 Y82.846 I2.229 J1.936 E8.87055
G1 X119.468 Y88.179 E9.10204
G3 X118.97 Y86.871 I7.022 J-3.424 E9.16288
G1 X118.97 Y83.493 E9.30951
G1 E7.55951 F6000
;WIPE_START
G1 F3000
G1 X118.97 Y84.493 E6.80951
;WIPE_END
G92 E0
G1 X125.761 Y102.24 F18000
G1 E2.5 F6000
G1 F3000
G3 X128.279 Y102.813 I-.194 J6.67 E2.61281
G3 X124.522 Y114.664 I-32.717 J-3.851 E3.15574
G3 X125.694 Y102.237 I1.17 J-6.159 E3.95962
G1 X127.441 Y106.494 F18000
G1 F3000
G1 X127.441 Y102.927 E4.11446
G2 X126.943 Y102.792 I-.664 J1.466 E4.13696
G1 X126.943 Y107.638 E4.34732
G3 X126.445 Y109.262 I-39.843 J-11.341 E4.42104
G1 X126.445 Y102.69 E4.70629
G2 X125.946 Y102.651 I-.37 J1.514 E4.72808
G1 X125.946 Y110.648 E5.07523
G3 X125.448 Y111.867 I-17.082 J-6.276 E5.13238
G1 X125.448 Y102.631 E5.53329
G2 X124.95 Y102.681 I-.096 J1.558 E5.55512
G1 X124.95 Y112.957 E6.00117
G3 X124.452 Y113.948 I-14.039 J-6.439 E6.04933
G1 X124.452 Y102.741 E6.53577
G2 X123.953 Y102.885 I.191 J1.604 E6.55838
G1 X123.953 Y114.106 E7.04547
G3 X123.455 Y113.946 I.242 J-1.613 E7.06828
G1 X123.455 Y103.044 E7.54153
G1 X122.957 Y103.281 E7.56547
G1 X122.957 Y113.71 E8.01819
G3 X122.458 Y113.425 I.628 J-1.676 E8.04322
G1 X122.458 Y103.566 E8.47119
G1 X121.96 Y103.91 E8.49747
G1 X121.96 Y113.081 E8.89558
G3 X121.462 Y112.617 I1.178 J-1.765 E8.92526
G1 X121.462 Y104.374 E9.28308
G2 X120.963 Y104.949 I1.521 J1.821 E9.31626
G1 X120.963 Y112.041 E9.62414
G3 X120.465 Y111.268 I2.13 J-1.92 E9.66425
G1 X120.465 Y105.722 E9.90499
G2 X119.967 Y106.945 I4.811 J2.673 E9.96245
G1 X119.967 Y110.683 E10.12468
G1 E8.37468 F6000
;WIPE_START
G1 F3000
G1 X119.967 Y109.683 E7.62468
;WIPE_END
G92 E0
G1 X122.06 Y135.167 F18000
G1 E2.5 F6000
G1 F3000
G3 X118.375 Y140.752 I-4.886 J.784 E2.81894
G3 X121.797 Y145.465 I-8.302 J9.626 E3.07401
G1 X121.982 Y146.469 E3.11832
G3 X124.476 Y148.764 I.148 J2.342 E3.28274
G2 X124.574 Y149.811 I1.08 J.427 E3.33009
G1 X124.332 Y150.874 E3.37743
G3 X124.502 Y152.216 I-3.098 J1.076 E3.43658
G3 X125.006 Y153.947 I-1.782 J1.458 E3.517
G3 X125.327 Y156.638 I-2.791 J1.698 E3.63832
G3 X125.458 Y158.395 I-3.61 J1.152 E3.71549
G3 X118.282 Y158.171 I-3.662 J2.237 E4.51668
G3 X118.322 Y157.059 I4.111 J-.409 E4.56509
G3 X115.833 Y153.251 I.692 J-3.17 E4.78395
G3 X109.767 Y145.194 I.446 J-6.647 E5.28049
G3 X114.485 Y139.795 I6.227 J.68 E5.61186
G1 X114.045 Y139.408 E5.63729
G2 X121.972 Y134.89 I-17.226 J-39.432 E6.03412
G1 X122.04 Y135.103 E6.04384
G1 E4.29384 F6000
;WIPE_START
G1 F3000
G1 X121.972 Y134.89 E4.12581
G1 X121.322 Y135.314 E3.54384
;WIPE_END
G92 E0
G1 X125.448 Y162.519 F18000
G1 E2.5 F6000
G1 F3000
G1 X125.448 Y158.775 E2.66252
G1 X124.95 Y163.267 F18000
G1 F3000
G1 X124.95 Y154.834 E3.02862
G3 X124.452 Y153.018 I3.646 J-1.977 E3.11104
G1 X124.452 Y163.508 E3.56639
G3 X123.953 Y163.885 I-1.119 J-.961 E3.59373
G1 X123.953 Y148.336 E4.26869
G2 X123.455 Y147.464 I-1.065 J.03 E4.31408
G1 X123.455 Y164.167 E5.0391
G1 X122.957 Y164.375 E5.06255
G1 X122.957 Y147.125 E5.81138
G2 X122.458 Y146.963 I-1.047 J2.386 E5.83416
G1 X122.458 Y164.474 E6.59429
G3 X121.96 Y164.535 I-.413 J-1.314 E6.6162
G1 X121.96 Y146.887 E7.3823
G1 X121.629 Y146.777 E7.39744
G1 X121.462 Y145.873 E7.43734
G1 X121.462 Y164.521 E8.2468
G3 X120.963 Y164.435 I-.027 J-1.342 E8.26888
G1 X120.963 Y144.537 E9.13264
G2 X120.465 Y143.733 I-5.189 J2.661 E9.17373
G1 X120.465 Y164.31 E10.06693
G1 X119.967 Y164.065 E10.09104
G1 X119.967 Y143.078 E11.00206
G2 X119.468 Y142.434 I-4.17 J2.712 E11.03744
G1 X119.468 Y163.742 E11.96241
G3 X118.97 Y163.302 I.766 J-1.37 E11.99148
G1 X118.97 Y141.863 E12.92211
G2 X118.472 Y141.382 I-3.219 J2.837 E12.95221
G1 X118.472 Y156.684 E13.61644
G1 X117.973 Y156.517 E13.63925
G1 X117.973 Y140.934 E14.31569
G1 X117.563 Y140.564 E14.33965
G1 X117.973 Y140.447 E14.35817
G1 X117.973 Y137.906 E14.46847
G3 X117.475 Y138.184 I-7.589 J-13.031 E14.49323
G1 X117.475 Y156.285 E15.27898
G3 X116.977 Y155.921 I.356 J-1.01 E15.30615
G1 X116.977 Y138.444 E16.06479
G1 X116.478 Y138.705 E16.0892
G1 X116.478 Y155.236 E16.80681
G3 X116.291 Y152.9 I2.855 J-1.404 E16.91098
G1 X115.98 Y152.862 E16.9246
G1 X115.98 Y138.955 E17.52828
G1 X115.482 Y139.193 E17.55225
G1 X115.482 Y152.801 E18.14295
G1 X114.983 Y152.74 E18.16474
G1 X114.983 Y139.208 E18.75216
G1 X121.462 Y138.145 F18000
G1 F3000
G1 X121.462 Y135.744 E18.8564
G3 X120.963 Y136.08 I-16.742 J-24.325 E18.88248
G1 X120.963 Y138.611 E18.99238
G1 X120.465 Y139.21 E19.0262
G1 X120.465 Y136.41 E19.14774
G3 X119.967 Y136.725 I-7.626 J-11.525 E19.17333
G1 X119.967 Y139.611 E19.29863
G3 X119.468 Y139.919 I-1.01 J-1.078 E19.32422
G1 X119.468 Y137.032 E19.44952
G3 X118.97 Y137.337 I-8.803 J-13.806 E19.47489
G1 X118.97 Y140.163 E19.59753
G1 X118.472 Y140.305 E19.62003
G1 X118.472 Y137.391 E19.74653
G1 X118.472 Y163.013 F18000
G1 F3000
G1 X118.472 Y158.649 E19.93595
G2 X117.973 Y159.99 I4.938 J2.599 E19.99821
G1 X117.973 Y162.08 E20.08895
G1 E18.33895 F6000
;WIPE_START
G1 F3000
G1 X117.973 Y161.08 E17.58895
;WIPE_END
G92 E0
G1 X114.485 Y152.835 F18000
G1 E2.5 F6000
G1 F3000
G1 X114.485 Y140.217 E3.04775
G2 X113.987 Y140.369 I3.739 J13.149 E3.07036
G1 X113.987 Y152.489 E3.59648
G1 X113.488 Y152.263 E3.62022
G1 X113.488 Y140.541 E4.12909
G1 X112.99 Y140.816 E4.1538
G1 X112.99 Y151.991 E4.63891
G3 X112.492 Y151.679 I.681 J-1.641 E4.66455
G1 X112.492 Y141.151 E5.12155
G2 X111.993 Y141.571 I1.211 J1.943 E5.14993
G1 X111.993 Y151.238 E5.56955
G3 X111.495 Y150.681 I1.709 J-2.031 E5.6021
G1 X111.495 Y142.137 E5.97299
G2 X110.997 Y142.882 I2.4 J2.143 E6.01205
G1 X110.997 Y149.92 E6.31755
G3 X110.498 Y148.864 I2.54 J-1.844 E6.36853
G1 X110.498 Y143.404 E6.60555
G1 E4.85555 F6000
;WIPE_START
G1 F3000
G1 X110.498 Y144.404 E4.10555
;WIPE_END
G92 E0
G1 X109.461 Y140.088 F18000
G1 E2.5 F6000
;TYPE:Brim
G1 F3000
G1 X108.541 Y140.375 E2.54184
G1 X107.066 Y140.783 E2.60826
G1 X105.578 Y141.137 E2.67468
G1 X104.078 Y141.438 E2.74108
G1 X102.41 Y141.708 E2.81442
G1 X100.892 Y141.896 E2.88083
G1 X99.367 Y142.029 E2.94725
G1 X97.84 Y142.108 E3.01366
G1 X96.474 Y142.133 E3.07295
G1 X95.831 Y142.096 E3.10091
G1 X95.208 Y141.966 E3.12854
G1 X94.649 Y141.763 E3.15435
G1 X94.079 Y141.475 E3.18209
G1 X93.56 Y141.107 E3.20968
G1 X93.102 Y140.666 E3.23727
G1 X92.718 Y140.165 E3.2647
G1 X92.285 Y139.314 E3.30613
G1 X92.092 Y138.71 E3.33366
G1 X91.992 Y138.082 E3.36126
G1 X91.976 Y136.73 E3.41996
G1 X92.024 Y136.089 E3.44786
G1 X92.165 Y135.468 E3.47549
G1 X92.378 Y134.913 E3.50129
G1 X92.676 Y134.348 E3.52903
G1 X93.053 Y133.836 E3.55662
G1 X93.502 Y133.387 E3.58422
G1 X94.011 Y133.01 E3.61169
G1 X94.791 Y132.622 E3.64951
G1 X95.393 Y132.43 E3.67692
G1 X96.319 Y132.312 E3.71746
G1 X97.585 Y132.29 E3.77242
G1 X98.778 Y132.225 E3.82427
G1 X99.968 Y132.117 E3.87614
G1 X101.153 Y131.966 E3.928
G1 X102.324 Y131.774 E3.9795
G1 X103.503 Y131.537 E4.03171
G1 X104.665 Y131.259 E4.08358
G1 X105.808 Y130.942 E4.13508
G1 X106.955 Y130.578 E4.18729
G1 X108.08 Y130.176 E4.23915
G1 X109.19 Y129.734 E4.29101
G1 X110.276 Y129.255 E4.34256
G1 X111.351 Y128.734 E4.3944
G1 X112.413 Y128.171 E4.44659
G1 X113.441 Y127.578 E4.4981
G1 X114.453 Y126.943 E4.54996
G1 X115.442 Y126.273 E4.60182
G1 X116.413 Y125.563 E4.65403
G1 X117.344 Y124.828 E4.70553
G1 X118.255 Y124.054 E4.7574
G1 X119.143 Y123.243 E4.80961
G1 X119.995 Y122.406 E4.86147
G1 X120.812 Y121.545 E4.91298
G1 X121.607 Y120.642 E4.96518
G1 X122.363 Y119.718 E5.01704
G1 X123.082 Y118.773 E5.06856
G1 X123.774 Y117.79 E5.12076
G1 X124.427 Y116.789 E5.17262
G1 X125.039 Y115.773 E5.22414
G1 X125.618 Y114.727 E5.27599
G1 X126.155 Y113.668 E5.32754
G1 X126.664 Y112.57 E5.38008
G1 X127.125 Y111.469 E5.43192
G1 X127.545 Y110.359 E5.48343
G1 X127.929 Y109.219 E5.53564
G1 X128.269 Y108.074 E5.58749
G1 X128.566 Y106.925 E5.63901
G1 X128.822 Y105.765 E5.69056
G1 X129.038 Y104.583 E5.74274
G1 X129.21 Y103.401 E5.79459
G1 X129.34 Y102.205 E5.8468
G1 X129.427 Y101.014 E5.89865
G1 X129.47 Y99.82 E5.95052
G1 X129.47 Y98.625 E6.00238
G1 X129.427 Y97.431 E6.05423
G1 X129.341 Y96.248 E6.10574
G1 X129.212 Y95.06 E6.15761
G1 X129.039 Y93.87 E6.20981
G1 X128.825 Y92.694 E6.26167
G1 X128.57 Y91.535 E6.31318
G1 X128.271 Y90.379 E6.36504
G1 X127.929 Y89.226 E6.41725
G1 X127.55 Y88.101 E6.46876
G1 X127.128 Y86.983 E6.52062
G1 X126.666 Y85.881 E6.57252
G1 X126.161 Y84.79 E6.62471
G1 X125.621 Y83.725 E6.67655
G1 X125.047 Y82.686 E6.72806
G1 X124.43 Y81.662 E6.77996
G1 X123.774 Y80.654 E6.83214
G1 X123.091 Y79.685 E6.88364
G1 X122.368 Y78.733 E6.93549
G1 X121.606 Y77.803 E6.98771
G1 X120.821 Y76.912 E7.03926
G1 X120 Y76.044 E7.09109
G1 X119.149 Y75.207 E7.14293
G1 X118.261 Y74.396 E7.19514
G1 X117.35 Y73.622 E7.247
G1 X116.419 Y72.887 E7.29851
G1 X115.455 Y72.181 E7.35037
G1 X114.46 Y71.506 E7.40258
G1 X113.447 Y70.872 E7.45443
G1 X112.413 Y70.274 E7.50631
G1 X111.357 Y69.715 E7.55816
G1 X110.282 Y69.193 E7.61002
G1 X109.189 Y68.711 E7.66188
G1 X108.079 Y68.269 E7.71374
G1 X106.954 Y67.867 E7.7656
G1 X105.815 Y67.506 E7.81745
G1 X104.664 Y67.186 E7.86932
G1 X103.51 Y66.91 E7.92083
G1 X102.339 Y66.674 E7.97268
G1 X101.154 Y66.479 E8.02483
G1 X99.607 Y66.273 E8.09256
G1 X84.277 Y63.28 E8.7706
G1 X83.656 Y63.11 E8.79856
G1 X83.073 Y62.852 E8.82619
G1 X82.569 Y62.537 E8.85199
G1 X82.072 Y62.136 E8.87973
G1 X81.642 Y61.668 E8.90732
G1 X81.287 Y61.141 E8.93491
G1 X81.015 Y60.57 E8.96236
G1 X80.776 Y59.688 E9.002
G1 X80.708 Y59.057 E9.02955
G1 X80.736 Y58.421 E9.05719
G1 X80.976 Y57.126 E9.11435
G1 X81.146 Y56.506 E9.14226
G1 X81.404 Y55.923 E9.16995
G1 X81.652 Y55.517 E9.1906
G1 X82.12 Y54.922 E9.22348
G1 X82.588 Y54.493 E9.25102
G1 X83.115 Y54.138 E9.27861
G1 X83.687 Y53.865 E9.30611
G1 X84.461 Y53.646 E9.34105
G1 X85.199 Y53.56 E9.3733
G1 X85.837 Y53.587 E9.40102
G1 X101.34 Y56.601 E10.0866
G1 X102.722 Y56.783 E10.14708
G1 X104.231 Y57.036 E10.21349
G1 X105.574 Y57.308 E10.27298
G1 X107.063 Y57.662 E10.33941
G1 X108.691 Y58.115 E10.41276
G1 X109.997 Y58.528 E10.47224
G1 X111.439 Y59.039 E10.53865
G1 X112.862 Y59.602 E10.60506
G1 X114.264 Y60.214 E10.67148
G1 X115.643 Y60.876 E10.7379
G1 X116.998 Y61.587 E10.8043
G1 X118.327 Y62.346 E10.87073
G1 X119.713 Y63.206 E10.94155
G1 X121.021 Y64.088 E11.01001
G1 X122.289 Y65.013 E11.07816
G1 X123.422 Y65.901 E11.14063
G1 X124.41 Y66.727 E11.19655
G1 X125.666 Y67.854 E11.2698
G1 X126.868 Y69.021 E11.34254
G1 X127.817 Y70.01 E11.40203
G1 X128.839 Y71.149 E11.46844
G1 X129.819 Y72.324 E11.53486
G1 X130.757 Y73.533 E11.60128
G1 X131.741 Y74.906 E11.67461
G1 X132.5 Y76.047 E11.73408
G1 X133.303 Y77.349 E11.80052
G1 X134.135 Y78.819 E11.87384
G1 X134.839 Y80.178 E11.94025
G1 X135.493 Y81.561 E12.00666
G1 X136.037 Y82.819 E12.06615
G1 X136.597 Y84.243 E12.13258
G1 X137.155 Y85.837 E12.2059
G1 X137.607 Y87.299 E12.27232
G1 X138.006 Y88.776 E12.33873
G1 X138.318 Y90.11 E12.39822
G1 X138.644 Y91.769 E12.47158
G1 X138.861 Y93.122 E12.53107
G1 X139.051 Y94.639 E12.59747
G1 X139.198 Y96.322 E12.6708
G1 X139.275 Y97.851 E12.73723
G1 X139.297 Y99.221 E12.79672
G1 X139.269 Y100.751 E12.86312
G1 X139.188 Y102.278 E12.92954
G1 X139.034 Y103.961 E13.00288
G1 X138.861 Y105.32 E13.06236
G1 X138.617 Y106.831 E13.12878
G1 X138.286 Y108.479 E13.20174
G1 X137.928 Y109.975 E13.26853
G1 X137.563 Y111.296 E13.32802
G1 X137.106 Y112.756 E13.39443
G1 X136.545 Y114.341 E13.4674
G1 X135.978 Y115.77 E13.53417
G1 X135.362 Y117.171 E13.60059
G1 X134.769 Y118.407 E13.66007
G1 X133.984 Y119.903 E13.73342
G1 X133.223 Y121.23 E13.79983
G1 X132.502 Y122.395 E13.85931
G1 X131.561 Y123.799 E13.93267
G1 X130.759 Y124.91 E13.99216
G1 X129.821 Y126.119 E14.05857
G1 X128.841 Y127.294 E14.12498
G1 X127.711 Y128.549 E14.19831
G1 X126.645 Y129.648 E14.26473
G1 X125.658 Y130.598 E14.32422
G1 X124.446 Y131.688 E14.39498
G1 X123.222 Y132.706 E14.46407
G1 X122.073 Y133.595 E14.52716
G1 X120.911 Y134.434 E14.58939
G1 X119.619 Y135.3 E14.65688
G1 X118.192 Y136.179 E14.72963
G1 X117.001 Y136.857 E14.78912
G1 X115.647 Y137.568 E14.85552
G1 X114.122 Y138.296 E14.92888
G1 X112.865 Y138.842 E14.98836
G1 X111.442 Y139.405 E15.05477
G1 X109.849 Y139.966 E15.12811
G1 X109.499 Y140.076 E15.14401
G1 X109.365 Y139.648 F18000
G1 F3000
G1 X108.412 Y139.946 E15.18736
G1 X106.957 Y140.347 E15.2529
G1 X105.484 Y140.698 E15.31863
G1 X103.995 Y140.997 E15.38453
G1 X102.349 Y141.263 E15.45691
G1 X100.842 Y141.45 E15.52282
G1 X99.334 Y141.582 E15.58855
G1 X97.826 Y141.66 E15.65408
G1 X96.478 Y141.684 E15.71264
G1 X95.88 Y141.648 E15.73862
G1 X95.34 Y141.535 E15.76256
G1 X94.82 Y141.347 E15.78658
G1 X94.303 Y141.084 E15.81177
G1 X93.84 Y140.754 E15.83645
G1 X93.445 Y140.373 E15.86025
G1 X93.093 Y139.913 E15.88538
G1 X92.698 Y139.133 E15.92337
G1 X92.528 Y138.596 E15.94782
G1 X92.441 Y138.053 E15.97166
G1 X92.425 Y136.75 E16.02825
G1 X92.471 Y136.146 E16.05454
