; HEADER_BLOCK_START
; generated by AnycubicSlicerNext 1.3.1 on 2026-02-06 at 10:56:36
; total layer number: 115
; filament_density: 1.24
; filament_diameter: 1.75
; max_z_height: 23.04
; HEADER_BLOCK_END

; THUMBNAIL_BLOCK_START

;
; THUMBNAIL_BLOCK_END

; external perimeters extrusion width = 0.42mm
; perimeters extrusion width = 0.45mm
; infill extrusion width = 0.45mm
; solid infill extrusion width = 0.42mm
; top infill extrusion width = 0.42mm
; first layer extrusion width = 0.50mm

; EXECUTABLE_BLOCK_START
M201 X2000 Y2000 Z800 E2000
M203 X300 Y300 Z8 E100
M204 P2000 R2000 T2000
M205 X10.00 Y10.00 Z2.00 E5.00 ; sets the jerk limits, mm/sec
;TYPE:Custom
G90 ; use absolute coordinates
M83 ; extruder relative mode
M104 S220 ; set extruder temp
M140 S60 ; set bed temp
M190 S60 ; wait for bed temp
M109 S220 ; wait for extruder temp
G28                                        ; move X/Y/Z to min endstops
G1 Z0.28                                   ; lift nozzle a bit 
G92 E0 
G1 Y3 F1800                                    ; zero the extruded length 
G1 X60  E25 F500                       ; Extrude 25mm of filament in a 5cm line. 
G92 E0                                     ; zero the extruded length again 
G1 E-2 F500                                ; Retract a little 
G1 X70 F4000                              ; Quickly wipe away from the filament line
M117
G90
G21
M82 ; use absolute distances for extrusion
G92 E0
; filament start gcode
M106 S0
;LAYER_CHANGE
;Z:0.24
;HEIGHT:0.24
; BEFORE_LAYER_CHANGE 0 @ 0.24mm
G1 E-2.5 F6000
G92 E0
; AFTER_LAYER_CHANGE 0 @ 0.24mm
;_SET_FAN_SPEED_CHANGING_LAYER
M204 P500
; printing object "orianted.stl" id:9598156690295590 copy 0
M204 T500
G1 X140.581 Y124.38 F18000
G1 Z.24
G1 E2.5 F6000
;TYPE:Brim
;WIDTH:0.5
G1 F3000
G1 X140.887 Y124.045 E2.51967
G1 X141.201 Y123.76 E2.53807
G1 X146.616 Y119.315 E2.84218
G1 X146.982 Y119.046 E2.86189
G1 X147.346 Y118.828 E2.88033
G1 X153.526 Y115.527 E3.18446
G1 X153.935 Y115.335 E3.20409
G1 X154.334 Y115.193 E3.22246
G1 X161.041 Y113.158 E3.52671
G1 X161.48 Y113.049 E3.54634
G1 X161.899 Y112.987 E3.56472
G1 X168.872 Y112.298 E3.86888
G1 X169.297 Y112.277 E3.88734
G1 X169.75 Y112.298 E3.90706
G1 X176.723 Y112.987 E4.2112
G1 X177.17 Y113.055 E4.23085
G1 X177.581 Y113.158 E4.24924
G1 X184.285 Y115.193 E4.55332
G1 X184.709 Y115.346 E4.57294
G1 X185.092 Y115.527 E4.59129
G1 X191.272 Y118.828 E4.89542
G1 X191.66 Y119.062 E4.91513
G1 X192.002 Y119.315 E4.93356
G1 X197.417 Y123.76 E5.23767
G1 X197.751 Y124.065 E5.25732
G1 X198.036 Y124.379 E5.27571
G1 X202.482 Y129.796 E5.57994
G1 X202.751 Y130.161 E5.59962
G1 X202.97 Y130.525 E5.61804
G1 X206.272 Y136.705 E5.92221
G1 X206.464 Y137.115 E5.94185
G1 X206.607 Y137.513 E5.96023
G1 X208.642 Y144.216 E6.26431
G1 X208.751 Y144.657 E6.28402
G1 X208.813 Y145.077 E6.30247
G1 X209.498 Y152.052 E6.60669
G1 X209.519 Y152.503 E6.62629
G1 X209.498 Y152.926 E6.64464
G1 X208.813 Y159.898 E6.94878
G1 X208.745 Y160.347 E6.96849
G1 X208.642 Y160.759 E6.98693
G1 X206.607 Y167.463 E7.29101
G1 X206.453 Y167.888 E7.31065
G1 X206.272 Y168.271 E7.32903
G1 X202.97 Y174.451 E7.6332
G1 X202.736 Y174.839 E7.65288
G1 X202.483 Y175.18 E7.6713
G1 X198.036 Y180.597 E7.97553
G1 X197.731 Y180.931 E7.99518
G1 X197.417 Y181.216 E8.01356
G1 X192.002 Y185.661 E8.31767
G1 X191.637 Y185.93 E8.33738
G1 X191.272 Y186.148 E8.35582
G1 X185.092 Y189.449 E8.65995
G1 X184.683 Y189.641 E8.67956
G1 X184.285 Y189.783 E8.69792
G1 X177.582 Y191.818 E9.002
G1 X177.142 Y191.927 E9.02168
G1 X176.722 Y191.989 E9.0401
G1 X169.749 Y192.676 E9.34424
G1 X169.297 Y192.697 E9.3639
G1 X168.873 Y192.676 E9.38231
G1 X161.9 Y191.989 E9.68645
G1 X161.453 Y191.921 E9.70611
G1 X161.041 Y191.818 E9.72451
G1 X154.334 Y189.783 E10.02877
G1 X153.909 Y189.63 E10.04839
G1 X153.526 Y189.449 E10.06677
G1 X147.346 Y186.148 E10.37089
G1 X146.958 Y185.914 E10.39059
G1 X146.616 Y185.661 E10.40904
G1 X141.201 Y181.216 E10.71315
G1 X140.866 Y180.911 E10.73282
G1 X140.582 Y180.596 E10.75122
G1 X136.137 Y175.179 E11.0554
G1 X135.868 Y174.815 E11.07506
G1 X135.65 Y174.451 E11.09346
G1 X132.348 Y168.271 E11.39763
G1 X132.155 Y167.861 E11.41729
G1 X132.013 Y167.462 E11.4357
G1 X129.98 Y160.759 E11.73975
G1 X129.871 Y160.32 E11.75938
G1 X129.809 Y159.901 E11.77775
G1 X129.12 Y152.928 E12.08189
G1 X129.099 Y152.475 E12.10161
G1 X129.12 Y152.05 E12.12007
G1 X129.809 Y145.075 E12.42431
G1 X129.877 Y144.628 E12.44394
G1 X129.98 Y144.218 E12.4623
G1 X132.012 Y137.515 E12.76636
G1 X132.166 Y137.089 E12.78602
G1 X132.348 Y136.705 E12.80443
G1 X135.65 Y130.525 E13.1086
G1 X135.884 Y130.137 E13.12826
G1 X136.137 Y129.797 E13.14666
G1 X140.556 Y124.411 E13.4491
G1 X140.903 Y124.695 F18000
G1 F3000
G1 X140.919 Y124.676 E13.45018
G1 X141.208 Y124.359 E13.46884
G1 X141.497 Y124.098 E13.48571
G1 X146.889 Y119.672 E13.78853
G1 X147.225 Y119.424 E13.80667
G1 X147.57 Y119.217 E13.82413
G1 X153.724 Y115.93 E14.12697
G1 X154.113 Y115.748 E14.1456
G1 X154.478 Y115.618 E14.16243
G1 X161.157 Y113.591 E14.4654
G1 X161.573 Y113.489 E14.48403
G1 X161.957 Y113.432 E14.50087
G1 X168.902 Y112.746 E14.80379
G1 X169.304 Y112.727 E14.82127
G1 X169.715 Y112.746 E14.83912
G1 X176.664 Y113.432 E15.14224
G1 X177.088 Y113.497 E15.16088
G1 X177.465 Y113.591 E15.17774
G1 X184.14 Y115.617 E15.48054
G1 X184.543 Y115.764 E15.49915
G1 X184.893 Y115.929 E15.51597
G1 X191.047 Y119.216 E15.81882
G1 X191.405 Y119.432 E15.83696
G1 X191.728 Y119.671 E15.85441
G1 X197.121 Y124.097 E16.15724
G1 X197.438 Y124.387 E16.17588
G1 X197.698 Y124.674 E16.19273
G1 X202.126 Y130.069 E16.49568
G1 X202.374 Y130.405 E16.5138
G1 X202.581 Y130.749 E16.53124
G1 X205.87 Y136.903 E16.83412
G1 X206.047 Y137.28 E16.8522
G1 X206.182 Y137.657 E16.8696
G1 X208.208 Y144.332 E17.1724
G1 X208.309 Y144.738 E17.19054
G1 X208.368 Y145.136 E17.20801
G1 X209.05 Y152.081 E17.51094
G1 X209.069 Y152.509 E17.52955
G1 X209.05 Y152.896 E17.54636
G1 X208.368 Y159.839 E17.84922
G1 X208.306 Y160.253 E17.86736
G1 X208.209 Y160.643 E17.88482
G1 X206.182 Y167.318 E18.18762
G1 X206.041 Y167.709 E18.2057
G1 X205.87 Y168.072 E18.22309
G1 X202.581 Y174.226 E18.52598
G1 X202.366 Y174.583 E18.5441
G1 X202.127 Y174.906 E18.56154
G1 X197.699 Y180.301 E18.86449
G1 X197.418 Y180.609 E18.88258
G1 X197.122 Y180.878 E18.89998
G1 X191.729 Y185.304 E19.20281
G1 X191.393 Y185.552 E19.22094
G1 X191.048 Y185.759 E19.2384
G1 X184.894 Y189.046 E19.54125
G1 X184.518 Y189.223 E19.55931
G1 X184.141 Y189.358 E19.57668
G1 X177.466 Y191.384 E19.87948
G1 X177.061 Y191.485 E19.8976
G1 X176.664 Y191.544 E19.91503
G1 X169.72 Y192.228 E20.21789
G1 X169.291 Y192.247 E20.23655
G1 X168.903 Y192.228 E20.25342
G1 X161.96 Y191.544 E20.55627
G1 X161.547 Y191.482 E20.57438
G1 X161.158 Y191.385 E20.5918
G1 X154.479 Y189.359 E20.89477
G1 X154.087 Y189.217 E20.91284
G1 X153.725 Y189.047 E20.93023
G1 X147.571 Y185.76 E21.23307
G1 X147.213 Y185.544 E21.25121
G1 X146.89 Y185.305 E21.26867
G1 X141.497 Y180.879 E21.57149
G1 X141.189 Y180.598 E21.5896
G1 X140.919 Y180.301 E21.60702
G1 X136.493 Y174.907 E21.90992
G1 X136.246 Y174.571 E21.92802
G1 X136.039 Y174.227 E21.94543
G1 X132.75 Y168.073 E22.24832
G1 X132.573 Y167.696 E22.26643
G1 X132.438 Y167.318 E22.28385
G1 X130.413 Y160.643 E22.58662
G1 X130.313 Y160.239 E22.60469
G1 X130.254 Y159.843 E22.62207
G1 X129.568 Y152.9 E22.92494
G1 X129.549 Y152.469 E22.94365
G1 X129.568 Y152.08 E22.96057
G1 X130.254 Y145.134 E23.26352
G1 X130.316 Y144.723 E23.28159
G1 X130.413 Y144.334 E23.29898
G1 X132.437 Y137.659 E23.60175
G1 X132.579 Y137.267 E23.61986
G1 X132.75 Y136.904 E23.63728
G1 X136.039 Y130.75 E23.94017
G1 X136.254 Y130.393 E23.95827
G1 X136.492 Y130.07 E23.97568
G1 X140.877 Y124.726 E24.27577
G1 X141.224 Y125.011 F18000
G1 F3000
G1 X141.255 Y124.972 E24.27791
G1 X141.53 Y124.673 E24.29556
G1 X141.792 Y124.435 E24.3109
G1 X147.162 Y120.028 E24.61245
G1 X147.469 Y119.801 E24.62904
G1 X147.794 Y119.605 E24.6455
G1 X153.921 Y116.333 E24.94704
G1 X154.289 Y116.161 E24.96466
G1 X154.621 Y116.043 E24.97997
G1 X161.272 Y114.025 E25.28165
G1 X161.666 Y113.928 E25.29928
G1 X162.015 Y113.877 E25.31459
G1 X168.931 Y113.194 E25.61626
G1 X169.298 Y113.176 E25.63219
G1 X169.679 Y113.193 E25.64874
G1 X176.604 Y113.877 E25.95083
G1 X177.006 Y113.938 E25.96846
G1 X177.348 Y114.025 E25.98379
G1 X183.995 Y116.042 E26.28531
G1 X184.376 Y116.181 E26.30291
G1 X184.694 Y116.332 E26.31821
G1 X190.822 Y119.605 E26.61979
G1 X191.15 Y119.802 E26.63637
G1 X191.455 Y120.027 E26.65284
G1 X196.824 Y124.434 E26.95436
G1 X197.124 Y124.708 E26.97199
G1 X197.36 Y124.97 E26.98731
G1 X201.77 Y130.342 E27.28899
G1 X201.997 Y130.649 E27.30556
G1 X202.192 Y130.973 E27.32201
G1 X205.467 Y137.101 E27.62361
G1 X205.629 Y137.446 E27.64014
G1 X205.757 Y137.801 E27.65655
G1 X207.775 Y144.448 E27.95806
G1 X207.867 Y144.819 E27.97465
G1 X207.923 Y145.194 E27.99112
G1 X208.602 Y152.109 E28.29275
G1 X208.62 Y152.514 E28.31035
G1 X208.603 Y152.866 E28.32565
G1 X207.923 Y159.78 E28.62722
G1 X207.867 Y160.158 E28.64382
G1 X207.775 Y160.527 E28.66029
G1 X205.758 Y167.173 E28.9618
G1 X205.629 Y167.531 E28.97833
G1 X205.468 Y167.873 E28.99474
G1 X202.193 Y174.001 E29.29634
G1 X201.996 Y174.328 E29.31291
G1 X201.771 Y174.633 E29.32935
G1 X197.362 Y180.004 E29.63102
G1 X197.105 Y180.286 E29.64756
G1 X196.826 Y180.541 E29.66397
G1 X191.456 Y184.948 E29.96551
G1 X191.149 Y185.175 E29.98209
G1 X190.824 Y185.371 E29.99856
G1 X184.696 Y188.643 E30.30012
G1 X184.352 Y188.805 E30.31663
G1 X183.997 Y188.933 E30.33302
G1 X177.35 Y190.951 E30.63453
G1 X176.98 Y191.043 E30.6511
G1 X176.605 Y191.099 E30.66755
G1 X169.692 Y191.78 E30.9691
G1 X169.286 Y191.798 E30.98675
G1 X168.933 Y191.78 E31.00209
G1 X162.019 Y191.099 E31.30367
G1 X161.641 Y191.043 E31.32023
G1 X161.274 Y190.951 E31.33666
G1 X154.623 Y188.934 E31.63834
G1 X154.265 Y188.805 E31.65487
G1 X153.923 Y188.644 E31.67127
G1 X147.796 Y185.371 E31.97282
G1 X147.468 Y185.174 E31.98941
G1 X147.163 Y184.949 E32.00588
G1 X141.794 Y180.542 E32.30741
G1 X141.512 Y180.285 E32.32397
G1 X141.257 Y180.005 E32.3404
G1 X136.85 Y174.634 E32.64201
G1 X136.623 Y174.327 E32.65856
G1 X136.428 Y174.003 E32.67499
G1 X133.153 Y167.875 E32.97659
G1 X132.991 Y167.53 E32.99314
G1 X132.862 Y167.174 E33.00958
G1 X130.847 Y160.527 E33.31106
G1 X130.755 Y160.158 E33.32759
G1 X130.699 Y159.784 E33.34399
G1 X130.016 Y152.871 E33.64554
G1 X129.998 Y152.464 E33.66324
G1 X130.016 Y152.11 E33.67863
G1 X130.699 Y145.194 E33.98031
G1 X130.756 Y144.817 E33.99683
G1 X130.846 Y144.45 E34.01323
G1 X132.862 Y137.804 E34.31472
G1 X132.991 Y137.445 E34.33127
G1 X133.152 Y137.103 E34.34771
G1 X136.427 Y130.975 E34.64931
G1 X136.624 Y130.648 E34.66586
G1 X136.848 Y130.344 E34.68229
G1 X141.199 Y125.042 E34.98
G1 X141.546 Y125.326 F18000
G1 F3000
G1 X141.592 Y125.269 E34.98319
G1 X141.851 Y124.987 E34.99983
G1 X142.087 Y124.773 E35.01365
G1 X147.435 Y120.384 E35.31394
G1 X147.724 Y120.171 E35.32954
G1 X148.019 Y119.994 E35.34446
G1 X154.119 Y116.736 E35.64467
G1 X154.466 Y116.574 E35.66128
G1 X154.765 Y116.468 E35.67507
G1 X161.387 Y114.459 E35.97546
G1 X161.759 Y114.368 E35.99207
G1 X162.073 Y114.322 E36.00587
G1 X168.961 Y113.641 E36.30629
G1 X169.305 Y113.625 E36.32125
G1 X169.643 Y113.64 E36.33594
G1 X176.544 Y114.321 E36.63697
G1 X176.923 Y114.38 E36.6536
G1 X177.231 Y114.458 E36.66741
G1 X183.849 Y116.467 E36.96763
G1 X184.209 Y116.598 E36.98423
G1 X184.495 Y116.734 E36.99801
G1 X190.598 Y119.993 E37.29833
G1 X190.906 Y120.179 E37.31392
G1 X191.182 Y120.383 E37.32885
G1 X196.527 Y124.771 E37.62903
G1 X196.809 Y125.029 E37.64565
G1 X197.023 Y125.265 E37.65946
G1 X201.414 Y130.615 E37.95988
G1 X201.627 Y130.904 E37.97546
G1 X201.804 Y131.198 E37.99036
G1 X205.064 Y137.299 E38.29067
G1 X205.216 Y137.624 E38.30621
G1 X205.332 Y137.946 E38.32108
G1 X207.341 Y144.564 E38.62129
G1 X207.427 Y144.913 E38.63689
G1 X207.478 Y145.253 E38.65182
G1 X208.154 Y152.138 E38.95212
G1 X208.171 Y152.519 E38.96871
G1 X208.155 Y152.836 E38.98249
G1 X207.479 Y159.722 E39.28281
G1 X207.425 Y160.077 E39.29841
G1 X207.342 Y160.411 E39.31334
G1 X205.333 Y167.028 E39.61355
G1 X205.211 Y167.365 E39.62909
G1 X205.065 Y167.675 E39.64397
G1 X201.804 Y173.777 E39.94426
G1 X201.619 Y174.084 E39.95984
G1 X201.415 Y174.36 E39.97475
G1 X197.025 Y179.708 E40.27512
G1 X196.783 Y179.973 E40.29067
G1 X196.53 Y180.204 E40.30555
G1 X191.183 Y184.592 E40.60578
G1 X190.894 Y184.805 E40.62138
G1 X190.599 Y184.982 E40.63631
G1 X184.498 Y188.241 E40.93656
G1 X184.174 Y188.393 E40.95209
G1 X183.852 Y188.508 E40.96694
G1 X177.234 Y190.517 E41.26716
G1 X176.886 Y190.603 E41.28274
G1 X176.546 Y190.654 E41.29764
G1 X169.664 Y191.332 E41.59786
G1 X169.281 Y191.349 E41.6145
G1 X168.963 Y191.333 E41.62832
G1 X162.077 Y190.654 E41.92864
G1 X161.723 Y190.601 E41.94421
G1 X161.39 Y190.518 E41.9591
G1 X154.768 Y188.509 E42.25948
G1 X154.431 Y188.387 E42.27502
G1 X154.121 Y188.242 E42.28989
G1 X148.02 Y184.983 E42.59015
G1 X147.713 Y184.797 E42.60574
G1 X147.436 Y184.593 E42.62067
G1 X142.09 Y180.205 E42.9209
G1 X141.825 Y179.963 E42.93647
G1 X141.594 Y179.709 E42.95137
G1 X137.206 Y174.361 E43.25168
G1 X136.993 Y174.072 E43.26724
G1 X136.816 Y173.778 E43.28213
G1 X133.556 Y167.677 E43.58243
G1 X133.403 Y167.352 E43.59799
G1 X133.287 Y167.029 E43.61289
G1 X131.28 Y160.411 E43.91308
G1 X131.195 Y160.064 E43.92862
G1 X131.144 Y159.725 E43.94348
G1 X130.464 Y152.843 E44.2437
G1 X130.447 Y152.459 E44.26038
G1 X130.463 Y152.14 E44.27425
G1 X131.144 Y145.252 E44.57467
G1 X131.197 Y144.899 E44.5902
G1 X131.28 Y144.566 E44.60507
G1 X133.287 Y137.948 E44.90526
G1 X133.409 Y137.611 E44.92082
G1 X133.555 Y137.301 E44.93572
G1 X136.816 Y131.199 E45.23602
G1 X137.001 Y130.892 E45.25158
G1 X137.205 Y130.617 E45.26647
G1 X141.52 Y125.357 E45.5618
G1 X141.867 Y125.641 F18000
G1 F3000
G1 X141.929 Y125.566 E45.56603
G1 X142.172 Y125.301 E45.58165
G1 X142.383 Y125.111 E45.59396
G1 X147.707 Y120.741 E45.89299
G1 X147.978 Y120.541 E45.90759
G1 X148.243 Y120.383 E45.92098
G1 X154.316 Y117.139 E46.21985
G1 X154.642 Y116.988 E46.23544
G1 X154.909 Y116.893 E46.24773
G1 X161.502 Y114.893 E46.54682
G1 X161.851 Y114.808 E46.56242
G1 X162.131 Y114.767 E46.57471
G1 X168.99 Y114.089 E46.87388
G1 X169.299 Y114.074 E46.88733
G1 X169.607 Y114.088 E46.90071
G1 X176.484 Y114.766 E47.20067
G1 X176.827 Y114.819 E47.21574
G1 X177.114 Y114.891 E47.22859
G1 X183.704 Y116.891 E47.52751
G1 X184.041 Y117.015 E47.54309
G1 X184.296 Y117.136 E47.55537
G1 X190.373 Y120.382 E47.85442
G1 X190.661 Y120.556 E47.86902
G1 X190.909 Y120.739 E47.88242
G1 X196.23 Y125.107 E48.18126
G1 X196.495 Y125.35 E48.19687
G1 X196.685 Y125.561 E48.20916
G1 X201.057 Y130.887 E48.50831
G1 X201.249 Y131.148 E48.52236
G1 X201.415 Y131.422 E48.53628
G1 X204.662 Y137.497 E48.83528
G1 X204.804 Y137.801 E48.84983
G1 X204.908 Y138.09 E48.86318
G1 X206.908 Y144.679 E49.16208
G1 X206.985 Y144.994 E49.17614
G1 X207.033 Y145.311 E49.19009
G1 X207.707 Y152.165 E49.48904
G1 X207.722 Y152.524 E49.50462
G1 X207.707 Y152.806 E49.51689
G1 X207.034 Y159.663 E49.81595
G1 X206.985 Y159.983 E49.83001
G1 X206.908 Y160.295 E49.84395
G1 X204.908 Y166.884 E50.14285
G1 X204.799 Y167.187 E50.15686
G1 X204.663 Y167.477 E50.17075
G1 X201.416 Y173.552 E50.46975
G1 X201.249 Y173.829 E50.48379
G1 X201.059 Y174.087 E50.49771
G1 X196.688 Y179.412 E50.79677
G1 X196.461 Y179.659 E50.81133
G1 X196.234 Y179.866 E50.82468
G1 X190.911 Y184.235 E51.12361
G1 X190.65 Y184.428 E51.13767
G1 X190.375 Y184.594 E51.15161
G1 X184.3 Y187.838 E51.45056
G1 X184.008 Y187.975 E51.46456
G1 X183.708 Y188.084 E51.47843
G1 X177.119 Y190.084 E51.77734
G1 X176.805 Y190.161 E51.79138
G1 X176.488 Y190.209 E51.8053
G1 X169.636 Y190.884 E52.10417
G1 X169.276 Y190.899 E52.1198
G1 X168.993 Y190.885 E52.13211
G1 X162.137 Y190.21 E52.43117
G1 X161.817 Y190.161 E52.4452
G1 X161.506 Y190.084 E52.45911
G1 X154.913 Y188.084 E52.75819
G1 X154.609 Y187.975 E52.77219
G1 X154.32 Y187.839 E52.78608
G1 X148.245 Y184.594 E53.08503
G1 X147.968 Y184.427 E53.09908
G1 X147.709 Y184.237 E53.11302
