; HEADER_BLOCK_START
; generated by AnycubicSlicerNext 1.3.1 on 2026-02-05 at 10:56:07
; total layer number: 100
; filament_density: 1.24
; filament_diameter: 1.75
; max_z_height: 20.04
; HEADER_BLOCK_END

; THUMBNAIL_BLOCK_START

;
; THUMBNAIL_BLOCK_END

; external perimeters extrusion width = 0.42mm
; perimeters extrusion width = 0.45mm
; infill extrusion width = 0.45mm
; solid infill extrusion width = 0.42mm
; top infill extrusion width = 0.42mm
; first layer extrusion width = 0.50mm

; external perimeters extrusion width = 0.42mm
; perimeters extrusion width = 0.45mm
; infill extrusion width = 0.45mm
; solid infill extrusion width = 0.42mm
; top infill extrusion width = 0.42mm
; first layer extrusion width = 0.50mm

; EXECUTABLE_BLOCK_START
M201 X2000 Y2000 Z800 E2000
M203 X300 Y300 Z8 E100
M204 P2000 R2000 T2000
M205 X10.00 Y10.00 Z2.00 E5.00 ; sets the jerk limits, mm/sec
;TYPE:Custom
G90 ; use absolute coordinates
M83 ; extruder relative mode
M104 S220 ; set extruder temp
M140 S60 ; set bed temp
M190 S60 ; wait for bed temp
M109 S220 ; wait for extruder temp
G28                                        ; move X/Y/Z to min endstops
G1 Z0.28                                   ; lift nozzle a bit 
G92 E0 
G1 Y3 F1800                                    ; zero the extruded length 
G1 X60  E25 F500                       ; Extrude 25mm of filament in a 5cm line. 
G92 E0                                     ; zero the extruded length again 
G1 E-2 F500                                ; Retract a little 
G1 X70 F4000                              ; Quickly wipe away from the filament line
M117
G90
G21
M82 ; use absolute distances for extrusion
G92 E0
; filament start gcode
M106 S0
;LAYER_CHANGE
;Z:0.24
;HEIGHT:0.24
; BEFORE_LAYER_CHANGE 0 @ 0.24mm
G1 E-2.5 F6000
G92 E0
; AFTER_LAYER_CHANGE 0 @ 0.24mm
;_SET_FAN_SPEED_CHANGING_LAYER
M204 P500
; printing object "picture.stl" id:0 copy 0
M204 T500
G1 X24.142 Y19.813 F18000
G1 Z.24
G1 E2.5 F6000
;TYPE:Brim
;WIDTH:0.5
G1 F3000
G1 X25.688 Y17.928 E2.60581
G1 X25.993 Y17.594 E2.62548
G1 X26.307 Y17.309 E2.64388
G1 X33.875 Y11.098 E3.06886
G1 X34.24 Y10.829 E3.08853
G1 X34.604 Y10.611 E3.10693
G1 X43.238 Y5.996 E3.53192
G1 X43.648 Y5.804 E3.55158
G1 X44.047 Y5.661 E3.56998
G1 X53.416 Y2.819 E3.99497
G1 X53.856 Y2.71 E4.01463
G1 X54.275 Y2.648 E4.03303
G1 X64.019 Y1.688 E4.45803
G1 X64.442 Y1.667 E4.47644
G1 X64.895 Y1.688 E4.4961
G1 X74.638 Y2.648 E4.92107
G1 X75.086 Y2.716 E4.94074
G1 X75.497 Y2.819 E4.95914
G1 X84.865 Y5.661 E5.38412
G1 X85.292 Y5.815 E5.40379
G1 X85.675 Y5.996 E5.42219
G1 X94.309 Y10.611 E5.84717
G1 X94.697 Y10.845 E5.86684
G1 X95.037 Y11.098 E5.88524
G1 X102.606 Y17.309 E6.31023
G1 X102.94 Y17.614 E6.32989
G1 X103.225 Y17.928 E6.34829
G1 X109.436 Y25.496 E6.77328
G1 X109.705 Y25.861 E6.79294
G1 X109.923 Y26.224 E6.81134
G1 X114.538 Y34.859 E7.23633
G1 X114.73 Y35.269 E7.25599
G1 X114.873 Y35.668 E7.2744
G1 X117.715 Y45.037 E7.69938
G1 X117.824 Y45.476 E7.71904
G1 X117.886 Y45.896 E7.73745
G1 X118.845 Y55.639 E8.16243
G1 X118.866 Y56.092 E8.1821
G1 X118.845 Y56.515 E8.2005
G1 X117.886 Y66.258 E8.62549
G1 X117.818 Y66.706 E8.64515
G1 X117.715 Y67.117 E8.66355
G1 X114.873 Y76.486 E9.08854
G1 X114.719 Y76.912 E9.1082
G1 X114.538 Y77.295 E9.1266
G1 X109.923 Y85.93 E9.55159
G1 X109.689 Y86.318 E9.57125
G1 X109.436 Y86.658 E9.58966
G1 X103.225 Y94.226 E10.01464
G1 X102.92 Y94.561 E10.0343
G1 X102.606 Y94.846 E10.05271
G1 X95.038 Y101.056 E10.47769
G1 X94.673 Y101.325 E10.49736
G1 X94.309 Y101.543 E10.51576
G1 X85.675 Y106.158 E10.94074
G1 X85.265 Y106.351 E10.96041
G1 X84.866 Y106.494 E10.97881
G1 X75.497 Y109.336 E11.4038
G1 X75.057 Y109.444 E11.42346
G1 X74.638 Y109.506 E11.44186
G1 X64.895 Y110.466 E11.86685
G1 X64.442 Y110.487 E11.88651
G1 X64.019 Y110.466 E11.90491
G1 X54.276 Y109.506 E12.3299
G1 X53.828 Y109.439 E12.34957
G1 X53.416 Y109.336 E12.36797
G1 X44.048 Y106.494 E12.79295
G1 X43.622 Y106.34 E12.81262
G1 X43.238 Y106.158 E12.83102
G1 X34.604 Y101.543 E13.256
G1 X34.216 Y101.309 E13.27567
G1 X33.876 Y101.057 E13.29407
G1 X26.308 Y94.846 E13.71906
G1 X25.973 Y94.541 E13.73872
G1 X25.688 Y94.226 E13.75712
G1 X19.477 Y86.658 E14.18211
G1 X19.209 Y86.294 E14.20177
G1 X18.991 Y85.93 E14.22017
G1 X14.375 Y77.296 E14.64516
G1 X14.183 Y76.886 E14.66482
G1 X14.04 Y76.486 E14.68323
G1 X11.198 Y67.118 E15.10821
G1 X11.09 Y66.678 E15.12787
G1 X11.027 Y66.259 E15.14628
G1 X10.068 Y56.515 E15.57126
G1 X10.047 Y56.063 E15.59093
G1 X10.068 Y55.639 E15.60933
G1 X11.027 Y45.896 E16.03431
G1 X11.095 Y45.448 E16.05398
G1 X11.198 Y45.037 E16.07238
G1 X14.04 Y35.668 E16.49737
G1 X14.194 Y35.242 E16.51703
G1 X14.375 Y34.859 E16.53543
G1 X18.99 Y26.225 E16.96042
G1 X19.224 Y25.837 E16.98008
G1 X19.477 Y25.496 E16.99848
G1 X24.116 Y19.843 E17.31592
G1 X24.463 Y20.128 F18000
G1 F3000
G1 X26.025 Y18.225 E17.42281
G1 X26.315 Y17.907 E17.44147
G1 X26.603 Y17.646 E17.45833
G1 X34.148 Y11.454 E17.88204
G1 X34.484 Y11.207 E17.90014
G1 X34.828 Y11 E17.91756
G1 X43.436 Y6.399 E18.34126
G1 X43.825 Y6.217 E18.35992
G1 X44.191 Y6.086 E18.37678
G1 X53.532 Y3.252 E18.80049
G1 X53.949 Y3.15 E18.81914
G1 X54.333 Y3.093 E18.83601
G1 X64.049 Y2.136 E19.25977
G1 X64.449 Y2.117 E19.27719
G1 X64.859 Y2.136 E19.29498
G1 X74.578 Y3.093 E19.71894
G1 X75.003 Y3.158 E19.7376
G1 X75.38 Y3.252 E19.75446
G1 X84.721 Y6.085 E20.17816
G1 X85.125 Y6.232 E20.19682
G1 X85.476 Y6.398 E20.21369
G1 X94.084 Y10.999 E20.63739
G1 X94.441 Y11.215 E20.65549
G1 X94.764 Y11.453 E20.67291
G1 X102.309 Y17.646 E21.09662
G1 X102.627 Y17.936 E21.11527
G1 X102.887 Y18.224 E21.13214
G1 X109.08 Y25.769 E21.55584
G1 X109.327 Y26.104 E21.57395
G1 X109.534 Y26.448 E21.59136
G1 X114.135 Y35.057 E22.01507
G1 X114.312 Y35.434 E22.03317
G1 X114.448 Y35.812 E22.05059
G1 X117.281 Y45.152 E22.47429
G1 X117.382 Y45.557 E22.49239
G1 X117.441 Y45.954 E22.50981
G1 X118.398 Y55.668 E22.93352
G1 X118.417 Y56.097 E22.95218
G1 X118.398 Y56.485 E22.96904
G1 X117.441 Y66.199 E23.39274
G1 X117.379 Y66.612 E23.41085
G1 X117.282 Y67.001 E23.42827
G1 X114.448 Y76.341 E23.85197
G1 X114.307 Y76.734 E23.87007
G1 X114.136 Y77.097 E23.88749
G1 X109.534 Y85.705 E24.3112
G1 X109.319 Y86.062 E24.3293
G1 X109.08 Y86.385 E24.34672
G1 X102.888 Y93.93 E24.77042
G1 X102.607 Y94.238 E24.78852
G1 X102.31 Y94.508 E24.80594
G1 X94.765 Y100.7 E25.22965
G1 X94.429 Y100.948 E25.24775
G1 X94.085 Y101.154 E25.26517
G1 X85.477 Y105.756 E25.68887
G1 X85.1 Y105.933 E25.70698
G1 X84.722 Y106.068 E25.7244
G1 X75.381 Y108.902 E26.1481
G1 X74.977 Y109.002 E26.1662
G1 X74.58 Y109.062 E26.18362
G1 X64.866 Y110.018 E26.60732
G1 X64.437 Y110.038 E26.62598
G1 X64.049 Y110.018 E26.64285
G1 X54.335 Y109.062 E27.06655
G1 X53.922 Y108.999 E27.08466
G1 X53.533 Y108.902 E27.10207
G1 X44.192 Y106.069 E27.52577
G1 X43.8 Y105.927 E27.54388
G1 X43.437 Y105.756 E27.5613
G1 X34.829 Y101.155 E27.985
G1 X34.472 Y100.94 E28.0031
G1 X34.149 Y100.701 E28.02052
G1 X26.604 Y94.509 E28.44423
G1 X26.296 Y94.228 E28.46233
G1 X26.026 Y93.931 E28.47975
G1 X19.834 Y86.386 E28.90345
G1 X19.586 Y86.05 E28.92156
G1 X19.379 Y85.706 E28.93897
G1 X14.778 Y77.098 E29.36268
G1 X14.601 Y76.72 E29.38078
G1 X14.465 Y76.343 E29.3982
G1 X11.632 Y67.002 E29.8219
G1 X11.532 Y66.597 E29.84001
G1 X11.472 Y66.2 E29.85743
G1 X10.516 Y56.486 E30.28113
G1 X10.496 Y56.057 E30.29979
G1 X10.515 Y55.669 E30.31665
G1 X11.472 Y45.955 E30.74036
G1 X11.534 Y45.543 E30.75846
G1 X11.631 Y45.154 E30.77588
G1 X14.465 Y35.813 E31.19958
G1 X14.606 Y35.421 E31.21769
G1 X14.778 Y35.058 E31.2351
G1 X19.379 Y26.449 E31.65881
G1 X19.594 Y26.092 E31.67691
G1 X19.833 Y25.77 E31.69433
G1 X24.438 Y20.159 E32.00941
G1 X24.784 Y20.443 F18000
G1 F3000
G1 X26.362 Y18.521 E32.11736
G1 X26.636 Y18.221 E32.13501
G1 X26.898 Y17.984 E32.15034
G1 X34.421 Y11.81 E32.57278
G1 X34.728 Y11.584 E32.58933
G1 X35.052 Y11.389 E32.60576
G1 X43.634 Y6.802 E33.02816
G1 X44.002 Y6.63 E33.04581
G1 X44.335 Y6.511 E33.06114
G1 X53.647 Y3.686 E33.48356
G1 X54.042 Y3.589 E33.50121
G1 X54.391 Y3.538 E33.51654
G1 X64.078 Y2.584 E33.93905
G1 X64.443 Y2.566 E33.95494
G1 X64.823 Y2.583 E33.97143
G1 X74.519 Y3.538 E34.39436
G1 X74.921 Y3.599 E34.41201
G1 X75.264 Y3.685 E34.42734
G1 X84.576 Y6.51 E34.84976
G1 X84.958 Y6.649 E34.86741
G1 X85.277 Y6.8 E34.88274
G1 X93.86 Y11.388 E35.30518
G1 X94.186 Y11.585 E35.32173
G1 X94.491 Y11.809 E35.33816
G1 X102.013 Y17.983 E35.76056
G1 X102.313 Y18.257 E35.77821
G1 X102.55 Y18.519 E35.79354
G1 X108.723 Y26.042 E36.21598
G1 X108.95 Y26.348 E36.23253
G1 X109.145 Y26.673 E36.24896
G1 X113.732 Y35.255 E36.67137
G1 X113.895 Y35.6 E36.68793
G1 X114.023 Y35.956 E36.70436
G1 X116.848 Y45.268 E37.12678
G1 X116.94 Y45.638 E37.14333
G1 X116.996 Y46.013 E37.15976
G1 X117.95 Y55.696 E37.58216
G1 X117.968 Y56.103 E37.59981
G1 X117.95 Y56.455 E37.61514
G1 X116.996 Y66.14 E38.03757
G1 X116.939 Y66.517 E38.05413
G1 X116.848 Y66.885 E38.07056
G1 X114.023 Y76.197 E38.49297
G1 X113.894 Y76.556 E38.50953
G1 X113.733 Y76.898 E38.52596
G1 X109.146 Y85.48 E38.94837
G1 X108.949 Y85.807 E38.96493
G1 X108.724 Y86.111 E38.98136
G1 X102.551 Y93.634 E39.40377
G1 X102.294 Y93.916 E39.42033
G1 X102.014 Y94.17 E39.43676
G1 X94.492 Y100.344 E39.85917
G1 X94.185 Y100.57 E39.87573
G1 X93.861 Y100.766 E39.89216
G1 X85.279 Y105.353 E40.31457
G1 X84.934 Y105.515 E40.33113
G1 X84.578 Y105.644 E40.34756
G1 X75.266 Y108.468 E40.76997
G1 X74.896 Y108.56 E40.78652
G1 X74.521 Y108.617 E40.80296
G1 X64.837 Y109.57 E41.22535
G1 X64.431 Y109.588 E41.243
G1 X64.078 Y109.571 E41.25834
G1 X54.394 Y108.617 E41.68077
G1 X54.016 Y108.56 E41.69733
G1 X53.649 Y108.469 E41.71376
G1 X44.337 Y105.644 E42.13617
G1 X43.978 Y105.515 E42.15273
G1 X43.636 Y105.354 E42.16916
G1 X35.054 Y100.767 E42.59157
G1 X34.727 Y100.57 E42.60813
G1 X34.422 Y100.345 E42.62456
G1 X26.9 Y94.172 E43.04697
G1 X26.618 Y93.915 E43.06353
G1 X26.363 Y93.635 E43.07996
G1 X20.19 Y86.113 E43.50237
G1 X19.963 Y85.806 E43.51893
G1 X19.768 Y85.482 E43.53536
G1 X15.181 Y76.9 E43.95777
G1 X15.019 Y76.554 E43.97432
G1 X14.89 Y76.198 E43.99076
G1 X12.065 Y66.886 E44.41317
G1 X11.974 Y66.516 E44.42972
G1 X11.917 Y66.142 E44.44616
G1 X10.963 Y56.458 E44.86855
G1 X10.945 Y56.052 E44.8862
G1 X10.963 Y55.699 E44.90154
G1 X11.917 Y46.014 E45.32397
G1 X11.974 Y45.637 E45.34053
G1 X12.065 Y45.27 E45.35696
G1 X14.89 Y35.958 E45.77937
G1 X15.019 Y35.599 E45.79593
G1 X15.18 Y35.256 E45.81236
G1 X19.767 Y26.674 E46.23477
G1 X19.964 Y26.348 E46.25132
G1 X20.189 Y26.043 E46.26775
G1 X24.759 Y20.474 E46.58046
G1 X25.106 Y20.759 F18000
G1 F3000
G1 X26.699 Y18.818 E46.68947
G1 X26.958 Y18.535 E46.7061
G1 X27.194 Y18.322 E46.71992
G1 X34.694 Y12.167 E47.14109
G1 X34.983 Y11.954 E47.15666
G1 X35.277 Y11.777 E47.17155
G1 X43.831 Y7.205 E47.59261
G1 X44.179 Y7.043 E47.60925
G1 X44.479 Y6.936 E47.62307
G1 X53.762 Y4.12 E48.04419
G1 X54.134 Y4.029 E48.06082
G1 X54.449 Y3.983 E48.07464
G1 X64.107 Y3.032 E48.49591
G1 X64.451 Y3.015 E48.51082
G1 X64.787 Y3.03 E48.52546
G1 X74.459 Y3.982 E48.94733
G1 X74.826 Y4.038 E48.96343
G1 X75.147 Y4.119 E48.97779
G1 X84.43 Y6.935 E49.39891
G1 X84.791 Y7.066 E49.41555
G1 X85.078 Y7.203 E49.42936
G1 X93.635 Y11.776 E49.85053
G1 X93.942 Y11.962 E49.8661
G1 X94.218 Y12.166 E49.88099
G1 X101.716 Y18.319 E50.30206
G1 X101.998 Y18.578 E50.31869
G1 X102.212 Y18.814 E50.33251
G1 X108.367 Y26.315 E50.75368
G1 X108.58 Y26.603 E50.76925
G1 X108.757 Y26.897 E50.78414
G1 X113.33 Y35.453 E51.20526
G1 X113.482 Y35.778 E51.22082
G1 X113.598 Y36.101 E51.23572
G1 X116.414 Y45.384 E51.65683
G1 X116.5 Y45.732 E51.67239
G1 X116.551 Y46.071 E51.68729
G1 X117.502 Y55.725 E52.10835
G1 X117.518 Y56.108 E52.12499
G1 X117.502 Y56.425 E52.1388
G1 X116.551 Y66.081 E52.55998
G1 X116.498 Y66.436 E52.57554
G1 X116.415 Y66.769 E52.59044
G1 X113.599 Y76.052 E53.01155
G1 X113.477 Y76.389 E53.02712
G1 X113.331 Y76.7 E53.04201
G1 X108.757 Y85.256 E53.46312
G1 X108.572 Y85.562 E53.47869
G1 X108.368 Y85.838 E53.49358
G1 X102.214 Y93.338 E53.9147
G1 X101.972 Y93.602 E53.93026
G1 X101.718 Y93.833 E53.94516
G1 X94.219 Y99.988 E54.36627
G1 X93.93 Y100.2 E54.38184
G1 X93.636 Y100.377 E54.39673
G1 X85.081 Y104.95 E54.81785
G1 X84.756 Y105.103 E54.83341
G1 X84.433 Y105.219 E54.8483
G1 X75.15 Y108.035 E55.26942
G1 X74.802 Y108.121 E55.28498
G1 X74.462 Y108.172 E55.29988
G1 X64.809 Y109.122 E55.72094
G1 X64.426 Y109.139 E55.73758
G1 X64.108 Y109.123 E55.75139
G1 X54.452 Y108.172 E56.17257
G1 X54.098 Y108.118 E56.18813
G1 X53.765 Y108.035 E56.20303
G1 X44.482 Y105.219 E56.62414
G1 X44.144 Y105.097 E56.63971
G1 X43.834 Y104.951 E56.6546
G1 X35.278 Y100.378 E57.07571
G1 X34.971 Y100.193 E57.09128
G1 X34.695 Y99.989 E57.10617
G1 X27.196 Y93.834 E57.52729
G1 X26.931 Y93.593 E57.54285
G1 X26.7 Y93.339 E57.55775
G1 X20.546 Y85.84 E57.97886
G1 X20.333 Y85.551 E57.99443
G1 X20.157 Y85.257 E58.00932
G1 X15.583 Y76.701 E58.43044
G1 X15.431 Y76.377 E58.446
G1 X15.315 Y76.054 E58.46089
G1 X12.499 Y66.77 E58.88201
G1 X12.413 Y66.422 E58.89757
G1 X12.362 Y66.083 E58.91247
G1 X11.411 Y56.43 E59.33353
G1 X11.395 Y56.047 E59.35017
G1 X11.411 Y55.729 E59.36398
G1 X12.362 Y46.073 E59.78516
G1 X12.416 Y45.719 E59.80072
G1 X12.498 Y45.386 E59.81562
G1 X15.315 Y36.102 E60.23673
G1 X15.436 Y35.765 E60.2523
G1 X15.583 Y35.454 E60.26719
G1 X20.156 Y26.899 E60.6883
G1 X20.341 Y26.592 E60.70387
G1 X20.545 Y26.316 E60.71876
G1 X25.08 Y20.79 E61.02908
G1 X25.427 Y21.074 F18000
G1 F3000
G1 X27.035 Y19.115 E61.13913
G1 X27.27 Y18.859 E61.1542
G1 X27.489 Y18.66 E61.16705
G1 X34.967 Y12.523 E61.58696
G1 X35.227 Y12.331 E61.60099
G1 X35.501 Y12.166 E61.6149
G1 X44.029 Y7.608 E62.03462
G1 X44.343 Y7.461 E62.0497
G1 X44.622 Y7.361 E62.06255
G1 X53.877 Y4.554 E62.48237
G1 X54.214 Y4.471 E62.49744
G1 X54.507 Y4.428 E62.5103
G1 X64.137 Y3.479 E62.93032
G1 X64.445 Y3.465 E62.94372
G1 X64.752 Y3.478 E62.95706
G1 X74.4 Y4.427 E63.37788
G1 X74.743 Y4.48 E63.39297
G1 X75.03 Y4.552 E63.40582
G1 X84.285 Y7.359 E63.82561
G1 X84.611 Y7.478 E63.84069
G1 X84.879 Y7.605 E63.85354
G1 X93.41 Y12.165 E64.27345
G1 X93.687 Y12.332 E64.28748
G1 X93.945 Y12.522 E64.30139
G1 X101.419 Y18.656 E64.72111
G1 X101.675 Y18.89 E64.73619
G1 X101.874 Y19.11 E64.74904
G1 X108.011 Y26.587 E65.16895
G1 X108.203 Y26.847 E65.18297
G1 X108.368 Y27.122 E65.19688
G1 X112.927 Y35.651 E65.61669
G1 X113.064 Y35.943 E65.63072
G1 X113.173 Y36.245 E65.64463
G1 X115.981 Y45.5 E66.06444
G1 X116.058 Y45.813 E66.07847
G1 X116.106 Y46.13 E66.09238
G1 X117.054 Y55.753 E66.5121
G1 X117.069 Y56.1 E66.52718
G1 X117.055 Y56.395 E66.54003
G1 X116.106 Y66.022 E66.95994
G1 X116.058 Y66.342 E66.97396
G1 X115.981 Y66.653 E66.98787
G1 X113.174 Y75.907 E67.40768
G1 X113.064 Y76.211 E67.42171
G1 X112.928 Y76.502 E67.43562
G1 X108.369 Y85.031 E67.85543
G1 X108.202 Y85.307 E67.86946
G1 X108.012 Y85.565 E67.88337
G1 X101.877 Y93.041 E68.30318
G1 X101.659 Y93.28 E68.31721
G1 X101.422 Y93.496 E68.33112
G1 X93.946 Y99.631 E68.75093
G1 X93.686 Y99.823 E68.76496
G1 X93.412 Y99.989 E68.77887
G1 X84.883 Y104.548 E69.19867
G1 X84.59 Y104.685 E69.2127
G1 X84.289 Y104.794 E69.22661
G1 X75.034 Y107.601 E69.64642
G1 X74.721 Y107.679 E69.66045
G1 X74.404 Y107.727 E69.67436
G1 X64.781 Y108.675 E70.09408
G1 X64.434 Y108.69 E70.10916
G1 X64.138 Y108.675 E70.12201
G1 X54.512 Y107.727 E70.54192
G1 X54.192 Y107.679 E70.55595
G1 X53.881 Y107.602 E70.56986
G1 X44.626 Y104.794 E70.98966
G1 X44.322 Y104.685 E71.00369
G1 X44.032 Y104.549 E71.0176
G1 X35.503 Y99.99 E71.43741
G1 X35.226 Y99.823 E71.45144
G1 X34.968 Y99.633 E71.46535
G1 X27.492 Y93.497 E71.88516
G1 X27.254 Y93.28 E71.89919
G1 X27.038 Y93.043 E71.9131
G1 X20.902 Y85.567 E72.33291
G1 X20.711 Y85.307 E72.34694
G1 X20.545 Y85.033 E72.36085
G1 X15.986 Y76.503 E72.78065
G1 X15.849 Y76.211 E72.79468
G1 X15.74 Y75.909 E72.8086
G1 X12.933 Y66.655 E73.2284
G1 X12.855 Y66.341 E73.24243
G1 X12.807 Y66.024 E73.25634
G1 X11.859 Y56.402 E73.67606
G1 X11.844 Y56.055 E73.69114
G1 X11.859 Y55.759 E73.70399
G1 X12.807 Y46.132 E74.1239
G1 X12.855 Y45.813 E74.13793
G1 X12.932 Y45.502 E74.15184
G1 X15.739 Y36.247 E74.57165
