; HEADER_BLOCK_START
; generated by AnycubicSlicerNext 1.3.1 on 2026-02-11 at 13:55:22
; total layer number: 250
; filament_density: 1.24
; filament_diameter: 1.75
; max_z_height: 50.04
; HEADER_BLOCK_END

; THUMBNAIL_BLOCK_START

;
; THUMBNAIL_BLOCK_END

; external perimeters extrusion width = 0.42mm
; perimeters extrusion width = 0.45mm
; infill extrusion width = 0.45mm
; solid infill extrusion width = 0.42mm
; top infill extrusion width = 0.42mm
; support material extrusion width = 0.40mm
; first layer extrusion width = 0.50mm

; external perimeters extrusion width = 0.42mm
; perimeters extrusion width = 0.45mm
; infill extrusion width = 0.45mm
; solid infill extrusion width = 0.42mm
; top infill extrusion width = 0.42mm
; support material extrusion width = 0.40mm
; first layer extrusion width = 0.50mm

; external perimeters extrusion width = 0.42mm
; perimeters extrusion width = 0.45mm
; infill extrusion width = 0.45mm
; solid infill extrusion width = 0.42mm
; top infill extrusion width = 0.42mm
; support material extrusion width = 0.40mm
; first layer extrusion width = 0.50mm

; external perimeters extrusion width = 0.42mm
; perimeters extrusion width = 0.45mm
; infill extrusion width = 0.45mm
; solid infill extrusion width = 0.42mm
; top infill extrusion width = 0.42mm
; support material extrusion width = 0.40mm
; first layer extrusion width = 0.50mm

; EXECUTABLE_BLOCK_START
M201 X2000 Y2000 Z800 E2000
M203 X300 Y300 Z8 E100
M204 P2000 R2000 T2000
M205 X10.00 Y10.00 Z2.00 E5.00 ; sets the jerk limits, mm/sec
;TYPE:Custom
G90 ; use absolute coordinates
M83 ; extruder relative mode
M104 S220 ; set extruder temp
M140 S60 ; set bed temp
M190 S60 ; wait for bed temp
M109 S220 ; wait for extruder temp
G28                                        ; move X/Y/Z to min endstops
G1 Z0.28                                   ; lift nozzle a bit 
G92 E0 
G1 Y3 F1800                                    ; zero the extruded length 
G1 X60  E25 F500                       ; Extrude 25mm of filament in a 5cm line. 
G92 E0                                     ; zero the extruded length again 
G1 E-2 F500                                ; Retract a little 
G1 X70 F4000                              ; Quickly wipe away from the filament line
M117
G90
G21
M82 ; use absolute distances for extrusion
G92 E0
; filament start gcode
M106 S0
;LAYER_CHANGE
;Z:0.24
;HEIGHT:0.24
; BEFORE_LAYER_CHANGE 0 @ 0.24mm
G1 E-2.5 F6000
G92 E0
; AFTER_LAYER_CHANGE 0 @ 0.24mm
;_SET_FAN_SPEED_CHANGING_LAYER
M204 P500
; printing object "bearingscrew.stl" id:2866435236608 copy 0
M204 T500
G1 X100.817 Y134.683 F18000
G1 Z.24
G1 E2.5 F6000
;TYPE:Brim
;WIDTH:0.5
G1 F3000
G1 X101.56 Y134.166 E2.53933
G1 X102.306 Y133.752 E2.57635
G1 X103.138 Y133.395 E2.61567
G1 X103.962 Y133.134 E2.65317
G1 X104.765 Y132.966 E2.6888
G1 X105.605 Y132.871 E2.72548
G1 X106.458 Y132.857 E2.76249
G1 X107.267 Y132.923 E2.79772
G1 X107.818 Y133.01 E2.82194
G1 X108.2 Y133.092 E2.83892
G1 X108.861 Y133.28 E2.86874
G1 X109.696 Y133.598 E2.90753
G1 X110.493 Y134.001 E2.94628
G1 X111.155 Y134.42 E2.98032
G1 X111.839 Y134.948 E3.01781
G1 X112.497 Y135.572 E3.05718
G1 X112.931 Y136.067 E3.08576
G1 X113.457 Y136.782 E3.12429
G1 X113.895 Y137.525 E3.16171
G1 X114.274 Y138.349 E3.20111
G1 X114.556 Y139.172 E3.23883
G1 X114.755 Y140.022 E3.27676
G1 X114.875 Y140.994 E3.31925
G1 X114.893 Y141.78 E3.35341
G1 X114.87 Y142.239 E3.37334
G1 X114.817 Y142.74 E3.3952
G1 X114.669 Y143.556 E3.43119
G1 X114.431 Y144.39 E3.46885
G1 X114.108 Y145.206 E3.50694
G1 X113.757 Y145.892 E3.5404
G1 X113.26 Y146.669 E3.58043
G1 X112.982 Y147.036 E3.60043
G1 X112.66 Y147.416 E3.62206
G1 X112.126 Y147.96 E3.65514
G1 X111.488 Y148.501 E3.69146
G1 X110.717 Y149.032 E3.73207
G1 X110.004 Y149.422 E3.76735
G1 X109.2 Y149.767 E3.80535
G1 X108.353 Y150.033 E3.84387
G1 X107.614 Y150.191 E3.87666
G1 X106.707 Y150.295 E3.91633
G1 X105.861 Y150.306 E3.95305
G1 X105.4 Y150.279 E3.97306
G1 X104.947 Y150.227 E3.99285
G1 X104.109 Y150.067 E4.0299
G1 X103.229 Y149.803 E4.06979
G1 X102.622 Y149.56 E4.09818
G1 X101.85 Y149.172 E4.13567
G1 X101.157 Y148.733 E4.17127
G1 X100.491 Y148.217 E4.20786
G1 X99.853 Y147.614 E4.24595
G1 X99.274 Y146.942 E4.28446
G1 X98.869 Y146.376 E4.3147
G1 X98.435 Y145.639 E4.3518
G1 X98.058 Y144.82 E4.39095
G1 X97.773 Y143.99 E4.42903
G1 X97.641 Y143.466 E4.45249
G1 X97.556 Y143.034 E4.47161
G1 X97.455 Y142.17 E4.50934
G1 X97.437 Y141.385 E4.54345
G1 X97.468 Y140.834 E4.56739
G1 X97.516 Y140.395 E4.58656
G1 X97.661 Y139.61 E4.62124
G1 X97.9 Y138.77 E4.65913
G1 X98.222 Y137.959 E4.697
G1 X98.633 Y137.169 E4.73567
G1 X99.077 Y136.487 E4.77099
G1 X99.591 Y135.838 E4.80692
G1 X100.221 Y135.188 E4.84624
G1 X100.786 Y134.709 E4.87837
G1 X101.077 Y135.052 F18000
G1 F3000
G1 X101.096 Y135.036 E4.87946
G1 X101.804 Y134.543 E4.91689
G1 X102.51 Y134.153 E4.95193
G1 X103.289 Y133.818 E4.98871
G1 X104.07 Y133.571 E5.02428
G1 X104.831 Y133.41 E5.05804
G1 X105.64 Y133.319 E5.09341
G1 X106.449 Y133.307 E5.12854
G1 X107.221 Y133.37 E5.16215
G1 X108.083 Y133.526 E5.20016
G1 X108.725 Y133.708 E5.22914
G1 X109.521 Y134.012 E5.2661
G1 X110.265 Y134.389 E5.30234
G1 X110.903 Y134.792 E5.33507
G1 X111.551 Y135.294 E5.37068
G1 X112.177 Y135.888 E5.40815
G1 X112.585 Y136.353 E5.43498
G1 X113.085 Y137.036 E5.47172
G1 X113.5 Y137.74 E5.50717
G1 X113.86 Y138.523 E5.54459
G1 X114.126 Y139.302 E5.58034
G1 X114.311 Y140.094 E5.61565
G1 X114.426 Y141.02 E5.65614
G1 X114.444 Y141.783 E5.68927
G1 X114.374 Y142.668 E5.7278
G1 X114.232 Y143.447 E5.7622
G1 X114.008 Y144.239 E5.79792
G1 X113.701 Y145.014 E5.83412
G1 X113.364 Y145.674 E5.86627
G1 X112.886 Y146.42 E5.90471
G1 X112.334 Y147.108 E5.94302
G1 X111.825 Y147.627 E5.97458
G1 X111.209 Y148.148 E6.00959
G1 X110.487 Y148.646 E6.04765
G1 X109.802 Y149.021 E6.08158
G1 X109.05 Y149.344 E6.11708
G1 X108.245 Y149.597 E6.15372
G1 X107.535 Y149.749 E6.18522
G1 X106.685 Y149.846 E6.22238
G1 X105.876 Y149.857 E6.2575
G1 X105.024 Y149.784 E6.29462
G1 X104.223 Y149.632 E6.33002
G1 X103.382 Y149.381 E6.36808
G1 X102.811 Y149.153 E6.39477
G1 X102.078 Y148.784 E6.43043
G1 X101.41 Y148.362 E6.46472
G1 X100.779 Y147.871 E6.49943
G1 X100.174 Y147.299 E6.53559
G1 X99.631 Y146.669 E6.57166
G1 X99.242 Y146.126 E6.60067
G1 X98.831 Y145.425 E6.63596
G1 X98.472 Y144.646 E6.67315
G1 X98.202 Y143.854 E6.70951
G1 X98.002 Y142.973 E6.74869
G1 X97.904 Y142.145 E6.78489
G1 X97.887 Y141.384 E6.81794
G1 X97.959 Y140.469 E6.85778
G1 X98.097 Y139.718 E6.89092
G1 X98.324 Y138.921 E6.9269
G1 X98.628 Y138.152 E6.96279
G1 X99.018 Y137.401 E6.99954
G1 X99.445 Y136.744 E7.03355
G1 X99.933 Y136.13 E7.06762
G1 X100.524 Y135.521 E7.10443
G1 X101.046 Y135.078 E7.13416
G1 X101.336 Y135.42 F18000
G1 F3000
G1 X101.375 Y135.388 E7.13633
G1 X102.047 Y134.921 E7.17185
G1 X102.714 Y134.553 E7.20492
G1 X103.439 Y134.242 E7.23919
G1 X104.178 Y134.007 E7.27283
G1 X104.896 Y133.855 E7.3047
G1 X105.663 Y133.768 E7.33819
G1 X106.441 Y133.756 E7.37199
G1 X107.169 Y133.816 E7.40371
G1 X107.975 Y133.962 E7.43925
G1 X108.589 Y134.136 E7.46696
G1 X109.345 Y134.426 E7.5021
G1 X110.038 Y134.777 E7.53582
G1 X110.65 Y135.163 E7.56725
G1 X111.264 Y135.639 E7.60096
G1 X111.858 Y136.204 E7.63653
G1 X112.238 Y136.639 E7.66161
G1 X112.714 Y137.288 E7.69655
G1 X113.104 Y137.954 E7.73004
G1 X113.445 Y138.696 E7.76549
G1 X113.696 Y139.433 E7.79927
G1 X113.87 Y140.18 E7.83259
G1 X113.978 Y141.046 E7.87046
G1 X113.994 Y141.777 E7.90221
G1 X113.929 Y142.603 E7.93818
G1 X113.796 Y143.339 E7.97066
G1 X113.584 Y144.089 E8.00445
G1 X113.294 Y144.823 E8.03875
G1 X112.971 Y145.456 E8.06958
G1 X112.525 Y146.151 E8.10544
G1 X112.002 Y146.804 E8.14176
G1 X111.523 Y147.294 E8.17147
G1 X110.931 Y147.795 E8.20517
G1 X110.257 Y148.259 E8.24068
G1 X109.599 Y148.62 E8.27326
G1 X108.9 Y148.92 E8.30627
G1 X108.137 Y149.161 E8.34103
G1 X107.456 Y149.306 E8.37122
G1 X106.663 Y149.397 E8.4059
G1 X105.899 Y149.409 E8.43907
G1 X105.092 Y149.34 E8.47422
G1 X104.336 Y149.197 E8.50763
G1 X103.536 Y148.959 E8.54385
G1 X103.001 Y148.746 E8.56883
G1 X102.305 Y148.396 E8.60267
G1 X101.663 Y147.99 E8.63562
G1 X101.066 Y147.526 E8.66845
G1 X100.494 Y146.983 E8.70267
G1 X99.988 Y146.396 E8.73633
G1 X99.616 Y145.876 E8.76411
G1 X99.226 Y145.211 E8.79757
G1 X98.887 Y144.473 E8.8328
G1 X98.632 Y143.724 E8.86714
G1 X98.446 Y142.904 E8.90365
G1 X98.352 Y142.12 E8.93791
G1 X98.336 Y141.39 E8.96962
G1 X98.404 Y140.535 E9.00687
G1 X98.534 Y139.827 E9.03811
G1 X98.747 Y139.072 E9.07217
G1 X99.034 Y138.345 E9.10608
G1 X99.403 Y137.633 E9.1409
G1 X99.806 Y137.012 E9.17304
G1 X100.276 Y136.421 E9.20579
G1 X100.826 Y135.853 E9.24012
G1 X101.306 Y135.446 E9.26744
G1 X101.596 Y135.789 F18000
G1 F3000
G1 X101.653 Y135.74 E9.27069
G1 X102.29 Y135.3 E9.30429
G1 X102.917 Y134.954 E9.33539
G1 X103.59 Y134.665 E9.36716
G1 X104.286 Y134.443 E9.39888
G1 X104.974 Y134.297 E9.42942
G1 X105.698 Y134.216 E9.46103
G1 X106.432 Y134.205 E9.49292
G1 X107.117 Y134.263 E9.52274
G1 X107.88 Y134.402 E9.5564
G1 X108.453 Y134.565 E9.58227
G1 X109.169 Y134.84 E9.61557
G1 X109.811 Y135.164 E9.64679
G1 X110.398 Y135.535 E9.67692
G1 X110.976 Y135.984 E9.70871
G1 X111.538 Y136.52 E9.74239
G1 X111.892 Y136.924 E9.76572
G1 X112.342 Y137.541 E9.79886
G1 X112.709 Y138.167 E9.83039
G1 X113.03 Y138.869 E9.86386
G1 X113.266 Y139.562 E9.89567
G1 X113.429 Y140.266 E9.92702
G1 X113.529 Y141.072 E9.96226
G1 X113.545 Y141.771 E9.99263
G1 X113.484 Y142.539 E10.02606
G1 X113.36 Y143.232 E10.05662
G1 X113.161 Y143.938 E10.08849
G1 X112.887 Y144.633 E10.12087
G1 X112.578 Y145.238 E10.15038
G1 X112.164 Y145.883 E10.18366
G1 X111.67 Y146.501 E10.21802
G1 X111.222 Y146.96 E10.24586
G1 X110.653 Y147.442 E10.27824
G1 X110.027 Y147.873 E10.3112
G1 X109.408 Y148.213 E10.34187
G1 X108.75 Y148.496 E10.37297
G1 X108.028 Y148.725 E10.40583
G1 X107.377 Y148.864 E10.43472
G1 X106.64 Y148.948 E10.46691
G1 X105.908 Y148.959 E10.49873
G1 X105.16 Y148.896 E10.53132
G1 X104.448 Y148.762 E10.56274
G1 X103.689 Y148.537 E10.59713
G1 X103.18 Y148.334 E10.6209
G1 X102.52 Y148.002 E10.65297
G1 X101.916 Y147.619 E10.68401
G1 X101.354 Y147.181 E10.71493
G1 X100.815 Y146.669 E10.74724
G1 X100.345 Y146.123 E10.77848
G1 X99.989 Y145.626 E10.80502
G1 X99.621 Y144.997 E10.83664
G1 X99.302 Y144.3 E10.86992
G1 X99.063 Y143.595 E10.90224
G1 X98.89 Y142.835 E10.9361
G1 X98.801 Y142.095 E10.96843
G1 X98.785 Y141.396 E10.99878
G1 X98.849 Y140.6 E11.03346
G1 X98.97 Y139.935 E11.0628
G1 X99.171 Y139.222 E11.09495
G1 X99.44 Y138.537 E11.12688
G1 X99.788 Y137.865 E11.15976
G1 X100.167 Y137.279 E11.19003
G1 X100.618 Y136.713 E11.22145
G1 X101.128 Y136.186 E11.25329
G1 X101.566 Y135.815 E11.27821
G1 X101.856 Y136.157 F18000
G1 F3000
G1 X101.932 Y136.093 E11.28253
G1 X102.532 Y135.678 E11.31419
G1 X103.121 Y135.355 E11.34333
G1 X103.741 Y135.088 E11.37264
G1 X104.394 Y134.879 E11.40242
G1 X105.053 Y134.74 E11.43163
G1 X105.733 Y134.664 E11.46135
G1 X106.423 Y134.655 E11.49132
G1 X107.064 Y134.709 E11.51925
G1 X107.784 Y134.841 E11.55102
G1 X108.317 Y134.993 E11.57505
G1 X108.993 Y135.253 E11.60652
G1 X109.595 Y135.558 E11.63581
G1 X110.145 Y135.906 E11.66406
G1 X110.688 Y136.329 E11.69393
G1 X111.218 Y136.835 E11.72572
G1 X111.544 Y137.209 E11.74729
G1 X111.97 Y137.793 E11.77864
G1 X112.313 Y138.381 E11.8082
G1 X112.615 Y139.041 E11.8397
G1 X112.835 Y139.692 E11.86954
G1 X112.987 Y140.352 E11.89892
G1 X113.08 Y141.098 E11.93156
G1 X113.095 Y141.765 E11.96054
G1 X113.039 Y142.475 E11.99144
G1 X112.923 Y143.125 E12.0201
G1 X112.737 Y143.788 E12.05003
G1 X112.48 Y144.442 E12.08049
G1 X112.185 Y145.02 E12.10867
G1 X111.803 Y145.616 E12.13939
G1 X111.338 Y146.199 E12.17178
G1 X110.92 Y146.627 E12.19775
G1 X110.385 Y147.081 E12.22822
G1 X109.797 Y147.487 E12.25922
G1 X109.217 Y147.807 E12.28798
G1 X108.599 Y148.073 E12.31717
G1 X107.92 Y148.289 E12.34813
G1 X107.298 Y148.421 E12.3757
G1 X106.605 Y148.5 E12.406
G1 X105.917 Y148.51 E12.43587
G1 X105.227 Y148.451 E12.46592
G1 X104.561 Y148.327 E12.49535
G1 X103.842 Y148.114 E12.5279
G1 X103.359 Y147.922 E12.55046
G1 X102.736 Y147.608 E12.58074
G1 X102.169 Y147.248 E12.60987
G1 X101.642 Y146.836 E12.63889
G1 X101.135 Y146.354 E12.66928
G1 X100.702 Y145.85 E12.69812
G1 X100.363 Y145.376 E12.72342
G1 X100.017 Y144.784 E12.75319
G1 X99.717 Y144.128 E12.78451
G1 X99.493 Y143.466 E12.81482
G1 X99.334 Y142.765 E12.84606
G1 X99.25 Y142.07 E12.87644
G1 X99.235 Y141.402 E12.90542
G1 X99.294 Y140.665 E12.93755
G1 X99.406 Y140.042 E12.965
G1 X99.595 Y139.372 E12.99523
G1 X99.847 Y138.729 E13.02518
G1 X100.173 Y138.096 E13.05613
G1 X100.528 Y137.547 E13.08451
G1 X100.951 Y137.014 E13.11402
G1 X101.43 Y136.518 E13.14396
G1 X101.826 Y136.183 E13.16647
G1 X102.111 Y136.53 F18000
G1 F3000
G1 X102.289 Y136.384 E13.17647
G1 X102.823 Y136.026 E13.20439
G1 X103.397 Y135.718 E13.23266
G1 X104.015 Y135.465 E13.26164
G1 X104.569 Y135.297 E13.2868
G1 X105.28 Y135.159 E13.31821
G1 X105.873 Y135.104 E13.34407
G1 X106.533 Y135.108 E13.37274
G1 X107.197 Y135.18 E13.40171
G1 X107.771 Y135.299 E13.42715
G1 X108.431 Y135.507 E13.45722
G1 X109.044 Y135.773 E13.48621
G1 X109.551 Y136.051 E13.51128
G1 X110.091 Y136.422 E13.53973
G1 X110.58 Y136.832 E13.56746
G1 X111.043 Y137.31 E13.59633
G1 X111.442 Y137.815 E13.62426
G1 X112.092 Y138.95 E13.68105
G1 X112.31 Y139.511 E13.70716
G1 X112.477 Y140.095 E13.73353
G1 X112.587 Y140.681 E13.75941
G1 X112.643 Y141.278 E13.78544
G1 X112.64 Y141.922 E13.8134
G1 X112.572 Y142.584 E13.84231
G1 X112.456 Y143.153 E13.86752
G1 X112.268 Y143.774 E13.89565
G1 X112.022 Y144.366 E13.92347
G1 X111.719 Y144.928 E13.95121
G1 X111.382 Y145.434 E13.9776
G1 X110.976 Y145.932 E14.00549
G1 X110.479 Y146.423 E14.03583
G1 X109.981 Y146.825 E14.06359
G1 X109.469 Y147.163 E14.09026
G1 X108.919 Y147.453 E14.11723
G1 X108.319 Y147.699 E14.14535
G1 X107.687 Y147.886 E14.17398
G1 X107.085 Y148.002 E14.20058
G1 X106.477 Y148.059 E14.22712
G1 X105.182 Y147.992 E14.28341
G1 X104.549 Y147.862 E14.31143
G1 X103.975 Y147.686 E14.33749
G1 X103.382 Y147.44 E14.36537
G1 X102.827 Y147.143 E14.39269
G1 X102.276 Y146.772 E14.42152
G1 X101.772 Y146.353 E14.44997
G1 X101.356 Y145.934 E14.47562
G1 X100.951 Y145.437 E14.50344
G1 X100.593 Y144.898 E14.53153
G1 X100.285 Y144.316 E14.56011
G1 X100.039 Y143.71 E14.58849
G1 X99.867 Y143.128 E14.61485
G1 X99.744 Y142.49 E14.64304
G1 X99.687 Y141.89 E14.66922
G1 X99.69 Y141.242 E14.69733
G1 X99.758 Y140.58 E14.72623
G1 X99.873 Y140.012 E14.75138
G1 X100.063 Y139.389 E14.77967
G1 X100.285 Y138.845 E14.80516
G1 X100.582 Y138.284 E14.83274
G1 X100.951 Y137.728 E14.86169
G1 X101.356 Y137.232 E14.88948
G1 X101.825 Y136.765 E14.91821
G1 X102.08 Y136.555 E14.93253
G1 X102.362 Y136.902 F18000
G1 F3000
G1 X102.576 Y136.728 E14.94452
G1 X103.076 Y136.396 E14.97058
G1 X103.613 Y136.111 E14.99694
G1 X104.188 Y135.879 E15.02389
G1 X104.704 Y135.724 E15.04725
G1 X105.369 Y135.599 E15.07663
G1 X105.919 Y135.55 E15.10058
G1 X106.535 Y135.557 E15.12734
G1 X107.153 Y135.627 E15.15432
G1 X107.684 Y135.739 E15.17791
G1 X108.301 Y135.936 E15.206
G1 X108.869 Y136.186 E15.23296
G1 X109.338 Y136.446 E15.25625
G1 X109.841 Y136.794 E15.28276
G1 X110.295 Y137.179 E15.30862
G1 X110.724 Y137.625 E15.33548
G1 X111.095 Y138.099 E15.3616
G1 X111.671 Y139.106 E15.41198
G1 X111.878 Y139.63 E15.43642
G1 X112.035 Y140.172 E15.46092
G1 X112.147 Y140.77 E15.48733
G1 X112.197 Y141.324 E15.51148
G1 X112.192 Y141.924 E15.53753
G1 X112.125 Y142.543 E15.56453
G1 X112.016 Y143.068 E15.58782
G1 X111.838 Y143.648 E15.61416
G1 X111.607 Y144.197 E15.64004
G1 X111.323 Y144.719 E15.66581
G1 X111.006 Y145.188 E15.69037
G1 X110.625 Y145.652 E15.71646
G1 X110.161 Y146.108 E15.74469
G1 X109.697 Y146.478 E15.77046
G1 X109.218 Y146.791 E15.79529
G1 X108.706 Y147.058 E15.82036
G1 X108.146 Y147.285 E15.84661
G1 X107.556 Y147.457 E15.87327
G1 X106.997 Y147.562 E15.89798
G1 X106.428 Y147.613 E15.92276
G1 X105.279 Y147.554 E15.97271
G1 X104.687 Y147.436 E15.9989
G1 X104.101 Y147.256 E16.02551
G1 X103.551 Y147.024 E16.05142
G1 X103.034 Y146.745 E16.07689
G1 X102.566 Y146.429 E16.10141
