; HEADER_BLOCK_START
; generated by AnycubicSlicerNext 1.3.1 on 2026-01-20 at 20:57:41
; total layer number: 60
; filament_density: 1.24
; filament_diameter: 1.75
; max_z_height: 12.04
; HEADER_BLOCK_END

; THUMBNAIL_BLOCK_START

;
; THUMBNAIL_BLOCK_END

; external perimeters extrusion width = 0.42mm
; perimeters extrusion width = 0.45mm
; infill extrusion width = 0.45mm
; solid infill extrusion width = 0.42mm
; top infill extrusion width = 0.42mm
; first layer extrusion width = 0.50mm

; external perimeters extrusion width = 0.42mm
; perimeters extrusion width = 0.45mm
; infill extrusion width = 0.45mm
; solid infill extrusion width = 0.42mm
; top infill extrusion width = 0.42mm
; first layer extrusion width = 0.50mm

; EXECUTABLE_BLOCK_START
M201 X2000 Y2000 Z800 E2000
M203 X300 Y300 Z8 E100
M204 P2000 R2000 T2000
M205 X10.00 Y10.00 Z2.00 E5.00 ; sets the jerk limits, mm/sec
;TYPE:Custom
G90 ; use absolute coordinates
M83 ; extruder relative mode
M104 S220 ; set extruder temp
M140 S60 ; set bed temp
M190 S60 ; wait for bed temp
M109 S220 ; wait for extruder temp
G28                                        ; move X/Y/Z to min endstops
G1 Z0.28                                   ; lift nozzle a bit 
G92 E0 
G1 Y3 F1800                                    ; zero the extruded length 
G1 X60  E25 F500                       ; Extrude 25mm of filament in a 5cm line. 
G92 E0                                     ; zero the extruded length again 
G1 E-2 F500                                ; Retract a little 
G1 X70 F4000                              ; Quickly wipe away from the filament line
M117
G90
G21
M82 ; use absolute distances for extrusion
G92 E0
; filament start gcode
M106 S0
;LAYER_CHANGE
;Z:0.24
;HEIGHT:0.24
; BEFORE_LAYER_CHANGE 0 @ 0.24mm
G1 E-2.5 F6000
G92 E0
; AFTER_LAYER_CHANGE 0 @ 0.24mm
;_SET_FAN_SPEED_CHANGING_LAYER
M204 P500
; printing object "quit.stl" id:2314885530818453514 copy 0
M204 T500
G1 X84.005 Y88.542 F18000
G1 Z.24
G1 E2.5 F6000
;TYPE:Brim
;WIDTH:0.5
G1 F3000
G1 X84.387 Y88.195 E2.52241
G1 X84.846 Y87.839 E2.54763
G1 X85.303 Y87.546 E2.57119
G1 X86.004 Y87.191 E2.60529
G1 X86.353 Y87.05 E2.62162
G1 X86.761 Y86.916 E2.64026
G1 X87.272 Y86.789 E2.66314
G1 X87.897 Y86.691 E2.6906
G1 X88.462 Y86.657 E2.71515
G1 X128.022 Y86.657 E4.43241
G1 X128.432 Y86.676 E4.45021
G1 X129.171 Y86.781 E4.48263
G1 X129.761 Y86.929 E4.50904
G1 X130.264 Y87.103 E4.53214
G1 X130.835 Y87.359 E4.55929
G1 X131.473 Y87.729 E4.59131
G1 X131.831 Y87.983 E4.61038
G1 X132.3 Y88.377 E4.63696
G1 X132.739 Y88.821 E4.66406
G1 X133.047 Y89.188 E4.68485
G1 X133.307 Y89.552 E4.70429
G1 X133.537 Y89.923 E4.72322
G1 X133.788 Y90.402 E4.74669
G1 X133.977 Y90.847 E4.76769
G1 X134.099 Y91.198 E4.7838
G1 X134.232 Y91.683 E4.80566
G1 X134.307 Y92.05 E4.8219
G1 X134.447 Y92.214 E4.83126
G1 X134.666 Y92.298 E4.84146
G1 X135.282 Y92.646 E4.87214
G1 X135.713 Y92.937 E4.89472
G1 X136.271 Y93.387 E4.92582
G1 X136.782 Y93.956 E4.95904
G1 X137.094 Y94.372 E4.98162
G1 X137.496 Y95.021 E5.01474
G1 X137.771 Y95.68 E5.04575
G1 X137.932 Y96.176 E5.06839
G1 X138.097 Y96.886 E5.10001
G1 X138.148 Y97.565 E5.1296
G1 X138.146 Y98.099 E5.15278
G1 X138.084 Y98.817 E5.18404
G1 X137.925 Y99.472 E5.21331
G1 X137.756 Y99.987 E5.23684
G1 X137.488 Y100.628 E5.26698
G1 X137.153 Y101.185 E5.29521
G1 X136.835 Y101.633 E5.31904
G1 X136.386 Y102.168 E5.34935
G1 X135.898 Y102.602 E5.37772
G1 X135.459 Y102.935 E5.40164
G1 X134.921 Y103.285 E5.4295
G1 X134.529 Y103.467 E5.44825
G1 X134.423 Y103.57 E5.45466
G1 X134.4 Y103.67 E5.45914
G1 X134.393 Y132.305 E6.70214
G1 X134.288 Y134.236 E6.78606
G1 X134.238 Y134.698 E6.80623
G1 X133.926 Y136.618 E6.89067
G1 X133.825 Y137.081 E6.91124
G1 X133.305 Y138.965 E6.99609
G1 X133.157 Y139.406 E7.0163
G1 X132.436 Y141.233 E7.10152
G1 X132.25 Y141.641 E7.12102
G1 X131.339 Y143.397 E7.20688
G1 X131.107 Y143.792 E7.22675
G1 X130.008 Y145.458 E7.3134
G1 X129.743 Y145.817 E7.33278
G1 X128.469 Y147.375 E7.42013
G1 X128.179 Y147.695 E7.43887
G1 X126.743 Y149.134 E7.52713
G1 X126.43 Y149.419 E7.54551
G1 X124.848 Y150.724 E7.63454
G1 X124.506 Y150.979 E7.65303
G1 X122.789 Y152.134 E7.74285
G1 X122.449 Y152.34 E7.76014
G1 X122.347 Y152.478 E7.76757
G1 X122.086 Y153.539 E7.81499
G1 X121.964 Y153.941 E7.83321
G1 X121.634 Y154.868 E7.87595
G1 X121.468 Y155.27 E7.89484
G1 X121.047 Y156.16 E7.93758
G1 X120.85 Y156.529 E7.95574
G1 X120.345 Y157.377 E7.99856
G1 X120.104 Y157.738 E8.01742
G1 X119.518 Y158.53 E8.06016
G1 X119.241 Y158.868 E8.07913
G1 X118.579 Y159.597 E8.12189
G1 X118.276 Y159.9 E8.14047
G1 X117.548 Y160.559 E8.18312
G1 X117.225 Y160.824 E8.20125
G1 X116.433 Y161.415 E8.24414
G1 X116.073 Y161.656 E8.26294
G1 X115.23 Y162.162 E8.30563
G1 X114.85 Y162.366 E8.32434
G1 X113.959 Y162.788 E8.36715
G1 X113.56 Y162.953 E8.38588
G1 X112.633 Y163.285 E8.42864
G1 X112.223 Y163.41 E8.44724
G1 X111.267 Y163.65 E8.49
G1 X110.848 Y163.733 E8.50858
G1 X109.872 Y163.878 E8.55139
G1 X109.454 Y163.92 E8.56961
G1 X108.473 Y163.971 E8.61227
G1 X108.028 Y163.971 E8.63159
G1 X107.042 Y163.922 E8.67446
G1 X106.622 Y163.881 E8.69278
G1 X105.648 Y163.737 E8.7355
G1 X105.23 Y163.654 E8.75402
G1 X104.274 Y163.416 E8.79678
G1 X103.864 Y163.292 E8.81538
G1 X102.936 Y162.961 E8.85812
G1 X102.534 Y162.795 E8.87702
G1 X101.644 Y162.374 E8.91976
G1 X101.275 Y162.177 E8.93792
G1 X100.427 Y161.672 E8.98074
G1 X100.059 Y161.426 E8.99996
G1 X99.264 Y160.836 E9.04295
G1 X98.937 Y160.567 E9.06129
G1 X98.211 Y159.91 E9.1038
G1 X97.912 Y159.612 E9.12214
G1 X97.249 Y158.884 E9.16488
G1 X96.972 Y158.547 E9.18384
G1 X96.385 Y157.756 E9.22658
G1 X96.143 Y157.394 E9.24546
G1 X95.637 Y156.547 E9.2883
G1 X95.439 Y156.178 E9.30646
G1 X95.017 Y155.29 E9.34917
G1 X94.85 Y154.888 E9.36807
G1 X94.519 Y153.96 E9.41082
G1 X94.394 Y153.551 E9.42941
G1 X94.131 Y152.48 E9.47728
G1 X94.03 Y152.341 E9.48473
G1 X93.7 Y152.141 E9.50148
G1 X91.985 Y150.988 E9.5912
G1 X91.649 Y150.738 E9.60936
G1 X90.062 Y149.434 E9.69851
G1 X89.742 Y149.144 E9.71725
G1 X88.307 Y147.706 E9.80545
G1 X88.017 Y147.386 E9.8242
G1 X86.745 Y145.829 E9.91147
G1 X86.482 Y145.473 E9.9307
G1 X85.381 Y143.808 E10.01733
G1 X85.153 Y143.42 E10.03686
G1 X84.236 Y141.665 E10.1228
G1 X84.045 Y141.246 E10.14281
G1 X83.325 Y139.421 E10.22799
G1 X83.178 Y138.983 E10.24801
G1 X82.656 Y137.1 E10.33285
G1 X82.555 Y136.637 E10.35341
G1 X82.241 Y134.717 E10.43786
G1 X82.191 Y134.25 E10.45828
G1 X82.079 Y132.069 E10.55307
G1 X82.079 Y93.15 E12.24247
G1 X82.106 Y92.591 E12.26677
G1 X82.172 Y92.073 E12.28945
G1 X82.384 Y91.196 E12.32859
G1 X82.521 Y90.807 E12.34649
G1 X82.732 Y90.323 E12.36942
G1 X82.94 Y89.928 E12.38882
G1 X83.159 Y89.574 E12.40686
G1 X83.44 Y89.181 E12.42785
G1 X83.721 Y88.841 E12.447
G1 X83.978 Y88.571 E12.46316
G1 X84.303 Y88.881 F18000
G1 F3000
G1 X84.323 Y88.86 E12.46442
G1 X84.68 Y88.535 E12.48536
G1 X85.101 Y88.209 E12.50845
G1 X85.52 Y87.939 E12.53012
G1 X86.199 Y87.596 E12.56315
G1 X86.89 Y87.346 E12.59504
G1 X87.367 Y87.228 E12.61637
G1 X87.952 Y87.137 E12.64207
G1 X88.479 Y87.105 E12.665
G1 X128.015 Y87.105 E14.38117
G1 X128.396 Y87.124 E14.39772
G1 X129.092 Y87.224 E14.42825
G1 X129.627 Y87.358 E14.45222
G1 X130.093 Y87.519 E14.47362
G1 X130.624 Y87.755 E14.49884
G1 X131.225 Y88.104 E14.52899
G1 X131.552 Y88.335 E14.5464
G1 X131.991 Y88.703 E14.57125
G1 X132.403 Y89.119 E14.59667
G1 X132.688 Y89.459 E14.61594
G1 X132.936 Y89.805 E14.6344
G1 X133.149 Y90.15 E14.65199
G1 X133.379 Y90.589 E14.67353
G1 X133.667 Y91.322 E14.70772
G1 X133.795 Y91.784 E14.7285
G1 X133.865 Y92.123 E14.74355
G1 X133.976 Y92.353 E14.75464
G1 X134.094 Y92.492 E14.76253
G1 X134.302 Y92.639 E14.77361
G1 X134.484 Y92.71 E14.78207
G1 X135.05 Y93.03 E14.81031
G1 X135.45 Y93.302 E14.83129
G1 X135.953 Y93.706 E14.8593
G1 X136.431 Y94.237 E14.8903
G1 X136.726 Y94.631 E14.91168
G1 X137.091 Y95.217 E14.94165
G1 X137.348 Y95.83 E14.97051
G1 X137.5 Y96.302 E14.99201
G1 X137.653 Y96.964 E15.02152
G1 X137.699 Y97.576 E15.04817
G1 X137.698 Y98.073 E15.06975
G1 X137.637 Y98.754 E15.09941
G1 X137.494 Y99.344 E15.12577
G1 X137.337 Y99.826 E15.14775
G1 X137.082 Y100.433 E15.17635
G1 X136.78 Y100.935 E15.20177
G1 X136.483 Y101.354 E15.22408
G1 X136.07 Y101.847 E15.25197
G1 X135.616 Y102.252 E15.27838
G1 X135.197 Y102.571 E15.30128
G1 X134.711 Y102.886 E15.3264
G1 X134.351 Y103.056 E15.3437
G1 X134.209 Y103.153 E15.35116
G1 X134.125 Y103.235 E15.35625
G1 X133.985 Y103.481 E15.36856
G1 X133.951 Y103.682 E15.37737
G1 X133.945 Y132.297 E16.61952
G1 X133.841 Y134.196 E16.70207
G1 X133.794 Y134.634 E16.72121
G1 X133.486 Y136.53 E16.8046
G1 X133.388 Y136.976 E16.82442
G1 X132.874 Y138.837 E16.90823
G1 X132.734 Y139.256 E16.9274
G1 X132.024 Y141.054 E17.0113
G1 X131.845 Y141.448 E17.03009
G1 X130.948 Y143.177 E17.11464
G1 X130.728 Y143.551 E17.1335
G1 X129.638 Y145.204 E17.21944
G1 X129.386 Y145.545 E17.23782
G1 X128.127 Y147.085 E17.32418
G1 X127.852 Y147.389 E17.34197
G1 X126.431 Y148.812 E17.42927
G1 X126.134 Y149.082 E17.44671
G1 X124.568 Y150.373 E17.53479
G1 X124.244 Y150.615 E17.55234
G1 X122.55 Y151.754 E17.64095
G1 X122.227 Y151.95 E17.65735
G1 X122.079 Y152.086 E17.66605
G1 X121.994 Y152.202 E17.67234
G1 X121.909 Y152.384 E17.68105
G1 X121.652 Y153.424 E17.72752
G1 X121.537 Y153.803 E17.74475
G1 X121.216 Y154.704 E17.78625
G1 X121.056 Y155.092 E17.80447
G1 X120.647 Y155.956 E17.84596
G1 X120.457 Y156.312 E17.86347
G1 X119.967 Y157.135 E17.90506
G1 X119.738 Y157.478 E17.92295
G1 X119.162 Y158.257 E17.96501
G1 X118.899 Y158.577 E17.98301
G1 X118.252 Y159.29 E18.0248
G1 X117.964 Y159.577 E18.04243
G1 X117.252 Y160.221 E18.08413
G1 X116.946 Y160.473 E18.10134
G1 X116.176 Y161.046 E18.14299
G1 X115.835 Y161.275 E18.16083
G1 X115.011 Y161.77 E18.20255
G1 X114.645 Y161.967 E18.22059
G1 X113.78 Y162.377 E18.26215
G1 X113.396 Y162.536 E18.28021
G1 X112.495 Y162.858 E18.32172
G1 X112.106 Y162.977 E18.33937
G1 X111.166 Y163.212 E18.38146
G1 X110.768 Y163.292 E18.39908
G1 X109.82 Y163.433 E18.44067
G1 X109.424 Y163.473 E18.45796
G1 X108.465 Y163.522 E18.49964
G1 X108.036 Y163.523 E18.51827
G1 X107.072 Y163.474 E18.56016
G1 X106.673 Y163.435 E18.57754
G1 X105.728 Y163.295 E18.61904
G1 X105.324 Y163.215 E18.63689
G1 X104.396 Y162.984 E18.6784
G1 X104.007 Y162.867 E18.69605
G1 X103.1 Y162.544 E18.73784
G1 X102.712 Y162.383 E18.75605
G1 X101.848 Y161.974 E18.79755
G1 X101.498 Y161.788 E18.81478
G1 X100.664 Y161.291 E18.85693
G1 X100.314 Y161.057 E18.87517
G1 X99.543 Y160.484 E18.9169
G1 X99.228 Y160.225 E18.93458
G1 X98.523 Y159.587 E18.97587
G1 X98.239 Y159.304 E18.99326
G1 X97.587 Y158.588 E19.03533
G1 X97.323 Y158.267 E19.05333
G1 X96.75 Y157.495 E19.0951
G1 X96.521 Y157.152 E19.113
G1 X96.029 Y156.329 E19.15461
G1 X95.839 Y155.973 E19.17212
G1 X95.429 Y155.11 E19.21359
G1 X95.268 Y154.723 E19.23181
G1 X94.944 Y153.816 E19.2736
G1 X94.826 Y153.428 E19.29119
G1 X94.57 Y152.385 E19.33781
G1 X94.485 Y152.203 E19.34653
G1 X94.399 Y152.087 E19.35282
G1 X94.251 Y151.951 E19.36154
G1 X93.939 Y151.761 E19.3774
G1 X92.246 Y150.623 E19.46593
G1 X91.928 Y150.387 E19.48315
G1 X90.353 Y149.093 E19.57164
G1 X90.05 Y148.817 E19.58942
G1 X88.63 Y147.395 E19.67665
G1 X88.356 Y147.091 E19.69444
G1 X87.101 Y145.557 E19.78045
G1 X86.848 Y145.213 E19.79898
G1 X85.76 Y143.567 E19.88462
G1 X85.543 Y143.199 E19.90315
G1 X84.641 Y141.471 E19.98777
G1 X84.456 Y141.067 E20.00706
G1 X83.747 Y139.271 E20.09091
G1 X83.606 Y138.849 E20.11021
G1 X83.091 Y136.988 E20.19401
G1 X82.995 Y136.549 E20.21352
G1 X82.686 Y134.661 E20.2966
G1 X82.638 Y134.21 E20.31626
G1 X82.527 Y132.054 E20.40998
G1 X82.527 Y93.164 E22.09812
G1 X82.553 Y92.636 E22.1211
G1 X82.613 Y92.162 E22.14184
G1 X82.817 Y91.317 E22.17954
G1 X82.94 Y90.967 E22.19567
G1 X83.135 Y90.522 E22.21676
G1 X83.327 Y90.154 E22.23476
G1 X83.535 Y89.82 E22.25185
G1 X83.793 Y89.459 E22.27112
G1 X84.06 Y89.136 E22.28932
G1 X84.275 Y88.91 E22.30286
G1 X84.6 Y89.219 F18000
G1 F3000
G1 X84.64 Y89.177 E22.30538
G1 X84.973 Y88.876 E22.32487
G1 X85.355 Y88.58 E22.34586
G1 X85.738 Y88.333 E22.36562
G1 X86.385 Y88.006 E22.39712
G1 X87.028 Y87.774 E22.42676
G1 X87.461 Y87.667 E22.44616
G1 X88.007 Y87.583 E22.4701
G1 X88.497 Y87.554 E22.49143
G1 X128 Y87.554 E24.20622
G1 X128.359 Y87.572 E24.2218
G1 X129.012 Y87.666 E24.25044
G1 X129.494 Y87.786 E24.272
G1 X129.923 Y87.934 E24.2917
G1 X130.413 Y88.152 E24.31499
G1 X130.977 Y88.478 E24.34328
G1 X131.274 Y88.687 E24.35903
G1 X131.682 Y89.029 E24.38215
G1 X132.068 Y89.417 E24.40589
G1 X132.331 Y89.73 E24.42363
G1 X132.565 Y90.057 E24.4411
G1 X132.761 Y90.376 E24.45734
G1 X132.967 Y90.769 E24.47662
G1 X133.244 Y91.473 E24.50943
G1 X133.466 Y92.329 E24.54781
G1 X133.642 Y92.65 E24.56371
G1 X133.845 Y92.865 E24.57656
G1 X134.033 Y92.998 E24.58654
G1 X134.299 Y93.121 E24.59926
G1 X134.809 Y93.409 E24.62468
G1 X135.187 Y93.666 E24.64454
G1 X135.651 Y94.041 E24.67042
G1 X136.088 Y94.527 E24.69879
G1 X136.359 Y94.889 E24.71842
G1 X136.695 Y95.434 E24.7462
G1 X136.925 Y95.981 E24.77198
G1 X137.066 Y96.415 E24.7918
G1 X137.209 Y97.042 E24.81968
G1 X137.25 Y97.587 E24.84344
G1 X137.249 Y98.047 E24.86341
G1 X137.191 Y98.691 E24.89146
G1 X137.064 Y99.217 E24.91494
G1 X136.918 Y99.664 E24.93535
G1 X136.676 Y100.238 E24.9624
G1 X136.407 Y100.685 E24.98504
G1 X136.131 Y101.075 E25.00581
G1 X135.74 Y101.54 E25.03217
G1 X135.335 Y101.902 E25.05575
G1 X134.942 Y102.201 E25.07717
G1 X134.501 Y102.488 E25.10004
G1 X134.093 Y102.69 E25.11979
G1 X133.815 Y102.911 E25.1352
G1 X133.73 Y103.022 E25.14125
G1 X133.601 Y103.25 E25.15263
G1 X133.541 Y103.419 E25.16042
G1 X133.511 Y103.596 E25.16823
G1 X133.496 Y132.288 E26.41371
G1 X133.394 Y134.156 E26.4949
G1 X133.349 Y134.57 E26.51301
G1 X133.046 Y136.443 E26.59534
G1 X132.952 Y136.872 E26.61443
G1 X132.444 Y138.71 E26.69718
G1 X132.311 Y139.106 E26.71531
G1 X131.613 Y140.875 E26.7979
G1 X131.44 Y141.255 E26.81599
G1 X130.557 Y142.957 E26.89923
G1 X130.349 Y143.311 E26.91706
G1 X129.268 Y144.95 E27.00229
G1 X129.03 Y145.272 E27.01968
G1 X127.784 Y146.795 E27.10506
G1 X127.524 Y147.082 E27.12188
G1 X126.119 Y148.49 E27.20823
G1 X125.838 Y148.745 E27.22472
G1 X124.289 Y150.022 E27.31186
G1 X123.982 Y150.25 E27.32846
G1 X122.311 Y151.374 E27.41587
G1 X122.006 Y151.56 E27.43138
G1 X121.712 Y151.829 E27.44866
G1 X121.584 Y152.02 E27.45863
G1 X121.471 Y152.287 E27.47125
G1 X121.219 Y153.308 E27.5169
G1 X121.11 Y153.666 E27.53312
G1 X120.796 Y154.546 E27.57368
G1 X120.644 Y154.913 E27.59093
G1 X120.248 Y155.751 E27.63119
G1 X120.065 Y156.094 E27.64805
G1 X119.589 Y156.893 E27.6884
G1 X119.373 Y157.217 E27.70533
G1 X118.806 Y157.983 E27.7467
G1 X118.557 Y158.286 E27.76372
G1 X117.925 Y158.983 E27.80455
G1 X117.653 Y159.254 E27.82122
G1 X116.957 Y159.884 E27.86198
G1 X116.667 Y160.122 E27.87825
G1 X115.92 Y160.678 E27.91869
G1 X115.597 Y160.895 E27.93556
G1 X114.793 Y161.379 E27.97632
G1 X114.44 Y161.568 E27.99368
G1 X113.595 Y161.968 E28.03427
G1 X113.231 Y162.119 E28.05138
G1 X112.357 Y162.431 E28.09165
G1 X111.983 Y162.545 E28.10863
G1 X111.064 Y162.775 E28.14976
G1 X110.688 Y162.85 E28.16642
G1 X109.768 Y162.987 E28.2068
G1 X109.393 Y163.025 E28.22314
G1 X108.456 Y163.074 E28.26385
G1 X108.043 Y163.074 E28.28178
G1 X107.102 Y163.027 E28.32269
G1 X106.725 Y162.989 E28.33914
G1 X105.807 Y162.854 E28.37941
G1 X105.419 Y162.777 E28.39659
G1 X104.518 Y162.552 E28.43688
G1 X104.15 Y162.441 E28.45357
G1 X103.264 Y162.126 E28.49439
G1 X102.891 Y161.972 E28.51193
G1 X102.052 Y161.575 E28.55219
G1 X101.721 Y161.399 E28.56849
G1 X100.901 Y160.909 E28.60995
G1 X100.57 Y160.689 E28.62721
G1 X99.822 Y160.132 E28.66769
G1 X99.518 Y159.883 E28.68471
G1 X98.834 Y159.264 E28.72479
G1 X98.566 Y158.997 E28.74123
G1 X97.924 Y158.292 E28.78263
G1 X97.675 Y157.989 E28.79964
G1 X97.115 Y157.234 E28.84044
G1 X96.898 Y156.909 E28.85738
G1 X96.421 Y156.111 E28.89776
G1 X96.238 Y155.768 E28.91461
G1 X95.84 Y154.931 E28.95485
G1 X95.685 Y154.558 E28.97238
G1 X95.371 Y153.679 E29.01292
G1 X95.26 Y153.313 E29.0295
G1 X95.009 Y152.291 E29.07518
G1 X94.84 Y151.93 E29.09249
G1 X94.694 Y151.749 E29.10258
