; HEADER_BLOCK_START
; generated by AnycubicSlicerNext 1.3.1 on 2026-02-10 at 20:37:43
; total layer number: 225
; filament_density: 1.24
; filament_diameter: 1.75
; max_z_height: 45.04
; HEADER_BLOCK_END

; THUMBNAIL_BLOCK_START

;
; THUMBNAIL_BLOCK_END

; external perimeters extrusion width = 0.42mm
; perimeters extrusion width = 0.45mm
; infill extrusion width = 0.45mm
; solid infill extrusion width = 0.42mm
; top infill extrusion width = 0.42mm
; support material extrusion width = 0.40mm
; first layer extrusion width = 0.50mm

; EXECUTABLE_BLOCK_START
M201 X2000 Y2000 Z800 E2000
M203 X300 Y300 Z8 E100
M204 P2000 R2000 T2000
M205 X10.00 Y10.00 Z2.00 E5.00 ; sets the jerk limits, mm/sec
;TYPE:Custom
G90 ; use absolute coordinates
M83 ; extruder relative mode
M104 S220 ; set extruder temp
M140 S60 ; set bed temp
M190 S60 ; wait for bed temp
M109 S220 ; wait for extruder temp
G28                                        ; move X/Y/Z to min endstops
G1 Z0.28                                   ; lift nozzle a bit 
G92 E0 
G1 Y3 F1800                                    ; zero the extruded length 
G1 X60  E25 F500                       ; Extrude 25mm of filament in a 5cm line. 
G92 E0                                     ; zero the extruded length again 
G1 E-2 F500                                ; Retract a little 
G1 X70 F4000                              ; Quickly wipe away from the filament line
M117
G90
G21
M82 ; use absolute distances for extrusion
G92 E0
; filament start gcode
M106 S0
;LAYER_CHANGE
;Z:0.24
;HEIGHT:0.24
; BEFORE_LAYER_CHANGE 0 @ 0.24mm
G1 E-2.5 F6000
G92 E0
; AFTER_LAYER_CHANGE 0 @ 0.24mm
;_SET_FAN_SPEED_CHANGING_LAYER
M204 P500
; printing object "cc2d4c345b6c409aa11855e62daf084d-xy.stl" id:12574121 copy 0
M204 T500
G1 X124.749 Y84.191 F18000
G1 Z.24
G1 E2.5 F6000
;TYPE:Support
;WIDTH:0.5
G1 F3000
G3 X128.341 Y96.2 I-28.57 J15.088 E3.04758
G3 X124.698 Y84.166 I-3.127 J-5.622 E4.04424
G1 X127.441 Y96.395 F18000
G1 F3000
G1 X127.441 Y92.89 E4.19636
G2 X126.943 Y90.807 I-29.109 J5.861 E4.28937
G1 X126.943 Y96.359 E4.53039
G1 X126.445 Y96.479 E4.55264
G1 X126.445 Y89.184 E4.86929
G2 X125.946 Y87.797 I-19.426 J6.198 E4.93327
G1 X125.946 Y96.564 E5.31385
G1 X125.448 Y96.604 E5.33554
G1 X125.448 Y86.579 E5.77071
G2 X124.95 Y85.488 I-15.339 J6.351 E5.82277
G1 X124.95 Y96.602 E6.30519
G1 X124.452 Y96.563 E6.32689
G1 X124.452 Y84.59 E6.84661
G2 X123.953 Y84.679 I.033 J1.618 E6.86868
G1 X123.953 Y96.473 E7.38063
G1 X123.455 Y96.354 E7.40288
G1 X123.455 Y84.799 E7.90444
G2 X122.957 Y84.986 I.34 J1.667 E7.92764
G1 X122.957 Y96.167 E8.41299
G3 X122.458 Y95.959 I.407 J-1.677 E8.43653
G1 X122.458 Y85.194 E8.90384
G1 X121.96 Y85.499 E8.92921
G1 X121.96 Y95.654 E9.37
G3 X121.462 Y95.301 I.863 J-1.749 E9.39661
G1 X121.462 Y85.851 E9.80681
G1 X120.963 Y86.277 E9.83526
G1 X120.963 Y94.876 E10.20851
G3 X120.465 Y94.301 I1.565 J-1.86 E10.24166
G1 X120.465 Y86.851 E10.56503
G2 X119.967 Y87.597 I2.105 J1.946 E10.60413
G1 X119.967 Y93.555 E10.86275
G3 X119.468 Y92.464 I3.195 J-2.119 E10.91502
G1 X119.468 Y88.161 E11.10183
G1 E9.35183 F6000
;WIPE_START
G1 F3000
G1 X119.468 Y89.161 E8.60183
;WIPE_END
G92 E0
G1 X124.169 Y108.215 F18000
G1 E2.5 F6000
G1 F3000
G3 X126.948 Y109.032 I-1.5 J10.232 E2.62614
G3 X120.635 Y120.249 I-31.348 J-10.259 E3.18846
G1 X120.322 Y120.057 E3.20441
G3 X124.102 Y108.21 I3.464 J-5.421 E3.93672
G1 X126.445 Y109.893 F18000
G1 F3000
G1 X126.445 Y109.214 E3.96622
G1 X125.946 Y109.007 E3.98964
G1 X125.946 Y110.648 E4.06086
G3 X125.448 Y111.867 I-17.083 J-6.276 E4.11802
G1 X125.448 Y108.836 E4.24955
G1 X124.95 Y108.717 E4.2718
G1 X124.95 Y112.957 E4.45584
G3 X124.452 Y113.948 I-14.035 J-6.437 E4.504
G1 X124.452 Y108.642 E4.7343
G1 X123.953 Y108.603 E4.756
G1 X123.953 Y114.858 E5.02753
G3 X123.455 Y115.703 I-11.936 J-6.468 E5.07013
G1 X123.455 Y108.615 E5.37781
G1 X122.957 Y108.654 E5.39951
G1 X122.957 Y116.494 E5.73983
G3 X122.458 Y117.24 I-10.564 J-6.519 E5.77877
G1 X122.458 Y108.755 E6.1471
G1 X121.96 Y108.875 E6.16935
G1 X121.96 Y117.947 E6.56318
G1 X121.462 Y118.603 E6.59892
G1 X121.462 Y109.073 E7.01258
G2 X120.963 Y109.295 I.45 J1.684 E7.03635
G1 X120.963 Y119.229 E7.46761
G1 X120.556 Y119.727 E7.49551
G1 X120.465 Y109.6 E7.93513
G2 X119.967 Y109.969 I.915 J1.758 E7.96215
G1 X119.967 Y119.302 E8.3673
G3 X119.468 Y118.864 I1.134 J-1.792 E8.39623
G1 X119.468 Y110.407 E8.76333
G1 X118.97 Y110.99 E8.79664
G1 X118.97 Y118.281 E9.11309
G3 X118.472 Y117.503 I8.347 J-5.9 E9.15319
G1 X118.472 Y111.768 E9.40216
G2 X117.973 Y113.017 I6.545 J3.335 E9.46062
G1 X117.973 Y116.886 E9.62859
G1 E7.87859 F6000
;WIPE_START
G1 F3000
G1 X117.973 Y115.886 E7.12859
;WIPE_END
G92 E0
G1 X122.187 Y135.217 F18000
G1 E2.5 F6000
G1 F3000
G3 X118.592 Y140.908 I-5.056 J.787 E2.8189
G3 X121.984 Y146.321 I-3.26 J5.812 E3.10807
G3 X124.408 Y148.888 I.006 J2.422 E3.27981
G3 X124.468 Y151.123 I-7.132 J1.311 E3.37727
G2 X125.155 Y152.64 I2.11 J-.042 E3.45155
G3 X125.292 Y155.777 I-2.75 J1.692 E3.59392
G3 X125.487 Y157.589 I-3.398 J1.283 E3.67389
G3 X118.341 Y157.777 I-3.511 J2.472 E4.47825
G3 X118.488 Y155.784 I4.874 J-.643 E4.56562
G3 X115.983 Y153.656 I.666 J-3.322 E4.71458
G1 X116.113 Y152.876 E4.74888
G3 X109.721 Y148.579 I-.307 J-6.445 E5.10715
G3 X111.44 Y141.718 I6.642 J-1.981 E5.42935
G3 X114.312 Y140.013 I5.312 J5.678 E5.57545
G1 X113.848 Y139.494 E5.60568
G2 X122.066 Y134.821 I-17.029 J-39.514 E6.01687
G1 X122.168 Y135.153 E6.03191
G1 E4.28191 F6000
;WIPE_START
G1 F3000
G1 X122.066 Y134.821 E4.02201
G1 X121.514 Y135.171 E3.53191
;WIPE_END
G92 E0
G1 X125.448 Y162.222 F18000
G1 E2.5 F6000
G1 F3000
G1 X125.448 Y157.919 E2.68678
G1 X124.95 Y162.869 F18000
G1 F3000
G1 X124.95 Y153.178 E3.10746
G2 X124.452 Y152.416 I-1.613 J.51 E3.1475
G1 X124.452 Y163.076 E3.61024
G1 X123.953 Y163.425 E3.63664
G1 X123.953 Y148.187 E4.29807
G2 X123.455 Y147.316 I-1.065 J.03 E4.34346
G1 X123.455 Y163.659 E5.05293
G3 X122.957 Y163.836 I-.657 J-1.06 E5.07606
G1 X122.957 Y146.976 E5.80794
G2 X122.458 Y146.815 I-1.047 J2.386 E5.83072
G1 X122.458 Y163.929 E6.57362
G3 X121.96 Y163.959 I-.329 J-1.322 E6.59541
G1 X121.96 Y146.738 E7.34295
G1 X121.603 Y146.62 E7.35925
G2 X121.462 Y145.393 I-3.838 J-.179 E7.41311
G1 X121.462 Y163.935 E8.218
G3 X120.963 Y163.818 I.059 J-1.367 E8.24035
G1 X120.963 Y143.943 E9.10307
G2 X120.465 Y143.126 I-2.761 J1.122 E9.14482
G1 X120.465 Y163.652 E10.03584
G1 X119.967 Y163.407 E10.05995
G1 X119.967 Y142.541 E10.9657
G2 X119.468 Y142.077 I-1.674 J1.299 E10.99537
G1 X119.468 Y163.034 E11.90508
G3 X118.97 Y162.524 I.925 J-1.402 E11.93628
G1 X118.97 Y141.689 E12.84069
G3 X118.472 Y141.32 I5.18 J-7.506 E12.86763
G1 X118.472 Y155.366 E13.47734
G3 X117.973 Y155.235 I.002 J-1.025 E13.49995
G1 X117.973 Y137.906 E14.25217
G3 X117.475 Y138.184 I-7.595 J-13.041 E14.27694
G1 X117.475 Y154.974 E15.00577
G3 X116.977 Y154.497 I.432 J-.951 E15.03629
G1 X116.977 Y138.444 E15.73311
G1 X116.478 Y138.705 E15.75752
G1 X116.478 Y154.1 E16.42583
G1 E14.67583 F6000
;WIPE_START
G1 F3000
G1 X116.478 Y153.1 E13.92583
;WIPE_END
G92 E0
G1 X121.462 Y138.474 F18000
G1 E2.5 F6000
G1 F3000
G1 X121.462 Y135.744 E2.61851
G3 X120.963 Y136.079 I-16.907 J-24.59 E2.64458
G1 X120.963 Y138.865 E2.76551
G3 X120.465 Y139.428 I-1.687 J-.991 E2.79836
G1 X120.465 Y136.41 E2.92938
G3 X119.967 Y136.725 I-7.615 J-11.505 E2.95497
G1 X119.967 Y139.853 E3.09076
G3 X119.468 Y140.134 I-.966 J-1.132 E3.11574
G1 X119.468 Y137.032 E3.25038
G3 X118.97 Y137.337 I-8.793 J-13.789 E3.27575
G1 X118.97 Y140.358 E3.40686
G1 X118.472 Y140.523 E3.42964
G1 X118.472 Y137.391 E3.56559
G1 X118.472 Y162.186 F18000
G1 F3000
G1 X118.472 Y157.954 E3.74927
G1 E1.99927 F6000
;WIPE_START
G1 F3000
G1 X118.472 Y158.954 E1.24927
;WIPE_END
G92 E0
G1 X115.98 Y152.679 F18000
G1 E2.5 F6000
G1 F3000
G1 X115.98 Y138.955 E3.09575
G1 X115.482 Y139.193 E3.11972
G1 X115.482 Y152.497 E3.6972
G3 X114.983 Y152.441 I-.078 J-1.562 E3.71906
G1 X114.983 Y139.208 E4.29351
G1 X114.485 Y152.583 F18000
G1 F3000
G1 X114.485 Y140.389 E4.82283
G2 X113.987 Y140.5 I.025 J1.289 E4.84514
G1 X113.987 Y152.232 E5.35439
G3 X113.488 Y152.068 I.258 J-1.622 E5.37726
G1 X113.488 Y140.716 E5.87003
G2 X112.99 Y140.971 I.447 J1.49 E5.89445
G1 X112.99 Y151.831 E6.36587
G3 X112.492 Y151.541 I.644 J-1.683 E6.39099
G1 X112.492 Y141.304 E6.83538
G2 X111.993 Y141.75 I1.05 J1.675 E6.86453
G1 X111.993 Y151.197 E7.27461
G3 X111.495 Y150.728 I1.193 J-1.769 E7.30443
G1 X111.495 Y142.305 E7.67007
G2 X110.997 Y143.045 I7.733 J5.745 E7.70882
G1 X110.997 Y150.148 E8.01717
G3 X110.498 Y149.37 I2.15 J-1.924 E8.05747
G1 X110.498 Y143.824 E8.29821
G2 X110 Y145.055 I3.543 J2.15 E8.35611
G1 X110 Y148.777 E8.51767
G1 E6.76767 F6000
;WIPE_START
G1 F3000
G1 X110 Y147.777 E6.01767
;WIPE_END
G92 E0
G1 X107.757 Y140.593 F18000
G1 E2.5 F6000
;TYPE:Brim
G1 F3000
G1 X107.066 Y140.782 E2.53108
G1 X105.578 Y141.137 E2.59751
G1 X104.078 Y141.438 E2.66391
G1 X102.41 Y141.708 E2.73725
G1 X100.892 Y141.896 E2.80365
G1 X99.367 Y142.029 E2.87008
G1 X97.84 Y142.108 E2.93649
G1 X96.474 Y142.133 E2.99578
G1 X95.831 Y142.096 E3.02374
G1 X95.208 Y141.966 E3.05137
G1 X94.649 Y141.763 E3.07718
G1 X94.079 Y141.475 E3.10492
G1 X93.56 Y141.107 E3.13251
G1 X93.102 Y140.666 E3.1601
G1 X92.718 Y140.165 E3.18753
G1 X92.285 Y139.314 E3.22896
G1 X92.092 Y138.71 E3.25649
G1 X91.992 Y138.082 E3.28409
G1 X91.976 Y136.73 E3.34279
G1 X92.024 Y136.089 E3.37069
G1 X92.165 Y135.468 E3.39832
G1 X92.378 Y134.913 E3.42412
G1 X92.676 Y134.348 E3.45186
G1 X93.053 Y133.836 E3.47945
G1 X93.502 Y133.387 E3.50705
G1 X94.011 Y133.01 E3.53452
G1 X94.791 Y132.622 E3.57234
G1 X95.393 Y132.43 E3.59975
G1 X96.319 Y132.312 E3.64029
G1 X97.585 Y132.29 E3.69525
G1 X98.778 Y132.225 E3.7471
G1 X99.968 Y132.117 E3.79897
G1 X101.153 Y131.966 E3.85083
G1 X102.324 Y131.774 E3.90233
G1 X103.503 Y131.537 E3.95454
G1 X104.665 Y131.259 E4.00641
G1 X105.808 Y130.942 E4.05791
G1 X106.955 Y130.578 E4.11012
G1 X108.08 Y130.176 E4.16198
G1 X109.19 Y129.734 E4.21384
G1 X110.277 Y129.255 E4.2654
G1 X111.351 Y128.734 E4.31722
G1 X112.413 Y128.171 E4.36942
G1 X113.441 Y127.578 E4.42093
G1 X114.453 Y126.943 E4.47279
G1 X115.442 Y126.273 E4.52465
G1 X116.413 Y125.563 E4.57686
G1 X117.344 Y124.828 E4.62836
G1 X118.255 Y124.054 E4.68022
G1 X119.143 Y123.243 E4.73244
G1 X119.995 Y122.406 E4.7843
G1 X120.812 Y121.545 E4.83581
G1 X121.607 Y120.642 E4.88801
G1 X122.363 Y119.718 E4.93987
G1 X123.082 Y118.773 E4.99139
G1 X123.775 Y117.79 E5.04359
G1 X124.427 Y116.789 E5.09545
G1 X125.039 Y115.773 E5.14697
G1 X125.618 Y114.727 E5.19882
G1 X126.155 Y113.668 E5.25039
G1 X126.664 Y112.57 E5.30291
G1 X127.125 Y111.469 E5.35475
G1 X127.545 Y110.359 E5.40626
G1 X127.929 Y109.219 E5.45847
G1 X128.269 Y108.074 E5.51032
G1 X128.566 Y106.925 E5.56184
G1 X128.825 Y105.75 E5.61405
G1 X129.039 Y104.575 E5.66591
G1 X129.21 Y103.401 E5.71742
G1 X129.34 Y102.205 E5.76963
G1 X129.427 Y101.014 E5.82148
G1 X129.47 Y99.82 E5.87335
G1 X129.47 Y98.625 E5.92521
G1 X129.427 Y97.439 E5.97671
G1 X129.341 Y96.248 E6.02857
G1 X129.213 Y95.067 E6.08014
G1 X129.039 Y93.869 E6.13266
G1 X128.825 Y92.694 E6.1845
G1 X128.57 Y91.535 E6.23601
G1 X128.269 Y90.371 E6.28822
G1 X127.929 Y89.226 E6.34008
G1 X127.55 Y88.101 E6.39159
G1 X127.128 Y86.983 E6.44345
G1 X126.663 Y85.874 E6.49565
G1 X126.161 Y84.79 E6.54752
G1 X125.621 Y83.725 E6.59938
G1 X125.047 Y82.686 E6.65089
G1 X124.427 Y81.656 E6.7031
G1 X123.774 Y80.655 E6.75495
G1 X123.086 Y79.678 E6.80682
G1 X122.368 Y78.733 E6.85832
G1 X121.606 Y77.803 E6.91054
G1 X120.822 Y76.912 E6.96205
G1 X120.001 Y76.045 E7.0139
G1 X119.149 Y75.207 E7.06576
G1 X118.261 Y74.396 E7.11797
G1 X117.35 Y73.622 E7.16983
G1 X116.419 Y72.887 E7.22134
G1 X115.455 Y72.181 E7.27321
G1 X114.46 Y71.506 E7.32541
G1 X113.447 Y70.872 E7.37727
G1 X112.413 Y70.274 E7.42913
G1 X111.357 Y69.715 E7.48099
G1 X110.282 Y69.193 E7.53285
G1 X109.189 Y68.711 E7.58471
G1 X108.079 Y68.269 E7.63657
G1 X106.954 Y67.867 E7.68843
G1 X105.815 Y67.506 E7.74029
G1 X104.672 Y67.188 E7.7918
G1 X103.51 Y66.91 E7.84366
G1 X102.339 Y66.674 E7.89551
G1 X101.154 Y66.479 E7.94766
G1 X99.607 Y66.273 E8.01539
G1 X84.277 Y63.28 E8.69343
G1 X83.656 Y63.11 E8.72139
G1 X83.073 Y62.852 E8.74902
G1 X82.569 Y62.537 E8.77482
G1 X82.072 Y62.136 E8.80256
G1 X81.642 Y61.668 E8.83015
G1 X81.287 Y61.141 E8.85774
G1 X81.015 Y60.57 E8.88519
G1 X80.776 Y59.688 E8.92483
G1 X80.708 Y59.057 E8.95238
G1 X80.736 Y58.421 E8.98002
G1 X80.976 Y57.126 E9.03718
G1 X81.146 Y56.506 E9.06509
G1 X81.404 Y55.923 E9.09278
G1 X81.652 Y55.517 E9.11343
G1 X82.12 Y54.922 E9.14631
G1 X82.588 Y54.493 E9.17385
G1 X83.115 Y54.138 E9.20144
G1 X83.687 Y53.865 E9.22894
G1 X84.461 Y53.646 E9.26388
G1 X85.199 Y53.56 E9.29613
G1 X85.837 Y53.587 E9.32386
G1 X101.34 Y56.601 E10.00943
G1 X102.722 Y56.783 E10.06991
G1 X104.231 Y57.036 E10.13632
G1 X105.73 Y57.342 E10.20275
G1 X107.063 Y57.662 E10.26224
G1 X108.691 Y58.115 E10.33559
G1 X109.997 Y58.528 E10.39507
G1 X111.439 Y59.039 E10.46148
G1 X112.862 Y59.602 E10.5279
G1 X114.264 Y60.214 E10.59431
G1 X115.643 Y60.876 E10.66073
G1 X116.998 Y61.587 E10.72714
G1 X118.327 Y62.346 E10.79356
G1 X119.713 Y63.206 E10.86438
G1 X121.017 Y64.085 E10.93262
G1 X122.288 Y65.012 E11.00094
G1 X123.424 Y65.902 E11.06358
G1 X124.415 Y66.732 E11.11966
G1 X125.665 Y67.853 E11.1926
G1 X126.868 Y69.021 E11.26537
G1 X127.925 Y70.127 E11.33177
G1 X128.839 Y71.149 E11.39126
G1 X129.819 Y72.324 E11.45769
G1 X130.757 Y73.533 E11.52411
G1 X131.741 Y74.905 E11.59743
G1 X132.586 Y76.182 E11.66386
G1 X133.303 Y77.349 E11.72334
G1 X134.135 Y78.819 E11.79667
G1 X134.839 Y80.178 E11.86309
G1 X135.427 Y81.416 E11.92258
G1 X136.037 Y82.819 E11.98899
G1 X136.597 Y84.243 E12.05541
G1 X137.155 Y85.837 E12.12873
G1 X137.607 Y87.299 E12.19516
G1 X137.966 Y88.622 E12.25465
G1 X138.318 Y90.11 E12.32106
G1 X138.644 Y91.769 E12.39441
G1 X138.861 Y93.122 E12.4539
G1 X139.051 Y94.639 E12.5203
G1 X139.198 Y96.322 E12.59363
G1 X139.275 Y97.851 E12.66006
G1 X139.297 Y99.221 E12.71955
G1 X139.269 Y100.751 E12.78595
G1 X139.188 Y102.278 E12.85237
G1 X139.034 Y103.961 E12.92571
G1 X138.861 Y105.32 E12.98519
G1 X138.617 Y106.831 E13.05161
G1 X138.286 Y108.479 E13.12458
G1 X137.928 Y109.975 E13.19135
G1 X137.518 Y111.449 E13.25777
G1 X137.106 Y112.756 E13.31725
G1 X136.545 Y114.341 E13.39025
G1 X135.977 Y115.77 E13.457
G1 X135.429 Y117.026 E13.5165
G1 X134.769 Y118.407 E13.58291
G1 X133.984 Y119.903 E13.65626
G1 X133.305 Y121.093 E13.71574
G1 X132.502 Y122.395 E13.78215
G1 X131.561 Y123.799 E13.85549
G1 X130.663 Y125.037 E13.9219
G1 X129.821 Y126.119 E13.98139
G1 X128.841 Y127.294 E14.04781
G1 X127.711 Y128.549 E14.12114
G1 X126.645 Y129.648 E14.18756
G1 X125.659 Y130.598 E14.24705
G1 X124.448 Y131.686 E14.31767
G1 X123.222 Y132.706 E14.3869
G1 X122.07 Y133.597 E14.45013
G1 X120.906 Y134.438 E14.51248
G1 X119.62 Y135.299 E14.57967
G1 X118.192 Y136.179 E14.65245
G1 X116.861 Y136.933 E14.71886
G1 X115.647 Y137.567 E14.77834
G1 X114.122 Y138.296 E14.85171
G1 X112.865 Y138.842 E14.91119
G1 X111.442 Y139.405 E14.9776
G1 X109.849 Y139.966 E15.05093
G1 X108.388 Y140.42 E15.11734
G1 X107.795 Y140.583 E15.14401
G1 X107.677 Y140.15 F18000
G1 F3000
G1 X106.953 Y140.348 E15.1766
G1 X105.484 Y140.698 E15.24215
G1 X103.995 Y140.997 E15.30805
G1 X102.349 Y141.263 E15.38044
G1 X100.842 Y141.45 E15.44635
G1 X99.334 Y141.582 E15.51208
G1 X97.826 Y141.66 E15.57761
G1 X96.478 Y141.684 E15.63616
G1 X95.88 Y141.648 E15.66215
G1 X95.34 Y141.535 E15.68609
G1 X94.82 Y141.347 E15.71011
G1 X94.303 Y141.084 E15.7353
G1 X93.84 Y140.754 E15.75997
G1 X93.445 Y140.373 E15.78378
G1 X93.093 Y139.913 E15.80891
G1 X92.698 Y139.133 E15.84689
G1 X92.528 Y138.596 E15.87134
G1 X92.441 Y138.053 E15.89518
G1 X92.425 Y136.75 E15.95177
G1 X92.471 Y136.146 E15.97806
G1 X92.593 Y135.608 E16.002
G1 X92.784 Y135.106 E16.02531
G1 X93.063 Y134.579 E16.0512
G1 X93.402 Y134.122 E16.07588
G1 X93.804 Y133.721 E16.10055
G1 X94.257 Y133.389 E16.12493
G1 X94.951 Y133.043 E16.15859
G1 X95.478 Y132.873 E16.18263
G1 X96.359 Y132.76 E16.22117
G1 X97.612 Y132.737 E16.27558
