; HEADER_BLOCK_START
; generated by AnycubicSlicerNext 1.3.1 on 2026-02-08 at 00:31:32
; total layer number: 290
; filament_density: 1.24
; filament_diameter: 1.75
; max_z_height: 58.04
; HEADER_BLOCK_END

; THUMBNAIL_BLOCK_START

;
; THUMBNAIL_BLOCK_END

; external perimeters extrusion width = 0.42mm
; perimeters extrusion width = 0.45mm
; infill extrusion width = 0.45mm
; solid infill extrusion width = 0.42mm
; top infill extrusion width = 0.42mm
; first layer extrusion width = 0.50mm

; EXECUTABLE_BLOCK_START
M201 X2000 Y2000 Z800 E2000
M203 X300 Y300 Z8 E100
M204 P2000 R2000 T2000
M205 X10.00 Y10.00 Z2.00 E5.00 ; sets the jerk limits, mm/sec
;TYPE:Custom
G90 ; use absolute coordinates
M83 ; extruder relative mode
M104 S220 ; set extruder temp
M140 S60 ; set bed temp
M190 S60 ; wait for bed temp
M109 S220 ; wait for extruder temp
G28                                        ; move X/Y/Z to min endstops
G1 Z0.28                                   ; lift nozzle a bit 
G92 E0 
G1 Y3 F1800                                    ; zero the extruded length 
G1 X60  E25 F500                       ; Extrude 25mm of filament in a 5cm line. 
G92 E0                                     ; zero the extruded length again 
G1 E-2 F500                                ; Retract a little 
G1 X70 F4000                              ; Quickly wipe away from the filament line
M117
G90
G21
M82 ; use absolute distances for extrusion
G92 E0
; filament start gcode
M106 S0
;LAYER_CHANGE
;Z:0.24
;HEIGHT:0.24
; BEFORE_LAYER_CHANGE 0 @ 0.24mm
G1 E-2.5 F6000
G92 E0
; AFTER_LAYER_CHANGE 0 @ 0.24mm
;_SET_FAN_SPEED_CHANGING_LAYER
M204 P500
; printing object "rosemodel.stl" id:1780801674752 copy 0
M204 T500
G1 X33.387 Y63.086 F18000
G1 Z.24
G1 E2.5 F6000
;TYPE:Brim
;WIDTH:0.5
G1 F3000
G1 X34.38 Y62.578 E2.54844
G1 X36.475 Y61.594 E2.6489
G1 X38.52 Y60.738 E2.74515
G1 X40.599 Y59.966 E2.8414
G1 X42.712 Y59.281 E2.93782
G1 X44.819 Y58.696 E3.03276
G1 X45.925 Y58.424 E3.08218
G1 X47.99 Y57.986 E3.17382
G1 X50.187 Y57.613 E3.27054
G1 X51.376 Y57.448 E3.32265
G1 X52.481 Y57.322 E3.37094
G1 X53.58 Y57.221 E3.41885
G1 X55.035 Y57.123 E3.48216
G1 X55.175 Y57.061 E3.48881
G1 X55.426 Y56.82 E3.5039
G1 X55.942 Y56.454 E3.53136
G1 X56.741 Y56.079 E3.56968
G1 X57.347 Y55.901 E3.59708
G1 X58.286 Y55.806 E3.63807
G1 X59.032 Y55.811 E3.67044
G1 X59.908 Y55.84 E3.7085
G1 X60.548 Y55.909 E3.73645
G1 X61.165 Y56.072 E3.76413
G1 X61.606 Y56.252 E3.7848
G1 X62.267 Y56.621 E3.81767
G1 X62.765 Y57.015 E3.84521
G1 X63.199 Y57.479 E3.87281
G1 X63.559 Y58.001 E3.90032
G1 X63.888 Y58.705 E3.93406
G1 X64.094 Y59.413 E3.96608
G1 X64.177 Y60.353 E4.00705
G1 X63.898 Y73.673 E4.58536
G1 X63.832 Y75.165 E4.65021
G1 X63.756 Y75.805 E4.67817
G1 X63.587 Y76.419 E4.7058
G1 X63.35 Y76.964 E4.73161
G1 X63.028 Y77.515 E4.75934
G1 X62.628 Y78.01 E4.78694
G1 X62.16 Y78.44 E4.81453
G1 X61.635 Y78.793 E4.842
G1 X60.83 Y79.15 E4.88024
G1 X60.22 Y79.314 E4.90764
G1 X59.279 Y79.388 E4.9486
G1 X57.957 Y79.361 E5.00603
G1 X56.68 Y79.387 E5.06145
G1 X56.036 Y79.42 E5.08944
G1 X54.768 Y79.526 E5.14469
G1 X53.496 Y79.689 E5.20037
G1 X52.856 Y79.79 E5.22846
G1 X52.223 Y79.902 E5.25638
G1 X50.978 Y80.166 E5.31161
G1 X49.731 Y80.487 E5.36754
G1 X49.124 Y80.664 E5.39498
G1 X47.906 Y81.058 E5.45052
G1 X46.688 Y81.514 E5.507
G1 X45.519 Y82.004 E5.56202
G1 X44.364 Y82.547 E5.61742
G1 X43.227 Y83.143 E5.67313
G1 X42.109 Y83.788 E5.72917
G1 X41.026 Y84.475 E5.78484
G1 X39.982 Y85.201 E5.84005
G1 X38.96 Y85.978 E5.89575
G1 X38.461 Y86.382 E5.92364
G1 X37.49 Y87.218 E5.97925
G1 X36.554 Y88.098 E6.03502
G1 X35.664 Y89.008 E6.09028
G1 X35.233 Y89.477 E6.11794
G1 X34.391 Y90.453 E6.17388
G1 X33.986 Y90.952 E6.20178
G1 X33.216 Y91.965 E6.25702
G1 X32.137 Y93.552 E6.34033
G1 X31.473 Y94.647 E6.39588
G1 X30.562 Y96.348 E6.47967
G1 X30.017 Y97.508 E6.53532
G1 X29.76 Y98.099 E6.56326
G1 X29.289 Y99.288 E6.61878
G1 X28.871 Y100.486 E6.67386
G1 X28.334 Y102.34 E6.75766
G1 X28.042 Y103.581 E6.81298
G1 X27.699 Y105.479 E6.89673
G1 X27.541 Y106.743 E6.95201
G1 X27.432 Y108.027 E7.00796
G1 X27.379 Y109.308 E7.06361
G1 X27.372 Y109.946 E7.09128
G1 X27.379 Y110.588 E7.11919
G1 X27.432 Y111.871 E7.17489
G1 X27.541 Y113.155 E7.23086
G1 X27.699 Y114.418 E7.28609
G1 X28.041 Y116.312 E7.36966
G1 X28.18 Y116.933 E7.39727
G1 X28.499 Y118.174 E7.45288
G1 X28.871 Y119.408 E7.50884
G1 X29.29 Y120.614 E7.56427
G1 X29.76 Y121.799 E7.61962
G1 X30.015 Y122.389 E7.6475
G1 X30.562 Y123.548 E7.70315
G1 X31.157 Y124.687 E7.75892
G1 X31.471 Y125.245 E7.7867
G1 X31.798 Y125.798 E7.81458
G1 X32.48 Y126.873 E7.86986
G1 X33.212 Y127.927 E7.92555
G1 X33.987 Y128.945 E7.98109
G1 X34.806 Y129.938 E8.03697
G1 X35.227 Y130.414 E8.06457
G1 X35.667 Y130.893 E8.09279
G1 X36.55 Y131.797 E8.14767
G1 X37.49 Y132.68 E8.20363
G1 X38.461 Y133.517 E8.25928
G1 X39.471 Y134.316 E8.31518
G1 X40.501 Y135.065 E8.37048
G1 X41.032 Y135.427 E8.39836
G1 X42.119 Y136.115 E8.4542
G1 X42.673 Y136.443 E8.48214
G1 X43.783 Y137.054 E8.53716
G1 X44.938 Y137.627 E8.59313
G1 X46.103 Y138.146 E8.64848
G1 X47.292 Y138.617 E8.70398
G1 X48.509 Y139.041 E8.75993
G1 X49.734 Y139.412 E8.81549
G1 X50.349 Y139.576 E8.84311
G1 X51.607 Y139.87 E8.89919
G1 X53.491 Y140.21 E8.98229
G1 X54.756 Y140.368 E9.03766
G1 X56.048 Y140.478 E9.09395
G1 X56.687 Y140.513 E9.1217
G1 X57.957 Y140.539 E9.17684
G1 X59.283 Y140.511 E9.23444
G1 X59.928 Y140.54 E9.26244
G1 X60.552 Y140.663 E9.29007
G1 X61.113 Y140.859 E9.31587
G1 X61.687 Y141.14 E9.34361
G1 X62.21 Y141.502 E9.3712
G1 X62.673 Y141.937 E9.3988
G1 X63.064 Y142.434 E9.42623
G1 X63.498 Y143.255 E9.46653
G1 X63.701 Y143.856 E9.49408
G1 X63.813 Y144.482 E9.5217
G1 X63.859 Y145.84 E9.5807
G1 X63.927 Y146.662 E9.61649
G1 X64.721 Y159.291 E10.16577
G1 X64.713 Y159.935 E10.19373
G1 X64.611 Y160.563 E10.22136
G1 X64.433 Y161.131 E10.24716
G1 X64.171 Y161.713 E10.2749
G1 X63.827 Y162.248 E10.30249
G1 X63.407 Y162.725 E10.33008
G1 X62.923 Y163.132 E10.35753
G1 X62.146 Y163.578 E10.39643
G1 X61.444 Y163.836 E10.42888
G1 X60.818 Y163.957 E10.45655
G1 X60.406 Y163.986 E10.47449
G1 X58.89 Y164.018 E10.54032
G1 X58.247 Y163.983 E10.56828
G1 X57.622 Y163.854 E10.59596
G1 X57.172 Y163.698 E10.61662
G1 X56.492 Y163.366 E10.6495
G1 X55.973 Y163.001 E10.67703
G1 X55.841 Y162.874 E10.68497
G1 X55.701 Y162.813 E10.69164
G1 X53.48 Y162.67 E10.78823
G1 X51.378 Y162.448 E10.87997
G1 X50.18 Y162.286 E10.93245
G1 X49.081 Y162.11 E10.98075
G1 X47.016 Y161.717 E11.07202
G1 X44.855 Y161.213 E11.16835
G1 X42.706 Y160.613 E11.2652
G1 X41.658 Y160.287 E11.31283
G1 X40.595 Y159.929 E11.36151
G1 X38.523 Y159.164 E11.4574
G1 X36.486 Y158.308 E11.55331
G1 X34.471 Y157.365 E11.64987
G1 X33.48 Y156.86 E11.69817
G1 X32.427 Y156.295 E11.75004
G1 X31.454 Y155.747 E11.7985
G1 X29.647 Y154.653 E11.89022
G1 X27.792 Y153.424 E11.98678
G1 X25.924 Y152.067 E12.08703
G1 X24.187 Y150.688 E12.18331
G1 X22.583 Y149.305 E12.27524
G1 X21.764 Y148.553 E12.32351
G1 X20.175 Y146.997 E12.42006
G1 X19.418 Y146.214 E12.46731
G1 X18.656 Y145.385 E12.5162
G1 X17.151 Y143.641 E12.61619
G1 X16.453 Y142.779 E12.66434
G1 X15.17 Y141.088 E12.7565
G1 X13.844 Y139.184 E12.85719
G1 X13.248 Y138.261 E12.9049
G1 X12.152 Y136.456 E12.99656
G1 X11.076 Y134.503 E13.09335
G1 X10.049 Y132.434 E13.19363
G1 X9.588 Y131.425 E13.24178
G1 X8.77 Y129.481 E13.33333
G1 X8.368 Y128.439 E13.38178
G1 X7.964 Y127.314 E13.43367
G1 X7.608 Y126.259 E13.48204
G1 X7.274 Y125.193 E13.53049
G1 X6.968 Y124.131 E13.57849
G1 X6.442 Y122.085 E13.67019
G1 X5.977 Y119.909 E13.7668
G1 X5.781 Y118.822 E13.81474
G1 X5.593 Y117.634 E13.86692
G1 X5.443 Y116.533 E13.91515
G1 X5.221 Y114.437 E14.00667
G1 X5.079 Y112.215 E14.10333
G1 X5.033 Y109.905 E14.20359
G1 X5.079 Y107.685 E14.29999
G1 X5.221 Y105.465 E14.39656
G1 X5.443 Y103.368 E14.48809
G1 X5.593 Y102.267 E14.53634
G1 X5.78 Y101.083 E14.58836
G1 X5.977 Y99.992 E14.63647
G1 X6.441 Y97.815 E14.7331
G1 X6.967 Y95.77 E14.82476
G1 X7.274 Y94.708 E14.87278
G1 X7.605 Y93.646 E14.92105
G1 X7.963 Y92.586 E14.96963
G1 X8.768 Y90.424 E15.06973
G1 X9.587 Y88.476 E15.16147
G1 X10.046 Y87.469 E15.20952
G1 X11.077 Y85.393 E15.31015
G1 X12.151 Y83.443 E15.40677
G1 X12.715 Y82.497 E15.4546
G1 X13.84 Y80.72 E15.54587
G1 X15.171 Y78.807 E15.64703
G1 X16.513 Y77.042 E15.74328
G1 X17.864 Y75.411 E15.83522
G1 X18.596 Y74.58 E15.88329
G1 X19.339 Y73.769 E15.93105
G1 X20.177 Y72.899 E15.9835
G1 X21.761 Y71.348 E16.07973
G1 X22.581 Y70.596 E16.12801
G1 X24.18 Y69.214 E16.21976
G1 X25.05 Y68.51 E16.26834
G1 X25.991 Y67.782 E16.32
G1 X26.894 Y67.111 E16.36883
G1 X27.784 Y66.482 E16.41613
G1 X28.714 Y65.849 E16.46496
G1 X29.636 Y65.253 E16.51262
G1 X31.539 Y64.104 E16.60914
G1 X33.352 Y63.106 E16.69894
G1 X33.568 Y63.499 F18000
G1 F3000
G1 X33.595 Y63.484 E16.70029
G1 X34.576 Y62.982 E16.7481
G1 X36.66 Y62.003 E16.84804
G1 X38.688 Y61.154 E16.94348
G1 X40.749 Y60.389 E17.03892
G1 X42.838 Y59.712 E17.13426
G1 X44.935 Y59.13 E17.2287
G1 X46.027 Y58.861 E17.27753
G1 X48.071 Y58.427 E17.36825
G1 X50.253 Y58.057 E17.46431
G1 X51.43 Y57.894 E17.51591
G1 X52.528 Y57.768 E17.56388
G1 X53.617 Y57.668 E17.61135
G1 X55.054 Y57.571 E17.67384
G1 X55.227 Y57.528 E17.6816
G1 X55.346 Y57.476 E17.68724
G1 X55.494 Y57.376 E17.695
G1 X55.721 Y57.161 E17.70855
G1 X56.18 Y56.838 E17.73291
G1 X56.911 Y56.496 E17.76793
G1 X57.446 Y56.342 E17.7921
G1 X58.3 Y56.255 E17.82938
G1 X59.021 Y56.26 E17.8607
G1 X59.872 Y56.287 E17.89762
G1 X60.476 Y56.354 E17.92403
G1 X61.014 Y56.496 E17.94816
G1 X61.403 Y56.654 E17.96641
G1 X62.026 Y57.002 E17.99737
G1 X62.467 Y57.353 E18.02184
G1 X62.842 Y57.753 E18.04565
G1 X63.162 Y58.215 E18.07004
G1 X63.463 Y58.854 E18.10068
G1 X63.652 Y59.509 E18.13029
G1 X63.728 Y60.376 E18.16805
G1 X63.449 Y73.657 E18.74469
G1 X63.385 Y75.124 E18.80844
G1 X63.316 Y75.709 E18.834
G1 X63.166 Y76.26 E18.85881
G1 X62.946 Y76.768 E18.88282
G1 X62.663 Y77.251 E18.90714
G1 X62.293 Y77.709 E18.93268
G1 X61.889 Y78.08 E18.95649
G1 X61.427 Y78.393 E18.9807
G1 X60.689 Y78.722 E19.01577
G1 X60.156 Y78.867 E19.03978
G1 X59.26 Y78.939 E19.0788
G1 X57.945 Y78.913 E19.13589
G1 X56.673 Y78.939 E19.1911
G1 X56.015 Y78.972 E19.21969
G1 X54.708 Y79.082 E19.27663
G1 X53.441 Y79.244 E19.33209
G1 X52.788 Y79.347 E19.36079
G1 X52.128 Y79.464 E19.38988
G1 X50.888 Y79.727 E19.44489
G1 X49.603 Y80.057 E19.50248
G1 X48.983 Y80.238 E19.53051
G1 X47.771 Y80.631 E19.58584
G1 X46.533 Y81.093 E19.64319
G1 X45.348 Y81.589 E19.69895
G1 X44.176 Y82.14 E19.7552
G1 X43.001 Y82.756 E19.81276
G1 X41.866 Y83.411 E19.86965
G1 X40.768 Y84.109 E19.92611
G1 X39.708 Y84.846 E19.98217
G1 X38.676 Y85.63 E20.03844
G1 X38.167 Y86.044 E20.0669
G1 X37.181 Y86.893 E20.12338
G1 X36.231 Y87.786 E20.18
G1 X35.345 Y88.693 E20.23505
G1 X34.904 Y89.172 E20.2633
G1 X34.041 Y90.172 E20.32062
G1 X33.628 Y90.683 E20.34913
G1 X32.861 Y91.691 E20.40413
G1 X31.768 Y93.297 E20.48847
G1 X31.092 Y94.411 E20.54503
G1 X30.168 Y96.133 E20.62986
G1 X29.604 Y97.332 E20.68734
G1 X29.342 Y97.936 E20.71593
G1 X28.873 Y99.12 E20.77124
G1 X28.449 Y100.335 E20.82708
G1 X27.904 Y102.212 E20.91193
G1 X27.606 Y103.474 E20.96824
G1 X27.258 Y105.396 E21.05301
G1 X27.096 Y106.684 E21.10938
G1 X26.983 Y108.012 E21.1672
G1 X26.931 Y109.288 E21.22264
G1 X26.924 Y109.939 E21.25091
G1 X26.931 Y110.609 E21.27998
G1 X26.983 Y111.886 E21.33547
G1 X27.094 Y113.191 E21.3923
G1 X27.258 Y114.501 E21.44963
G1 X27.604 Y116.413 E21.53399
G1 X27.746 Y117.047 E21.56217
G1 X28.064 Y118.283 E21.61757
G1 X28.448 Y119.558 E21.67539
G1 X28.874 Y120.782 E21.73165
G1 X29.343 Y121.963 E21.78678
G1 X29.603 Y122.565 E21.81527
G1 X30.166 Y123.759 E21.87254
G1 X30.758 Y124.893 E21.9281
G1 X31.079 Y125.464 E21.95652
G1 X31.42 Y126.04 E21.98559
G1 X32.1 Y127.111 E22.04066
G1 X32.842 Y128.18 E22.09714
G1 X33.643 Y129.232 E22.15453
G1 X34.459 Y130.221 E22.21021
G1 X34.89 Y130.71 E22.2385
G1 X35.348 Y131.208 E22.26784
G1 X36.228 Y132.109 E22.32251
G1 X37.182 Y133.005 E22.37932
G1 X38.185 Y133.871 E22.43686
G1 X39.209 Y134.681 E22.49355
G1 X40.236 Y135.427 E22.54865
G1 X40.778 Y135.796 E22.5771
G1 X41.892 Y136.502 E22.63434
G1 X42.459 Y136.837 E22.66293
G1 X43.565 Y137.446 E22.71773
G1 X44.736 Y138.028 E22.77452
G1 X45.919 Y138.554 E22.8307
G1 X47.124 Y139.033 E22.88698
G1 X48.382 Y139.471 E22.94482
G1 X49.602 Y139.84 E23.00016
G1 X50.231 Y140.009 E23.0284
G1 X51.53 Y140.312 E23.08635
G1 X53.407 Y140.651 E23.16914
G1 X54.698 Y140.813 E23.2256
G1 X56.026 Y140.926 E23.28346
G1 X56.68 Y140.961 E23.31187
G1 X57.945 Y140.987 E23.3668
G1 X59.282 Y140.96 E23.42487
G1 X59.864 Y140.986 E23.45016
G1 X60.425 Y141.095 E23.47497
G1 X60.948 Y141.277 E23.49897
G1 X61.451 Y141.524 E23.52329
G1 X61.919 Y141.846 E23.54797
G1 X62.348 Y142.249 E23.57351
G1 X62.692 Y142.69 E23.59781
G1 X63.088 Y143.442 E23.63472
G1 X63.267 Y143.978 E23.65921
G1 X63.366 Y144.539 E23.68396
G1 X63.412 Y145.881 E23.74224
G1 X63.48 Y146.696 E23.77775
G1 X64.272 Y159.297 E24.32584
G1 X64.265 Y159.886 E24.35139
G1 X64.175 Y160.45 E24.3762
G1 X64.01 Y160.978 E24.40021
G1 X63.78 Y161.489 E24.42453
G1 X63.473 Y161.968 E24.44921
G1 X63.085 Y162.41 E24.47475
G1 X62.655 Y162.769 E24.49907
G1 X61.965 Y163.164 E24.53357
G1 X61.312 Y163.404 E24.56376
G1 X60.768 Y163.51 E24.58784
G1 X60.389 Y163.537 E24.60433
G1 X58.902 Y163.569 E24.66889
G1 X58.294 Y163.535 E24.69531
G1 X57.75 Y163.423 E24.71944
G1 X57.352 Y163.286 E24.73769
G1 X56.71 Y162.972 E24.76874
G1 X56.008 Y162.458 E24.80649
G1 X55.892 Y162.407 E24.81201
G1 X55.717 Y162.364 E24.8198
G1 X53.515 Y162.223 E24.91559
G1 X51.434 Y162.003 E25.00644
G1 X50.247 Y161.842 E25.05841
G1 X49.157 Y161.668 E25.10635
G1 X47.112 Y161.278 E25.19673
G1 X44.969 Y160.779 E25.29224
G1 X42.831 Y160.182 E25.38859
G1 X41.798 Y159.861 E25.43555
G1 X40.746 Y159.507 E25.48371
G1 X38.685 Y158.745 E25.5791
G1 X36.67 Y157.899 E25.67395
G1 X34.666 Y156.961 E25.77001
G1 X33.686 Y156.462 E25.81775
G1 X32.642 Y155.902 E25.8692
G1 X31.679 Y155.359 E25.91719
G1 X29.889 Y154.276 E26.008
G1 X28.051 Y153.057 E26.10374
G1 X26.198 Y151.712 E26.20314
G1 X24.471 Y150.34 E26.29885
G1 X22.883 Y148.971 E26.38988
G1 X22.074 Y148.229 E26.43754
G1 X20.494 Y146.682 E26.53351
G1 X19.744 Y145.905 E26.5804
G1 X18.992 Y145.088 E26.62858
G1 X17.494 Y143.352 E26.72814
G1 X16.805 Y142.501 E26.77567
G1 X15.534 Y140.826 E26.86693
G1 X14.215 Y138.932 E26.9671
G1 X13.627 Y138.021 E27.01418
G1 X12.542 Y136.233 E27.10496
G1 X11.473 Y134.292 E27.20116
G1 X10.453 Y132.239 E27.30069
G1 X9.998 Y131.243 E27.34822
G1 X9.187 Y129.315 E27.439
G1 X8.788 Y128.281 E27.48709
G1 X8.388 Y127.168 E27.53845
G1 X7.703 Y125.063 E27.63454
G1 X7.4 Y124.011 E27.68206
G1 X6.879 Y121.985 E27.77287
G1 X6.417 Y119.82 E27.86898
G1 X6.223 Y118.745 E27.91637
G1 X6.037 Y117.568 E27.96812
G1 X5.888 Y116.477 E28.01589
G1 X5.668 Y114.402 E28.1065
G1 X5.527 Y112.193 E28.20257
G1 X5.481 Y109.903 E28.302
G1 X5.527 Y107.701 E28.39759
G1 X5.668 Y105.5 E28.49333
G1 X5.888 Y103.424 E28.58396
G1 X6.036 Y102.334 E28.63173
G1 X6.417 Y100.077 E28.73107
G1 X6.879 Y97.915 E28.82702
G1 X7.399 Y95.89 E28.91779
G1 X7.703 Y94.838 E28.96533
G1 X8.032 Y93.783 E29.0133
G1 X8.385 Y92.738 E29.06119
G1 X9.186 Y90.587 E29.1608
G1 X9.997 Y88.658 E29.25164
G1 X10.45 Y87.664 E29.29907
G1 X11.473 Y85.603 E29.39893
G1 X12.541 Y83.664 E29.49503
G1 X13.098 Y82.73 E29.54224
G1 X14.212 Y80.971 E29.63262
G1 X15.532 Y79.073 E29.73296
G1 X16.866 Y77.319 E29.82863
G1 X18.204 Y75.704 E29.91966
G1 X18.929 Y74.881 E29.96728
G1 X19.667 Y74.075 E30.01473
G1 X20.497 Y73.213 E30.06666
G1 X22.071 Y71.672 E30.1623
G1 X22.88 Y70.929 E30.20997
G1 X24.466 Y69.56 E30.30093
G1 X26.263 Y68.138 E30.40039
G1 X27.156 Y67.475 E30.44868
G1 X28.039 Y66.851 E30.49559
G1 X28.96 Y66.223 E30.54399
G1 X29.872 Y65.635 E30.59111
G1 X31.766 Y64.491 E30.68714
G1 X33.533 Y63.518 E30.77471
G1 X33.749 Y63.911 F18000
G1 F3000
G1 X33.804 Y63.881 E30.7774
G1 X34.771 Y63.386 E30.82458
G1 X36.844 Y62.412 E30.924
G1 X38.855 Y61.57 E31.01862
G1 X40.899 Y60.811 E31.11325
G1 X42.965 Y60.142 E31.20753
G1 X45.05 Y59.563 E31.30147
G1 X46.129 Y59.298 E31.34971
G1 X48.153 Y58.868 E31.43951
