; HEADER_BLOCK_START
; generated by AnycubicSlicerNext 1.3.1 on 2026-02-05 at 17:21:45
; total layer number: 105
; filament_density: 1.24
; filament_diameter: 1.75
; max_z_height: 21.04
; HEADER_BLOCK_END

; THUMBNAIL_BLOCK_START

;
; THUMBNAIL_BLOCK_END

; external perimeters extrusion width = 0.42mm
; perimeters extrusion width = 0.45mm
; infill extrusion width = 0.45mm
; solid infill extrusion width = 0.42mm
; top infill extrusion width = 0.42mm
; first layer extrusion width = 0.50mm

; EXECUTABLE_BLOCK_START
M201 X2000 Y2000 Z800 E2000
M203 X300 Y300 Z8 E100
M204 P2000 R2000 T2000
M205 X10.00 Y10.00 Z2.00 E5.00 ; sets the jerk limits, mm/sec
;TYPE:Custom
G90 ; use absolute coordinates
M83 ; extruder relative mode
M104 S220 ; set extruder temp
M140 S60 ; set bed temp
M190 S60 ; wait for bed temp
M109 S220 ; wait for extruder temp
G28                                        ; move X/Y/Z to min endstops
G1 Z0.28                                   ; lift nozzle a bit 
G92 E0 
G1 Y3 F1800                                    ; zero the extruded length 
G1 X60  E25 F500                       ; Extrude 25mm of filament in a 5cm line. 
G92 E0                                     ; zero the extruded length again 
G1 E-2 F500                                ; Retract a little 
G1 X70 F4000                              ; Quickly wipe away from the filament line
M117
G90
G21
M82 ; use absolute distances for extrusion
G92 E0
; filament start gcode
M106 S0
;LAYER_CHANGE
;Z:0.24
;HEIGHT:0.24
; BEFORE_LAYER_CHANGE 0 @ 0.24mm
G1 E-2.5 F6000
G92 E0
; AFTER_LAYER_CHANGE 0 @ 0.24mm
;_SET_FAN_SPEED_CHANGING_LAYER
M204 P500
; printing object "suc.stl" id:15835972321933770221 copy 0
M204 T500
G1 X116.01 Y50.495 F18000
G1 Z.24
G1 E2.5 F6000
;TYPE:Brim
;WIDTH:0.5
G1 F3000
G1 X116.218 Y50.067 E2.52066
G1 X116.629 Y49.431 E2.55354
G1 X117.053 Y48.959 E2.58108
G1 X117.544 Y48.556 E2.60867
G1 X118.087 Y48.231 E2.63612
G1 X118.942 Y47.91 E2.67575
G1 X119.564 Y47.783 E2.70331
G1 X120.203 Y47.75 E2.73108
G1 X120.524 Y47.77 E2.74505
G1 X122.316 Y47.946 E2.82322
G1 X122.951 Y48.057 E2.85118
G1 X123.556 Y48.259 E2.87886
G1 X123.869 Y48.4 E2.89378
G1 X124.728 Y48.534 E2.93152
G1 X125.33 Y48.735 E2.95906
G1 X125.861 Y49.001 E2.98486
G1 X126.394 Y49.353 E3.01259
G1 X126.866 Y49.779 E3.04019
G1 X127.27 Y50.27 E3.06778
G1 X127.594 Y50.812 E3.09523
G1 X127.916 Y51.667 E3.13487
G1 X128.043 Y52.289 E3.16242
G1 X128.076 Y52.924 E3.19001
G1 X126.995 Y64.027 E3.67425
G1 X127.03 Y64.17 E3.68066
G1 X127.146 Y64.261 E3.68707
G1 X127.294 Y64.26 E3.69348
G1 X127.391 Y64.191 E3.69866
G1 X134.741 Y55.235 E4.20157
G1 X135.186 Y54.769 E4.22953
G1 X135.688 Y54.38 E4.25712
G1 X136.242 Y54.07 E4.28466
G1 X136.961 Y53.807 E4.31789
G1 X137.583 Y53.668 E4.34558
G1 X138.217 Y53.623 E4.37317
G1 X138.852 Y53.673 E4.40079
G1 X139.444 Y53.808 E4.42716
G1 X146.372 Y55.91 E4.74143
G1 X146.771 Y56.053 E4.75984
G1 X147.181 Y56.245 E4.7795
G1 X153.568 Y59.659 E5.09386
G1 X153.932 Y59.877 E5.11226
G1 X154.296 Y60.146 E5.13193
G1 X159.894 Y64.74 E5.44629
G1 X160.209 Y65.025 E5.46469
G1 X160.514 Y65.359 E5.48435
G1 X165.108 Y70.957 E5.79871
G1 X165.361 Y71.298 E5.81712
G1 X165.595 Y71.686 E5.83678
G1 X169.007 Y78.07 E6.15102
G1 X169.268 Y78.659 E6.17898
G1 X169.435 Y79.272 E6.20657
G1 X169.51 Y79.902 E6.23411
G1 X169.477 Y80.667 E6.26734
G1 X169.367 Y81.295 E6.29503
G1 X169.166 Y81.898 E6.32262
G1 X168.877 Y82.465 E6.35023
G1 X168.526 Y82.961 E6.37661
G1 X165.317 Y86.871 E6.59618
G1 X165.266 Y87.009 E6.60259
G1 X165.312 Y87.15 E6.609
G1 X165.436 Y87.231 E6.61541
G1 X165.555 Y87.228 E6.6206
G1 X170.112 Y85.845 E6.8273
G1 X170.741 Y85.705 E6.85526
G1 X171.376 Y85.66 E6.88289
G1 X171.968 Y85.702 E6.90869
G1 X172.596 Y85.824 E6.93643
G1 X173.195 Y86.036 E6.96402
G1 X173.756 Y86.335 E6.99161
G1 X174.263 Y86.713 E7.01906
G1 X174.887 Y87.38 E7.0587
G1 X175.242 Y87.906 E7.08625
G1 X175.516 Y88.479 E7.11385
G1 X177.724 Y95.716 E7.4423
G1 X177.865 Y96.345 E7.47025
G1 X177.91 Y96.98 E7.49788
G1 X177.867 Y97.573 E7.52368
G1 X177.746 Y98.2 E7.55142
G1 X177.533 Y98.799 E7.57901
G1 X177.234 Y99.36 E7.60661
G1 X176.856 Y99.868 E7.6341
G1 X176.274 Y100.425 E7.66905
G1 X175.663 Y100.847 E7.7013
G1 X175.087 Y101.122 E7.72902
G1 X174.782 Y101.227 E7.743
G1 X164.978 Y104.201 E8.18774
G1 X164.859 Y104.288 E8.19415
G1 X164.819 Y104.43 E8.20056
G1 X164.918 Y104.602 E8.20917
G1 X174.653 Y111.106 E8.71737
G1 X175.16 Y111.503 E8.74533
G1 X175.596 Y111.964 E8.77288
G1 X176.012 Y112.572 E8.80484
G1 X176.298 Y113.141 E8.8325
G1 X176.495 Y113.746 E8.86011
G1 X176.599 Y114.354 E8.88688
G1 X177.309 Y121.558 E9.20114
G1 X177.33 Y122.011 E9.2208
G1 X177.309 Y122.434 E9.2392
G1 X176.599 Y129.641 E9.55356
G1 X176.531 Y130.089 E9.57323
G1 X176.428 Y130.5 E9.59163
G1 X174.326 Y137.431 E9.90601
G1 X174.183 Y137.83 E9.92441
G1 X173.991 Y138.24 E9.94407
G1 X170.577 Y144.627 E10.25843
G1 X170.359 Y144.991 E10.27684
G1 X170.09 Y145.355 E10.2965
G1 X165.496 Y150.953 E10.61084
G1 X165.191 Y151.288 E10.63051
G1 X164.877 Y151.572 E10.64891
G1 X159.279 Y156.167 E10.96327
G1 X158.914 Y156.435 E10.98293
G1 X158.55 Y156.653 E11.00134
G1 X152.164 Y160.067 E11.3157
G1 X151.754 Y160.26 E11.33536
G1 X151.354 Y160.402 E11.35377
G1 X144.427 Y162.504 E11.66802
G1 X143.798 Y162.644 E11.69598
G1 X143.165 Y162.689 E11.72353
G1 X142.432 Y162.625 E11.75549
G1 X141.81 Y162.484 E11.78316
G1 X141.217 Y162.253 E11.81076
G1 X140.681 Y161.948 E11.83753
G1 X130.947 Y155.444 E12.34574
G1 X130.804 Y155.407 E12.35215
G1 X130.669 Y155.467 E12.35856
G1 X130.599 Y155.652 E12.36717
G1 X131.567 Y165.482 E12.79594
G1 X131.582 Y166.126 E12.8239
G1 X131.502 Y166.759 E12.85158
G1 X131.381 Y167.219 E12.87224
G1 X131.103 Y167.924 E12.90511
G1 X130.778 Y168.469 E12.93265
G1 X130.376 Y168.96 E12.96024
G1 X129.906 Y169.385 E12.98774
G1 X129.226 Y169.817 E13.02269
G1 X128.545 Y170.112 E13.05494
G1 X127.929 Y170.268 E13.08249
G1 X124.01 Y170.667 E13.25352
G1 X123.432 Y170.681 E13.27858
G1 X123.271 Y170.755 E13.28629
G1 X122.882 Y171.187 E13.31154
G1 X122.391 Y171.591 E13.33913
G1 X121.848 Y171.915 E13.36658
G1 X120.993 Y172.236 E13.40622
G1 X120.371 Y172.363 E13.43377
G1 X119.736 Y172.396 E13.46139
G1 X117.795 Y172.218 E13.54597
G1 X116.411 Y172.35 E13.60634
G1 X115.767 Y172.365 E13.6343
G1 X115.134 Y172.285 E13.66199
G1 X114.674 Y172.164 E13.68264
G1 X113.97 Y171.886 E13.71552
G1 X113.425 Y171.561 E13.74306
G1 X112.933 Y171.159 E13.77065
G1 X112.507 Y170.687 E13.79824
G1 X112.155 Y170.157 E13.82587
G1 X111.905 Y169.631 E13.85114
G1 X111.668 Y168.895 E13.88468
G1 X111.573 Y168.27 E13.91215
G1 X111.582 Y167.519 E13.94472
G1 X113.619 Y146.837 E14.84684
G1 X113.62 Y145.051 E14.92437
G1 X113.668 Y144.409 E14.95233
G1 X113.809 Y143.789 E14.97996
G1 X114.022 Y143.234 E15.00576
G1 X114.32 Y142.669 E15.03349
G1 X114.697 Y142.157 E15.06109
G1 X115.147 Y141.707 E15.08868
G1 X115.658 Y141.329 E15.1163
G1 X116.179 Y141.049 E15.14195
G1 X116.863 Y140.793 E15.17366
G1 X117.608 Y140.653 E15.20658
G1 X123.972 Y140.026 E15.48417
G1 X129.748 Y138.274 E15.74617
G1 X135.03 Y135.445 E16.00627
G1 X139.628 Y131.672 E16.26447
G1 X143.433 Y127.043 E16.52458
G1 X146.261 Y121.76 E16.78468
G1 X148.005 Y116.028 E17.04478
G1 X148.596 Y110.065 E17.30488
G1 X148.013 Y104.102 E17.56498
G1 X146.278 Y98.366 E17.82508
G1 X143.433 Y93.043 E18.08708
G1 X139.628 Y88.414 E18.34718
G1 X135.03 Y84.641 E18.60539
G1 X129.748 Y81.812 E18.86549
G1 X123.972 Y80.06 E19.12749
G1 X117.607 Y79.433 E19.40514
G1 X116.972 Y79.323 E19.4331
G1 X116.367 Y79.121 E19.46079
G1 X115.939 Y78.912 E19.48144
G1 X115.303 Y78.502 E19.51432
G1 X114.831 Y78.077 E19.54186
G1 X114.428 Y77.586 E19.56945
G1 X114.102 Y77.041 E19.59703
G1 X113.844 Y76.406 E19.62679
G1 X113.687 Y75.79 E19.65439
G1 X113.62 Y75.033 E19.68735
G1 X113.62 Y73.049 E19.7735
G1 X113.641 Y72.62 E19.79212
G1 X115.697 Y51.735 E20.70311
G1 X115.808 Y51.1 E20.73107
G1 X115.997 Y50.533 E20.75702
G1 X116.423 Y50.674 F18000
G1 F3000
G1 X116.423 Y50.674 E20.75705
G1 X116.606 Y50.295 E20.7753
G1 X116.98 Y49.713 E20.80532
G1 X117.357 Y49.292 E20.82986
G1 X117.795 Y48.93 E20.85453
G1 X118.294 Y48.633 E20.87972
G1 X119.056 Y48.346 E20.91508
G1 X119.631 Y48.229 E20.94052
G1 X120.208 Y48.2 E20.96563
G1 X122.25 Y48.39 E21.05466
G1 X122.83 Y48.491 E21.08022
G1 X123.385 Y48.675 E21.10558
G1 X123.676 Y48.805 E21.11941
G1 X123.809 Y48.845 E21.12543
G1 X124.61 Y48.97 E21.16064
G1 X125.148 Y49.147 E21.18524
G1 X125.643 Y49.394 E21.20924
G1 X126.11 Y49.703 E21.23356
G1 X126.534 Y50.083 E21.25824
G1 X126.908 Y50.537 E21.28378
G1 X127.193 Y51.019 E21.3081
G1 X127.485 Y51.802 E21.34438
G1 X127.597 Y52.356 E21.3689
G1 X127.625 Y52.924 E21.39358
G1 X126.55 Y63.972 E21.87544
G1 X126.591 Y64.263 E21.88818
G1 X126.676 Y64.442 E21.89681
G1 X126.864 Y64.608 E21.90768
G1 X127.038 Y64.694 E21.91612
G1 X127.282 Y64.707 E21.92671
G1 X127.564 Y64.616 E21.93958
G1 X127.746 Y64.465 E21.94984
G1 X135.074 Y55.537 E22.45124
G1 X135.495 Y55.097 E22.47766
G1 X135.928 Y54.761 E22.50147
G1 X136.42 Y54.484 E22.52596
G1 X137.079 Y54.241 E22.55644
G1 X137.658 Y54.112 E22.58221
G1 X138.226 Y54.074 E22.60688
G1 X138.793 Y54.12 E22.63161
G1 X139.333 Y54.243 E22.65566
G1 X146.228 Y56.335 E22.96842
G1 X146.594 Y56.466 E22.98528
G1 X146.983 Y56.648 E23.00394
G1 X153.344 Y60.048 E23.31702
G1 X153.677 Y60.247 E23.33388
G1 X154.024 Y60.502 E23.35254
G1 X159.599 Y65.078 E23.66562
G1 X159.887 Y65.338 E23.68249
G1 X160.177 Y65.656 E23.70114
G1 X164.756 Y71.236 E24.01451
G1 X164.991 Y71.553 E24.03164
G1 X165.206 Y71.911 E24.04974
G1 X168.601 Y78.262 E24.36237
G1 X168.846 Y78.819 E24.3888
G1 X168.995 Y79.368 E24.41347
G1 X169.059 Y79.93 E24.43803
G1 X169.031 Y80.61 E24.46757
G1 X168.933 Y81.175 E24.49247
G1 X168.754 Y81.715 E24.51715
G1 X168.497 Y82.224 E24.5419
G1 X168.166 Y82.692 E24.5668
G1 X164.977 Y86.578 E24.78498
G1 X164.85 Y86.842 E24.79772
G1 X164.821 Y87.039 E24.80635
G1 X164.884 Y87.281 E24.81722
G1 X164.982 Y87.449 E24.82566
G1 X165.177 Y87.596 E24.83624
G1 X165.462 Y87.677 E24.84913
G1 X165.698 Y87.653 E24.85941
G1 X170.221 Y86.281 E25.06461
G1 X170.796 Y86.152 E25.09016
G1 X171.366 Y86.11 E25.11497
G1 X171.918 Y86.149 E25.13898
G1 X172.468 Y86.256 E25.1633
G1 X173.004 Y86.444 E25.18798
G1 X173.506 Y86.711 E25.21265
G1 X173.953 Y87.041 E25.2368
G1 X174.541 Y87.669 E25.27412
G1 X174.856 Y88.138 E25.29864
G1 X175.099 Y88.652 E25.32333
G1 X177.289 Y95.826 E25.64893
G1 X177.418 Y96.4 E25.67447
G1 X177.459 Y96.989 E25.7001
G1 X177.42 Y97.522 E25.72328
G1 X177.309 Y98.091 E25.74847
G1 X177.117 Y98.627 E25.77315
G1 X176.859 Y99.11 E25.79696
G1 X176.511 Y99.578 E25.82227
G1 X175.998 Y100.068 E25.85307
G1 X175.428 Y100.462 E25.88314
G1 X174.923 Y100.703 E25.90741
G1 X174.642 Y100.801 E25.92036
G1 X164.858 Y103.768 E26.36413
G1 X164.606 Y103.917 E26.37687
G1 X164.472 Y104.065 E26.38551
G1 X164.39 Y104.301 E26.39637
G1 X164.378 Y104.496 E26.40482
G1 X164.437 Y104.665 E26.41262
G1 X164.522 Y104.813 E26.42
G1 X164.682 Y104.983 E26.43015
G1 X174.385 Y111.467 E26.93673
G1 X174.849 Y111.829 E26.96229
G1 X175.252 Y112.255 E26.98773
G1 X175.619 Y112.792 E27.01598
G1 X175.877 Y113.304 E27.04083
G1 X176.056 Y113.845 E27.06557
G1 X176.154 Y114.409 E27.09043
G1 X176.861 Y121.587 E27.40353
G1 X176.88 Y122.017 E27.42219
G1 X176.861 Y122.405 E27.43905
G1 X176.154 Y129.582 E27.75213
G1 X176.089 Y130.007 E27.77079
G1 X175.995 Y130.384 E27.78765
G1 X173.901 Y137.287 E28.10079
G1 X173.765 Y137.665 E28.11821
G1 X173.588 Y138.042 E28.13631
G1 X170.188 Y144.403 E28.44939
G1 X169.981 Y144.747 E28.46681
G1 X169.734 Y145.082 E28.48491
G1 X165.159 Y150.657 E28.79794
G1 X164.878 Y150.965 E28.81604
G1 X164.581 Y151.235 E28.83346
G1 X159.006 Y155.81 E29.14654
G1 X158.67 Y156.058 E29.16464
G1 X158.326 Y156.265 E29.18206
G1 X151.966 Y159.664 E29.49514
G1 X151.576 Y159.847 E29.5138
G1 X151.211 Y159.977 E29.53066
G1 X144.317 Y162.068 E29.84334
G1 X143.743 Y162.197 E29.8689
G1 X143.158 Y162.238 E29.89434
G1 X142.51 Y162.181 E29.9226
G1 X141.951 Y162.056 E29.94745
G1 X141.42 Y161.851 E29.97218
G1 X140.921 Y161.569 E29.99704
G1 X131.205 Y155.077 E30.50427
G1 X130.93 Y154.976 E30.51701
G1 X130.727 Y154.967 E30.52584
G1 X130.614 Y155 E30.53093
G1 X130.5 Y155.051 E30.53636
G1 X130.338 Y155.168 E30.545
G1 X130.245 Y155.321 E30.5528
G1 X130.185 Y155.48 E30.56019
G1 X130.154 Y155.712 E30.57033
G1 X131.119 Y165.505 E30.99748
G1 X131.133 Y166.093 E31.02304
G1 X131.062 Y166.665 E31.04804
G1 X130.956 Y167.072 E31.06628
G1 X130.703 Y167.715 E31.0963
G1 X130.415 Y168.202 E31.12085
G1 X130.056 Y168.642 E31.14552
G1 X129.623 Y169.033 E31.17084
G1 X129.025 Y169.414 E31.20164
G1 X128.409 Y169.682 E31.23077
G1 X127.861 Y169.823 E31.25537
G1 X123.987 Y170.219 E31.4244
G1 X123.436 Y170.232 E31.44833
G1 X123.233 Y170.279 E31.45737
G1 X123.096 Y170.341 E31.46388
G1 X122.929 Y170.465 E31.47292
G1 X122.563 Y170.868 E31.49655
G1 X122.123 Y171.228 E31.52123
G1 X121.641 Y171.514 E31.54555
G1 X120.858 Y171.806 E31.58182
G1 X120.304 Y171.917 E31.60635
G1 X119.754 Y171.946 E31.63025
G1 X117.849 Y171.772 E31.71332
G1 X116.388 Y171.902 E31.77696
G1 X115.8 Y171.916 E31.8025
G1 X115.229 Y171.845 E31.8275
G1 X114.822 Y171.739 E31.84574
G1 X114.178 Y171.486 E31.87576
G1 X113.675 Y171.187 E31.90118
G1 X113.236 Y170.826 E31.92585
G1 X112.856 Y170.403 E31.95053
G1 X112.552 Y169.944 E31.97444
G1 X112.327 Y169.473 E31.99709
G1 X112.109 Y168.803 E32.02768
G1 X112.022 Y168.228 E32.05293
G1 X112.031 Y167.538 E32.08285
G1 X114.065 Y146.888 E32.98359
G1 X114.068 Y145.073 E33.06236
G1 X114.112 Y144.486 E33.08792
G1 X114.243 Y143.91 E33.11355
G1 X114.435 Y143.412 E33.13673
G1 X114.697 Y142.917 E33.16105
G1 X115.046 Y142.443 E33.1866
G1 X115.448 Y142.042 E33.21127
G1 X115.891 Y141.714 E33.23517
G1 X116.373 Y141.455 E33.25892
G1 X116.995 Y141.224 E33.28773
G1 X117.678 Y141.097 E33.31787
G1 X124.003 Y140.474 E33.59377
G1 X129.971 Y138.663 E33.86451
G1 X135.23 Y135.847 E34.12347
G1 X139.903 Y132.027 E34.38545
G1 X143.771 Y127.338 E34.64932
G1 X146.651 Y121.984 E34.91321
G1 X148.43 Y116.171 E35.1771
G1 X149.041 Y110.122 E35.44099
G1 X148.439 Y103.959 E35.7098
G1 X146.667 Y98.143 E35.9737
G1 X143.771 Y92.749 E36.2395
G1 X139.903 Y88.059 E36.50337
G1 X135.23 Y84.239 E36.76535
G1 X129.971 Y81.423 E37.02431
G1 X124.003 Y79.613 E37.29505
G1 X117.672 Y78.989 E37.57119
G1 X117.073 Y78.883 E37.59761
G1 X116.545 Y78.707 E37.62174
G1 X116.167 Y78.524 E37.63999
G1 X115.568 Y78.137 E37.67094
G1 X115.15 Y77.759 E37.69542
G1 X114.802 Y77.335 E37.71923
G1 X114.501 Y76.831 E37.74472
G1 X114.275 Y76.274 E37.77083
G1 X114.129 Y75.703 E37.79639
G1 X114.068 Y75.008 E37.82669
G1 X114.068 Y73.063 E37.91111
G1 X114.088 Y72.656 E37.92877
G1 X116.141 Y51.8 E38.83848
G1 X116.242 Y51.22 E38.86404
G1 X116.41 Y50.712 E38.88727
G1 X116.837 Y50.852 F18000
G1 F3000
G1 X116.837 Y50.851 E38.88733
G1 X116.995 Y50.522 E38.90315
G1 X117.332 Y49.995 E38.93032
G1 X117.662 Y49.624 E38.95188
G1 X118.047 Y49.304 E38.97358
G1 X118.5 Y49.034 E38.99649
G1 X119.171 Y48.782 E39.02759
G1 X119.677 Y48.677 E39.05004
G1 X120.209 Y48.65 E39.07313
G1 X122.186 Y48.835 E39.15933
G1 X122.711 Y48.926 E39.18248
G1 X123.216 Y49.091 E39.20554
G1 X123.486 Y49.211 E39.21835
G1 X123.674 Y49.272 E39.22695
G1 X124.495 Y49.405 E39.26304
G1 X124.968 Y49.56 E39.28463
G1 X125.411 Y49.78 E39.30612
G1 X125.827 Y50.054 E39.32776
G1 X126.201 Y50.387 E39.3495
G1 X126.533 Y50.787 E39.37206
G1 X126.791 Y51.225 E39.3941
G1 X127.055 Y51.936 E39.42704
G1 X127.151 Y52.422 E39.44853
G1 X127.174 Y52.923 E39.47031
G1 X126.104 Y63.915 E39.94973
G1 X126.146 Y64.318 E39.96729
G1 X126.19 Y64.465 E39.97398
G1 X126.266 Y64.623 E39.98159
G1 X126.389 Y64.787 E39.99046
G1 X126.675 Y65.015 E40.00636
G1 X126.83 Y65.091 E40.01383
G1 X127.027 Y65.142 E40.02269
G1 X127.245 Y65.154 E40.03215
G1 X127.431 Y65.13 E40.04031
G1 X127.69 Y65.047 E40.05209
G1 X127.858 Y64.955 E40.06042
G1 X128.1 Y64.741 E40.07442
G1 X135.407 Y55.838 E40.57437
G1 X135.804 Y55.425 E40.59927
G1 X136.186 Y55.131 E40.6202
G1 X136.599 Y54.898 E40.6408
G1 X137.215 Y54.671 E40.66926
G1 X137.733 Y54.557 E40.6923
