; HEADER_BLOCK_START
; generated by AnycubicSlicerNext 1.3.1 on 2026-01-19 at 18:20:07
; total layer number: 40
; filament_density: 1.24
; filament_diameter: 1.75
; max_z_height: 8.04
; HEADER_BLOCK_END

; THUMBNAIL_BLOCK_START

;
; THUMBNAIL_BLOCK_END

; external perimeters extrusion width = 0.42mm
; perimeters extrusion width = 0.45mm
; infill extrusion width = 0.45mm
; solid infill extrusion width = 0.42mm
; top infill extrusion width = 0.42mm
; first layer extrusion width = 0.50mm

; EXECUTABLE_BLOCK_START
M201 X2000 Y2000 Z800 E2000
M203 X300 Y300 Z8 E100
M204 P2000 R2000 T2000
M205 X10.00 Y10.00 Z2.00 E5.00 ; sets the jerk limits, mm/sec
;TYPE:Custom
G90 ; use absolute coordinates
M83 ; extruder relative mode
M104 S220 ; set extruder temp
M140 S60 ; set bed temp
M190 S60 ; wait for bed temp
M109 S220 ; wait for extruder temp
G28                                        ; move X/Y/Z to min endstops
G1 Z0.28                                   ; lift nozzle a bit 
G92 E0 
G1 Y3 F1800                                    ; zero the extruded length 
G1 X60  E25 F500                       ; Extrude 25mm of filament in a 5cm line. 
G92 E0                                     ; zero the extruded length again 
G1 E-2 F500                                ; Retract a little 
G1 X70 F4000                              ; Quickly wipe away from the filament line
M117
G90
G21
M82 ; use absolute distances for extrusion
G92 E0
; filament start gcode
M106 S0
;LAYER_CHANGE
;Z:0.24
;HEIGHT:0.24
; BEFORE_LAYER_CHANGE 0 @ 0.24mm
G1 E-2.5 F6000
G92 E0
; AFTER_LAYER_CHANGE 0 @ 0.24mm
;_SET_FAN_SPEED_CHANGING_LAYER
M204 P500
; printing object "Untitledphone.stl" id:2502666992896 copy 0
M204 T500
G1 X83.437 Y58.14 F18000
G1 Z.24
G1 E2.5 F6000
;TYPE:Brim
;WIDTH:0.5
G1 F3000
G1 X83.853 Y57.588 E2.53001
G1 X84.303 Y57.064 E2.55997
G1 X84.988 Y56.378 E2.60208
G1 X85.511 Y55.928 E2.63203
G1 X86.063 Y55.511 E2.66204
G1 X86.639 Y55.129 E2.69205
G1 X87.238 Y54.784 E2.72206
G1 X87.858 Y54.477 E2.75208
G1 X88.496 Y54.21 E2.78208
G1 X89.15 Y53.984 E2.81215
G1 X89.546 Y53.868 E2.83006
G1 X90.22 Y53.708 E2.86014
G1 X90.902 Y53.591 E2.89016
G1 X91.565 Y53.519 E2.91912
G1 X91.979 Y53.499 E2.93709
G1 X128.728 Y53.499 E4.53232
G1 X129.138 Y53.519 E4.55014
G1 X130.197 Y53.653 E4.59648
G1 X131.147 Y53.865 E4.63872
G1 X131.542 Y53.979 E4.65657
G1 X132.195 Y54.204 E4.68657
G1 X133.086 Y54.589 E4.72869
G1 X133.698 Y54.91 E4.75868
G1 X134.055 Y55.121 E4.77668
G1 X134.856 Y55.665 E4.81871
G1 X135.396 Y56.094 E4.84867
G1 X135.911 Y56.558 E4.87874
G1 X136.202 Y56.849 E4.89659
G1 X136.845 Y57.577 E4.93876
G1 X137.262 Y58.128 E4.96877
G1 X137.494 Y58.469 E4.98668
G1 X137.854 Y59.06 E5.01669
G1 X138.295 Y59.924 E5.05881
G1 X138.562 Y60.56 E5.08876
G1 X138.789 Y61.215 E5.11883
G1 X138.904 Y61.609 E5.13668
G1 X139.117 Y62.559 E5.17892
G1 X139.182 Y62.965 E5.19677
G1 X139.254 Y63.63 E5.22581
G1 X139.273 Y64.043 E5.24377
G1 X139.286 Y154.939 E9.18941
G1 X139.231 Y155.74 E9.22427
G1 X139.079 Y156.702 E9.26654
G1 X138.921 Y157.374 E9.29653
G1 X138.72 Y158.038 E9.32664
G1 X138.58 Y158.427 E9.34458
G1 X138.313 Y159.067 E9.3747
G1 X138.007 Y159.688 E9.40474
G1 X137.663 Y160.288 E9.43473
G1 X137.118 Y161.091 E9.47686
G1 X136.688 Y161.632 E9.50687
G1 X136.224 Y162.146 E9.53692
G1 X135.729 Y162.63 E9.56697
G1 X135.204 Y163.081 E9.59703
G1 X134.653 Y163.499 E9.62707
G1 X134.075 Y163.881 E9.65713
G1 X133.474 Y164.228 E9.68724
G1 X133.106 Y164.416 E9.70518
G1 X132.473 Y164.699 E9.73529
G1 X131.825 Y164.943 E9.76535
G1 X131.163 Y165.145 E9.7954
G1 X130.489 Y165.304 E9.82545
G1 X129.807 Y165.422 E9.85551
G1 X129.142 Y165.494 E9.88453
G1 X128.729 Y165.514 E9.90249
G1 X91.995 Y165.514 E11.49706
G1 X91.193 Y165.459 E11.53193
G1 X90.231 Y165.307 E11.57421
G1 X89.558 Y165.148 E11.60426
G1 X89.16 Y165.033 E11.6222
G1 X88.505 Y164.807 E11.65231
G1 X87.867 Y164.541 E11.68231
G1 X87.002 Y164.1 E11.72446
G1 X86.411 Y163.742 E11.75445
G1 X85.843 Y163.346 E11.7845
G1 X85.301 Y162.915 E11.81455
G1 X84.788 Y162.451 E11.8446
G1 X84.303 Y161.955 E11.87471
G1 X84.029 Y161.645 E11.89265
G1 X83.597 Y161.102 E11.92277
G1 X83.201 Y160.536 E11.95276
G1 X82.707 Y159.701 E11.99491
G1 X82.4 Y159.081 E12.02489
G1 X82.133 Y158.443 E12.05494
G1 X81.906 Y157.789 E12.08499
G1 X81.721 Y157.122 E12.11504
G1 X81.578 Y156.443 E12.14515
G1 X81.513 Y156.035 E12.1631
G1 X81.441 Y155.369 E12.19218
G1 X81.421 Y154.955 E12.21014
G1 X81.433 Y64.06 E16.15578
G1 X81.488 Y63.26 E16.1906
G1 X81.64 Y62.298 E16.23284
G1 X81.799 Y61.626 E16.26285
G1 X81.913 Y61.229 E16.28076
G1 X82.14 Y60.574 E16.31083
G1 X82.406 Y59.936 E16.34085
G1 X82.712 Y59.316 E16.37086
G1 X83.056 Y58.716 E16.40088
G1 X83.415 Y58.173 E16.42915
G1 X83.789 Y58.42 F18000
G1 F3000
G1 X83.806 Y58.395 E16.43047
G1 X84.206 Y57.866 E16.45926
G1 X84.636 Y57.366 E16.4879
G1 X85.29 Y56.71 E16.5281
G1 X85.797 Y56.274 E16.55711
G1 X86.326 Y55.874 E16.5859
G1 X86.879 Y55.508 E16.61468
G1 X87.454 Y55.178 E16.64347
G1 X88.048 Y54.884 E16.67226
G1 X88.662 Y54.627 E16.70115
G1 X89.654 Y54.304 E16.74641
G1 X90.306 Y54.149 E16.77554
G1 X90.96 Y54.036 E16.80434
G1 X91.596 Y53.967 E16.83212
G1 X91.993 Y53.948 E16.84934
G1 X128.721 Y53.948 E18.44365
G1 X129.105 Y53.967 E18.46034
G1 X130.114 Y54.094 E18.5045
G1 X131.032 Y54.298 E18.54531
G1 X132.026 Y54.62 E18.59068
G1 X132.888 Y54.992 E18.63143
G1 X133.807 Y55.496 E18.67693
G1 X134.586 Y56.023 E18.71777
G1 X135.111 Y56.441 E18.74689
G1 X135.869 Y57.15 E18.79193
G1 X136.494 Y57.857 E18.83291
G1 X136.902 Y58.396 E18.86224
G1 X137.458 Y59.272 E18.90729
G1 X137.89 Y60.117 E18.94848
G1 X138.145 Y60.727 E18.97716
G1 X138.47 Y61.725 E19.02276
G1 X138.677 Y62.651 E19.06395
G1 X138.806 Y63.658 E19.10801
G1 X138.825 Y64.057 E19.12534
G1 X138.838 Y154.919 E23.0695
G1 X138.784 Y155.695 E23.1033
G1 X138.638 Y156.62 E23.14396
G1 X138.486 Y157.264 E23.17267
G1 X138.164 Y158.258 E23.218
G1 X137.906 Y158.878 E23.24716
G1 X137.609 Y159.481 E23.27635
G1 X137.28 Y160.054 E23.30503
G1 X136.76 Y160.821 E23.34525
G1 X136.343 Y161.345 E23.37431
G1 X135.898 Y161.838 E23.40314
G1 X135.423 Y162.302 E23.43197
G1 X134.919 Y162.735 E23.4608
G1 X134.39 Y163.135 E23.48962
G1 X133.836 Y163.502 E23.51845
G1 X133.253 Y163.837 E23.54761
G1 X132.309 Y164.282 E23.59294
G1 X131.685 Y164.516 E23.62188
G1 X131.049 Y164.71 E23.65071
G1 X130.395 Y164.866 E23.6799
G1 X129.74 Y164.978 E23.70874
G1 X129.111 Y165.046 E23.73621
G1 X128.715 Y165.065 E23.75343
G1 X92.015 Y165.066 E25.34652
G1 X91.238 Y165.012 E25.38033
G1 X90.323 Y164.868 E25.42054
G1 X89.304 Y164.608 E25.46621
G1 X88.668 Y164.389 E25.49537
G1 X88.051 Y164.131 E25.52442
G1 X87.225 Y163.711 E25.56466
G1 X86.653 Y163.363 E25.59371
G1 X86.108 Y162.983 E25.62253
G1 X85.588 Y162.57 E25.65136
G1 X85.094 Y162.123 E25.68029
G1 X84.378 Y161.362 E25.72563
G1 X83.959 Y160.837 E25.75479
G1 X83.576 Y160.289 E25.78383
G1 X83.104 Y159.491 E25.82408
G1 X82.81 Y158.899 E25.85275
G1 X82.551 Y158.279 E25.88195
G1 X82.334 Y157.651 E25.91077
G1 X82.156 Y157.011 E25.9396
G1 X82.018 Y156.354 E25.96875
G1 X81.888 Y155.33 E26.01357
G1 X81.87 Y154.941 E26.03044
G1 X81.881 Y64.08 E29.9746
G1 X81.935 Y63.304 E30.00835
G1 X82.079 Y62.39 E30.04853
G1 X82.339 Y61.372 E30.09412
G1 X82.558 Y60.738 E30.12324
G1 X82.813 Y60.126 E30.15203
G1 X83.11 Y59.524 E30.18119
G1 X83.44 Y58.948 E30.20998
G1 X83.767 Y58.454 E30.23572
G1 X84.141 Y58.701 F18000
G1 F3000
G1 X84.175 Y58.651 E30.23834
G1 X84.558 Y58.144 E30.2659
G1 X84.968 Y57.667 E30.29324
G1 X85.592 Y57.043 E30.33154
G1 X86.082 Y56.621 E30.3596
G1 X86.588 Y56.238 E30.38716
G1 X87.118 Y55.888 E30.41472
G1 X87.669 Y55.572 E30.44228
G1 X88.238 Y55.291 E30.46985
G1 X88.824 Y55.046 E30.4974
G1 X89.77 Y54.738 E30.5406
G1 X90.392 Y54.589 E30.56837
G1 X91.018 Y54.481 E30.59595
G1 X91.627 Y54.415 E30.62254
G1 X92.007 Y54.396 E30.63902
G1 X128.707 Y54.397 E32.23212
G1 X129.071 Y54.414 E32.24795
G1 X130.031 Y54.536 E32.28995
G1 X130.907 Y54.73 E32.32893
G1 X131.862 Y55.039 E32.37246
G1 X132.685 Y55.393 E32.41138
G1 X133.568 Y55.876 E32.45504
G1 X134.316 Y56.382 E32.49427
G1 X134.822 Y56.784 E32.52232
G1 X135.542 Y57.459 E32.56515
G1 X136.143 Y58.138 E32.60452
G1 X136.536 Y58.657 E32.63277
G1 X137.065 Y59.49 E32.6756
G1 X137.485 Y60.311 E32.71563
G1 X137.726 Y60.888 E32.74279
G1 X138.039 Y61.85 E32.78671
G1 X138.236 Y62.735 E32.82606
G1 X138.359 Y63.703 E32.86841
G1 X138.376 Y64.071 E32.88442
G1 X138.389 Y154.898 E36.82709
G1 X138.337 Y155.651 E36.85982
G1 X138.196 Y156.539 E36.89885
G1 X138.052 Y157.148 E36.92605
G1 X137.745 Y158.097 E36.96933
G1 X137.499 Y158.688 E36.99713
G1 X137.211 Y159.274 E37.02546
G1 X136.896 Y159.82 E37.05282
G1 X136.401 Y160.551 E37.09114
G1 X136.003 Y161.052 E37.11889
G1 X135.577 Y161.524 E37.14649
G1 X135.116 Y161.974 E37.17446
G1 X134.634 Y162.388 E37.20207
G1 X134.127 Y162.771 E37.22966
G1 X133.596 Y163.122 E37.25727
G1 X133.041 Y163.441 E37.28507
G1 X132.139 Y163.866 E37.32836
G1 X131.544 Y164.09 E37.35594
G1 X130.928 Y164.278 E37.38391
G1 X130.301 Y164.427 E37.41187
G1 X129.674 Y164.534 E37.43948
G1 X129.08 Y164.598 E37.46541
G1 X128.701 Y164.617 E37.4819
G1 X92.035 Y164.617 E39.0735
G1 X91.283 Y164.565 E39.10624
G1 X90.42 Y164.429 E39.14417
G1 X89.438 Y164.179 E39.18816
G1 X88.832 Y163.971 E39.21595
G1 X88.235 Y163.721 E39.24406
G1 X87.448 Y163.321 E39.28239
G1 X86.901 Y162.99 E39.31012
G1 X86.373 Y162.621 E39.33809
G1 X85.876 Y162.225 E39.36569
G1 X85.404 Y161.798 E39.39327
G1 X84.721 Y161.072 E39.43656
G1 X84.321 Y160.572 E39.46435
G1 X83.951 Y160.041 E39.49245
G1 X83.501 Y159.281 E39.5308
G1 X83.217 Y158.709 E39.55853
G1 X82.969 Y158.114 E39.58649
G1 X82.761 Y157.514 E39.61408
G1 X82.591 Y156.901 E39.64168
G1 X82.46 Y156.274 E39.66948
G1 X82.335 Y155.286 E39.71273
G1 X82.318 Y154.928 E39.72828
G1 X82.33 Y64.1 E43.67097
G1 X82.382 Y63.349 E43.70365
G1 X82.518 Y62.487 E43.74155
G1 X82.768 Y61.506 E43.78547
G1 X82.976 Y60.902 E43.81323
G1 X83.22 Y60.315 E43.84079
G1 X83.504 Y59.738 E43.86871
G1 X83.82 Y59.188 E43.89628
G1 X84.119 Y58.735 E43.91985
G1 X84.494 Y58.982 F18000
G1 F3000
G1 X84.544 Y58.907 E43.92378
G1 X84.91 Y58.423 E43.95011
G1 X85.301 Y57.969 E43.97614
G1 X85.894 Y57.375 E44.01256
G1 X86.367 Y56.968 E44.03967
G1 X86.851 Y56.602 E44.06599
G1 X87.357 Y56.268 E44.09233
G1 X87.884 Y55.966 E44.11867
G1 X88.428 Y55.698 E44.14501
G1 X88.985 Y55.466 E44.1712
G1 X89.887 Y55.172 E44.21238
G1 X90.478 Y55.03 E44.23879
G1 X91.085 Y54.925 E44.26551
G1 X91.658 Y54.862 E44.29054
G1 X92.021 Y54.845 E44.30629
G1 X128.692 Y54.845 E45.89816
G1 X129.037 Y54.862 E45.91312
G1 X129.948 Y54.978 E45.95298
G1 X130.783 Y55.162 E45.99013
G1 X131.698 Y55.457 E46.03183
G1 X132.483 Y55.794 E46.06893
G1 X133.328 Y56.256 E46.11074
G1 X134.046 Y56.741 E46.14836
G1 X134.533 Y57.128 E46.17533
G1 X135.216 Y57.767 E46.21595
G1 X135.793 Y58.418 E46.2537
G1 X136.17 Y58.918 E46.28088
G1 X136.672 Y59.707 E46.32148
G1 X137.08 Y60.504 E46.36035
G1 X137.306 Y61.049 E46.38597
G1 X137.607 Y61.975 E46.42823
G1 X137.794 Y62.819 E46.46574
G1 X137.912 Y63.747 E46.50637
G1 X137.928 Y64.085 E46.52106
G1 X137.941 Y154.878 E50.46224
G1 X137.89 Y155.606 E50.4939
G1 X137.755 Y156.457 E50.53131
G1 X137.618 Y157.033 E50.557
G1 X137.325 Y157.937 E50.59825
G1 X137.088 Y158.507 E50.62506
G1 X136.812 Y159.066 E50.65213
G1 X136.513 Y159.586 E50.67818
G1 X136.042 Y160.281 E50.71462
G1 X135.664 Y160.758 E50.74106
G1 X135.257 Y161.209 E50.76742
G1 X134.816 Y161.64 E50.79416
G1 X134.349 Y162.041 E50.8209
G1 X133.864 Y162.407 E50.84727
G1 X133.357 Y162.742 E50.87365
G1 X132.828 Y163.045 E50.9001
G1 X131.969 Y163.45 E50.94135
G1 X131.403 Y163.664 E50.96758
G1 X130.815 Y163.844 E50.99431
G1 X130.216 Y163.986 E51.02103
G1 X129.608 Y164.09 E51.0478
G1 X129.049 Y164.151 E51.07218
G1 X128.687 Y164.168 E51.08794
G1 X92.056 Y164.169 E52.67805
G1 X91.328 Y164.118 E52.70972
G1 X90.516 Y163.99 E52.74538
G1 X89.571 Y163.75 E52.7877
G1 X88.996 Y163.553 E52.81412
G1 X88.419 Y163.312 E52.84127
G1 X87.67 Y162.931 E52.87771
G1 X87.143 Y162.611 E52.90449
G1 X86.638 Y162.259 E52.93122
G1 X86.163 Y161.88 E52.95758
G1 X85.715 Y161.474 E52.98382
G1 X85.064 Y160.782 E53.02507
G1 X84.684 Y160.307 E53.0515
G1 X84.325 Y159.794 E53.07865
G1 X83.898 Y159.071 E53.11509
G1 X83.624 Y158.518 E53.14188
G1 X83.386 Y157.951 E53.1686
G1 X83.188 Y157.376 E53.19496
G1 X83.026 Y156.791 E53.22134
G1 X82.902 Y156.194 E53.24778
G1 X82.782 Y155.242 E53.28947
G1 X82.767 Y154.914 E53.3037
G1 X82.778 Y64.121 E57.24491
G1 X82.829 Y63.394 E57.27653
G1 X82.957 Y62.583 E57.31215
G1 X83.196 Y61.64 E57.3544
G1 X83.394 Y61.065 E57.3808
G1 X83.63 Y60.497 E57.40749
G1 X83.902 Y59.946 E57.43418
G1 X84.204 Y59.42 E57.46052
G1 X84.471 Y59.016 E57.48154
G1 X84.846 Y59.263 F18000
G1 F3000
G1 X84.912 Y59.163 E57.48679
G1 X85.261 Y58.702 E57.51189
G1 X85.634 Y58.27 E57.53662
G1 X86.196 Y57.708 E57.57115
G1 X86.652 Y57.314 E57.59731
G1 X87.113 Y56.966 E57.62238
G1 X87.596 Y56.648 E57.6475
G1 X88.098 Y56.36 E57.67262
G1 X88.617 Y56.104 E57.69773
G1 X89.146 Y55.885 E57.72257
G1 X90.004 Y55.605 E57.76173
G1 X90.565 Y55.47 E57.78679
G1 X91.144 Y55.37 E57.81229
G1 X92.035 Y55.293 E57.85111
G1 X128.678 Y55.293 E59.44174
G1 X129.002 Y55.31 E59.45584
G1 X129.865 Y55.419 E59.49358
G1 X130.66 Y55.594 E59.52891
G1 X131.534 Y55.875 E59.56878
G1 X132.281 Y56.196 E59.60404
G1 X133.089 Y56.636 E59.64402
G1 X133.776 Y57.1 E59.68
G1 X134.243 Y57.471 E59.70589
G1 X134.889 Y58.076 E59.74431
G1 X135.442 Y58.699 E59.78045
G1 X135.805 Y59.178 E59.80654
G1 X136.279 Y59.925 E59.84493
G1 X136.674 Y60.698 E59.88262
G1 X136.887 Y61.21 E59.90671
G1 X137.175 Y62.099 E59.94729
G1 X137.353 Y62.902 E59.98296
G1 X137.465 Y63.791 E60.02188
G1 X137.479 Y64.099 E60.03526
G1 X137.492 Y154.858 E63.97496
G1 X137.443 Y155.561 E64.00554
G1 X137.313 Y156.375 E64.04132
G1 X137.184 Y156.916 E64.0655
G1 X136.906 Y157.776 E64.10472
G1 X136.678 Y158.325 E64.13054
G1 X136.414 Y158.859 E64.15636
G1 X136.13 Y159.352 E64.18109
G1 X135.683 Y160.011 E64.21566
G1 X135.324 Y160.465 E64.24079
G1 X134.93 Y160.901 E64.26629
G1 X134.51 Y161.312 E64.29178
G1 X134.064 Y161.695 E64.31729
G1 X133.602 Y162.043 E64.34244
G1 X133.118 Y162.363 E64.36758
G1 X132.616 Y162.65 E64.39268
G1 X131.799 Y163.035 E64.43191
G1 X131.254 Y163.24 E64.45717
G1 X130.693 Y163.412 E64.48265
G1 X130.122 Y163.547 E64.50813
G1 X129.539 Y163.646 E64.5338
G1 X128.673 Y163.72 E64.57152
G1 X92.076 Y163.72 E66.16014
G1 X91.373 Y163.671 E66.19074
G1 X90.613 Y163.551 E66.22414
G1 X89.705 Y163.321 E66.26479
G1 X89.159 Y163.135 E66.28982
G1 X88.602 Y162.902 E66.31602
G1 X87.893 Y162.541 E66.35057
G1 X87.384 Y162.233 E66.37641
G1 X86.903 Y161.896 E66.40188
G1 X86.45 Y161.535 E66.42701
G1 X86.026 Y161.15 E66.4519
G1 X85.407 Y160.492 E66.49113
G1 X85.04 Y160.034 E66.51657
G1 X84.7 Y159.547 E66.54238
G1 X84.295 Y158.862 E66.57693
G1 X84.034 Y158.336 E66.6024
G1 X83.804 Y157.787 E66.62824
G1 X83.616 Y157.239 E66.65338
G1 X83.462 Y156.681 E66.67852
G1 X83.344 Y156.115 E66.70361
G1 X83.229 Y155.198 E66.74373
G1 X83.215 Y154.901 E66.75665
G1 X83.227 Y64.141 E70.69639
G1 X83.276 Y63.439 E70.72694
G1 X83.396 Y62.68 E70.7603
G1 X83.625 Y61.774 E70.80088
G1 X83.812 Y61.228 E70.82591
G1 X84.037 Y60.687 E70.85137
G1 X84.296 Y60.161 E70.87682
G1 X84.588 Y59.652 E70.90229
G1 X84.823 Y59.297 E70.92077
G1 X85.196 Y59.549 F18000
G1 F3000
G1 X85.352 Y59.317 E70.93289
G1 X85.739 Y58.826 E70.96004
G1 X86.39 Y58.137 E71.0012
G1 X86.92 Y57.673 E71.03175
G1 X87.688 Y57.119 E71.07287
G1 X88.274 Y56.773 E71.1024
G1 X88.704 Y56.557 E71.12332
G1 X89.127 Y56.372 E71.14334
G1 X89.777 Y56.137 E71.17334
G1 X90.246 Y56.003 E71.1945
G1 X90.705 Y55.898 E71.21496
G1 X91.372 Y55.792 E71.24428
G1 X92.01 Y55.741 E71.27204
G1 X128.697 Y55.741 E72.8646
G1 X129.36 Y55.794 E72.89346
G1 X129.946 Y55.887 E72.91922
G1 X130.497 Y56.012 E72.94373
G1 X131.064 Y56.181 E72.96941
G1 X131.601 Y56.381 E72.99428
G1 X132.146 Y56.628 E73.02025
G1 X132.801 Y56.987 E73.05267
G1 X133.34 Y57.336 E73.08055
G1 X133.793 Y57.678 E73.1052
G1 X134.239 Y58.064 E73.13082
G1 X134.643 Y58.463 E73.15545
G1 X135.01 Y58.876 E73.17945
