; HEADER_BLOCK_START
; generated by AnycubicSlicerNext 1.3.1 on 2026-02-12 at 20:33:29
; total layer number: 51
; filament_density: 1.24
; filament_diameter: 1.75
; max_z_height: 10.24
; HEADER_BLOCK_END

; THUMBNAIL_BLOCK_START

;
; THUMBNAIL_BLOCK_END

; external perimeters extrusion width = 0.42mm
; perimeters extrusion width = 0.45mm
; infill extrusion width = 0.45mm
; solid infill extrusion width = 0.42mm
; top infill extrusion width = 0.42mm
; first layer extrusion width = 0.50mm

; external perimeters extrusion width = 0.42mm
; perimeters extrusion width = 0.45mm
; infill extrusion width = 0.45mm
; solid infill extrusion width = 0.42mm
; top infill extrusion width = 0.42mm
; first layer extrusion width = 0.50mm

; external perimeters extrusion width = 0.42mm
; perimeters extrusion width = 0.45mm
; infill extrusion width = 0.45mm
; solid infill extrusion width = 0.42mm
; top infill extrusion width = 0.42mm
; first layer extrusion width = 0.50mm

; external perimeters extrusion width = 0.42mm
; perimeters extrusion width = 0.45mm
; infill extrusion width = 0.45mm
; solid infill extrusion width = 0.42mm
; top infill extrusion width = 0.42mm
; first layer extrusion width = 0.50mm

; external perimeters extrusion width = 0.42mm
; perimeters extrusion width = 0.45mm
; infill extrusion width = 0.45mm
; solid infill extrusion width = 0.42mm
; top infill extrusion width = 0.42mm
; first layer extrusion width = 0.50mm

; EXECUTABLE_BLOCK_START
M201 X2000 Y2000 Z800 E2000
M203 X300 Y300 Z8 E100
M204 P2000 R2000 T2000
M205 X10.00 Y10.00 Z2.00 E5.00 ; sets the jerk limits, mm/sec
;TYPE:Custom
G90 ; use absolute coordinates
M83 ; extruder relative mode
M104 S220 ; set extruder temp
M140 S60 ; set bed temp
M190 S60 ; wait for bed temp
M109 S220 ; wait for extruder temp
G28                                        ; move X/Y/Z to min endstops
G1 Z0.28                                   ; lift nozzle a bit 
G92 E0 
G1 Y3 F1800                                    ; zero the extruded length 
G1 X60  E25 F500                       ; Extrude 25mm of filament in a 5cm line. 
G92 E0                                     ; zero the extruded length again 
G1 E-2 F500                                ; Retract a little 
G1 X70 F4000                              ; Quickly wipe away from the filament line
M117
G90
G21
M82 ; use absolute distances for extrusion
G92 E0
; filament start gcode
M106 S0
;LAYER_CHANGE
;Z:0.24
;HEIGHT:0.24
; BEFORE_LAYER_CHANGE 0 @ 0.24mm
G1 E-2.5 F6000
G92 E0
; AFTER_LAYER_CHANGE 0 @ 0.24mm
;_SET_FAN_SPEED_CHANGING_LAYER
M204 P500
; printing object "wheelhubb6p.stl" id:14246884 copy 0
M204 T500
G1 X95.33 Y151.205 F18000
G1 Z.24
G1 E2.5 F6000
;TYPE:Brim
;WIDTH:0.5
G1 F3000
G1 X95.629 Y151.019 E2.51529
G1 X96.197 Y150.714 E2.54328
G1 X97.069 Y150.349 E2.58432
G1 X97.684 Y150.159 E2.61224
G1 X98.312 Y150.019 E2.64018
G1 X98.649 Y149.965 E2.655
G1 X99.291 Y149.901 E2.68297
G1 X99.773 Y149.885 E2.70393
G1 X120.4 Y149.889 E3.59933
G1 X121.31 Y149.96 E3.63895
G1 X121.958 Y150.073 E3.6675
G1 X122.58 Y150.234 E3.6954
G1 X123.19 Y150.445 E3.72337
G1 X123.779 Y150.702 E3.75128
G1 X124.347 Y151.005 E3.77922
G1 X124.889 Y151.352 E3.80716
G1 X125.402 Y151.74 E3.83508
G1 X125.883 Y152.168 E3.86304
G1 X126.328 Y152.631 E3.89093
G1 X126.737 Y153.13 E3.91892
G1 X127.103 Y153.658 E3.94679
G1 X127.428 Y154.215 E3.9748
G1 X127.707 Y154.793 E4.00265
G1 X127.939 Y155.391 E4.03052
G1 X128.19 Y156.275 E4.07042
G1 X128.348 Y157.04 E4.10429
G1 X128.548 Y158.395 E4.16375
G1 X128.629 Y159.356 E4.20565
G1 X128.658 Y160.727 E4.26514
G1 X128.617 Y161.691 E4.30705
G1 X128.475 Y163.054 E4.36652
G1 X128.315 Y164.004 E4.40832
G1 X128.13 Y164.84 E4.4455
G1 X127.846 Y165.736 E4.48631
G1 X127.593 Y166.327 E4.5142
G1 X127.294 Y166.897 E4.54217
G1 X127.117 Y167.189 E4.55699
G1 X126.751 Y167.72 E4.58495
G1 X126.346 Y168.218 E4.61285
G1 X125.68 Y168.89 E4.65392
G1 X125.187 Y169.3 E4.68175
G1 X124.661 Y169.671 E4.70971
G1 X124.106 Y170 E4.73769
G1 X123.805 Y170.155 E4.7524
G1 X122.931 Y170.521 E4.79354
G1 X122.316 Y170.71 E4.82146
G1 X121.688 Y170.851 E4.8494
G1 X121.351 Y170.905 E4.86422
G1 X120.709 Y170.968 E4.89219
G1 X120.227 Y170.985 E4.91315
G1 X99.781 Y170.985 E5.80066
G1 X98.974 Y170.943 E5.83577
G1 X98.039 Y170.796 E5.87682
G1 X97.418 Y170.635 E5.9047
G1 X97.095 Y170.53 E5.91943
G1 X96.219 Y170.167 E5.96057
G1 X95.653 Y169.865 E5.98843
G1 X95.109 Y169.517 E6.01646
G1 X94.836 Y169.318 E6.03114
G1 X94.116 Y168.7 E6.07233
G1 X93.671 Y168.237 E6.10021
G1 X93.451 Y167.978 E6.11493
G1 X92.895 Y167.209 E6.15615
G1 X92.718 Y166.919 E6.17089
G1 X92.418 Y166.351 E6.19877
G1 X92.06 Y165.476 E6.23979
G1 X91.81 Y164.594 E6.27959
G1 X91.652 Y163.831 E6.31344
G1 X91.526 Y163.062 E6.34723
G1 X91.433 Y162.29 E6.381
G1 X91.371 Y161.514 E6.41481
G1 X91.342 Y160.142 E6.47435
G1 X91.371 Y159.363 E6.50818
G1 X91.432 Y158.588 E6.54195
G1 X91.552 Y157.632 E6.58379
G1 X91.685 Y156.866 E6.61754
G1 X91.807 Y156.285 E6.64328
G1 X91.949 Y155.741 E6.66771
G1 X92.154 Y155.134 E6.69552
G1 X92.282 Y154.819 E6.71025
G1 X92.707 Y153.971 E6.75146
G1 X92.883 Y153.68 E6.76619
G1 X93.247 Y153.152 E6.79406
G1 X93.859 Y152.428 E6.83519
G1 X94.32 Y151.979 E6.86312
G1 X94.576 Y151.758 E6.87779
G1 X95.298 Y151.228 E6.91667
G1 X95.563 Y151.59 F18000
G1 F3000
G1 X95.577 Y151.58 E6.91743
G1 X95.85 Y151.409 E6.9314
G1 X96.396 Y151.116 E6.9583
G1 X97.216 Y150.773 E6.99688
G1 X97.794 Y150.595 E7.02314
G1 X98.698 Y150.411 E7.06316
G1 X99.325 Y150.349 E7.0905
G1 X99.783 Y150.334 E7.11041
G1 X120.378 Y150.337 E8.00439
G1 X121.248 Y150.405 E8.04227
G1 X121.858 Y150.511 E8.06916
G1 X122.446 Y150.663 E8.09551
G1 X123.021 Y150.861 E8.12195
G1 X123.578 Y151.104 E8.14832
G1 X124.115 Y151.39 E8.17472
G1 X124.628 Y151.717 E8.20113
G1 X125.113 Y152.084 E8.2275
G1 X125.568 Y152.488 E8.25393
G1 X125.989 Y152.925 E8.28028
G1 X126.375 Y153.397 E8.30674
G1 X126.727 Y153.904 E8.33353
G1 X127.034 Y154.43 E8.36
G1 X127.297 Y154.977 E8.38631
G1 X127.515 Y155.54 E8.41254
G1 X127.755 Y156.387 E8.45075
G1 X127.907 Y157.122 E8.48332
G1 X128.103 Y158.45 E8.54161
G1 X128.181 Y159.384 E8.58229
G1 X128.209 Y160.718 E8.6402
G1 X128.17 Y161.663 E8.68125
G1 X128.031 Y162.989 E8.73914
G1 X127.876 Y163.915 E8.77987
G1 X127.698 Y164.717 E8.81556
G1 X127.427 Y165.573 E8.85453
G1 X127.19 Y166.129 E8.88076
G1 X126.745 Y166.938 E8.92082
G1 X126.395 Y167.446 E8.9476
G1 X126.007 Y167.923 E8.9743
G1 X125.381 Y168.555 E9.01291
G1 X124.91 Y168.947 E9.03953
G1 X124.41 Y169.299 E9.06608
G1 X123.611 Y169.75 E9.10592
G1 X122.771 Y170.101 E9.14539
G1 X122.196 Y170.277 E9.17154
G1 X121.607 Y170.409 E9.19772
G1 X120.675 Y170.521 E9.23845
G1 X120.217 Y170.536 E9.25836
G1 X99.796 Y170.536 E10.14479
G1 X99.027 Y170.497 E10.17822
G1 X98.122 Y170.354 E10.218
G1 X97.245 Y170.107 E10.25754
G1 X96.406 Y169.758 E10.29701
G1 X95.876 Y169.475 E10.3231
G1 X95.366 Y169.149 E10.34936
G1 X95.11 Y168.962 E10.36309
G1 X94.429 Y168.378 E10.40205
G1 X94.006 Y167.939 E10.42851
G1 X93.801 Y167.697 E10.44227
G1 X93.272 Y166.965 E10.48149
G1 X93.111 Y166.701 E10.49493
G1 X92.823 Y166.154 E10.52173
G1 X92.487 Y165.337 E10.56009
G1 X92.247 Y164.492 E10.59821
G1 X92.092 Y163.746 E10.63128
G1 X91.97 Y162.996 E10.66425
G1 X91.879 Y162.248 E10.69696
G1 X91.819 Y161.487 E10.7301
G1 X91.791 Y160.15 E10.78818
G1 X91.819 Y159.392 E10.82109
G1 X91.878 Y158.63 E10.85425
G1 X91.995 Y157.701 E10.89491
G1 X92.125 Y156.953 E10.92788
G1 X92.243 Y156.391 E10.95279
G1 X92.378 Y155.874 E10.976
G1 X92.576 Y155.286 E11.00292
G1 X92.693 Y155 E11.01635
G1 X93.098 Y154.192 E11.05556
G1 X93.262 Y153.92 E11.06934
G1 X93.608 Y153.42 E11.09578
G1 X94.183 Y152.739 E11.13444
G1 X94.62 Y152.313 E11.16095
G1 X94.86 Y152.106 E11.17467
G1 X95.531 Y151.613 E11.21082
G1 X95.796 Y151.975 F18000
G1 F3000
G1 X95.825 Y151.954 E11.21234
G1 X96.072 Y151.8 E11.22498
G1 X96.595 Y151.519 E11.25078
G1 X97.363 Y151.198 E11.28691
G1 X97.899 Y151.032 E11.31126
G1 X98.758 Y150.857 E11.34932
G1 X99.359 Y150.796 E11.37553
G1 X99.793 Y150.782 E11.39437
G1 X120.355 Y150.786 E12.28695
G1 X121.185 Y150.85 E12.3231
G1 X121.758 Y150.949 E12.34832
G1 X122.311 Y151.091 E12.37312
G1 X122.854 Y151.278 E12.39802
G1 X123.378 Y151.506 E12.42285
G1 X123.884 Y151.775 E12.44772
G1 X124.367 Y152.083 E12.47259
G1 X124.832 Y152.434 E12.49789
G1 X125.26 Y152.815 E12.52278
G1 X125.656 Y153.228 E12.54759
G1 X126.02 Y153.672 E12.5725
G1 X126.351 Y154.149 E12.59774
G1 X126.64 Y154.646 E12.62267
G1 X126.887 Y155.16 E12.64744
G1 X127.091 Y155.689 E12.67203
G1 X127.32 Y156.498 E12.70856
G1 X127.466 Y157.204 E12.73982
G1 X127.657 Y158.506 E12.79696
G1 X127.733 Y159.412 E12.83642
G1 X127.76 Y160.709 E12.89275
G1 X127.722 Y161.634 E12.93295
G1 X127.587 Y162.924 E12.98925
G1 X127.436 Y163.826 E13.02891
G1 X127.266 Y164.595 E13.06312
G1 X127.008 Y165.411 E13.10026
G1 X126.789 Y165.926 E13.12457
G1 X126.366 Y166.696 E13.16268
G1 X126.039 Y167.172 E13.18776
G1 X125.668 Y167.627 E13.21324
G1 X125.082 Y168.219 E13.2494
G1 X124.632 Y168.594 E13.27481
G1 X124.164 Y168.922 E13.29966
G1 X123.406 Y169.35 E13.33744
G1 X122.613 Y169.68 E13.37474
G1 X122.086 Y169.842 E13.39867
G1 X121.538 Y169.965 E13.42304
G1 X120.635 Y170.073 E13.46249
G1 X120.207 Y170.088 E13.48109
G1 X99.811 Y170.088 E14.36645
G1 X99.081 Y170.05 E14.39819
G1 X98.226 Y169.916 E14.43576
G1 X97.4 Y169.684 E14.47298
G1 X96.604 Y169.355 E14.51041
G1 X96.098 Y169.084 E14.53529
G1 X95.393 Y168.613 E14.5721
G1 X94.733 Y168.047 E14.60987
G1 X94.158 Y167.424 E14.64665
G1 X93.649 Y166.72 E14.68436
G1 X93.503 Y166.482 E14.69647
G1 X93.227 Y165.958 E14.72219
G1 X92.915 Y165.197 E14.75792
G1 X92.684 Y164.39 E14.79435
G1 X92.533 Y163.662 E14.82663
G1 X92.414 Y162.931 E14.85878
G1 X92.325 Y162.201 E14.89068
G1 X92.267 Y161.461 E14.92289
G1 X92.24 Y160.157 E14.97952
G1 X92.266 Y159.421 E15.01151
G1 X92.325 Y158.673 E15.04407
G1 X92.439 Y157.77 E15.08355
G1 X92.565 Y157.04 E15.11574
G1 X92.806 Y156.01 E15.16166
G1 X92.998 Y155.439 E15.1878
G1 X93.104 Y155.181 E15.19992
G1 X93.488 Y154.414 E15.23716
G1 X93.641 Y154.161 E15.24998
G1 X93.969 Y153.688 E15.27498
G1 X94.508 Y153.05 E15.3112
G1 X94.92 Y152.646 E15.33626
G1 X95.143 Y152.454 E15.34903
G1 X95.764 Y151.999 E15.38246
G1 X96.03 Y152.36 F18000
G1 F3000
G1 X96.072 Y152.329 E15.38477
G1 X96.3 Y152.186 E15.39644
G1 X96.794 Y151.922 E15.42075
G1 X97.511 Y151.623 E15.45446
G1 X98.004 Y151.469 E15.47689
G1 X98.819 Y151.302 E15.513
G1 X99.393 Y151.244 E15.53806
G1 X99.802 Y151.231 E15.55582
G1 X120.332 Y151.234 E16.447
G1 X121.123 Y151.295 E16.48144
G1 X121.658 Y151.387 E16.50499
G1 X122.177 Y151.52 E16.52824
G1 X122.686 Y151.694 E16.5516
G1 X123.178 Y151.908 E16.5749
G1 X123.653 Y152.16 E16.59823
G1 X124.106 Y152.448 E16.62155
G1 X124.543 Y152.778 E16.6453
G1 X124.945 Y153.135 E16.66865
G1 X125.324 Y153.53 E16.69238
G1 X125.665 Y153.946 E16.71575
G1 X125.975 Y154.395 E16.73944
G1 X126.246 Y154.861 E16.76282
G1 X126.477 Y155.343 E16.78606
G1 X126.667 Y155.837 E16.809
G1 X126.885 Y156.61 E16.84386
G1 X127.025 Y157.285 E16.87381
G1 X127.212 Y158.561 E16.92979
G1 X127.285 Y159.439 E16.96804
G1 X127.311 Y160.7 E17.02279
G1 X127.274 Y161.606 E17.06213
G1 X127.143 Y162.86 E17.11686
G1 X126.996 Y163.737 E17.15545
G1 X126.834 Y164.473 E17.18819
G1 X126.589 Y165.249 E17.2235
G1 X126.387 Y165.724 E17.2459
G1 X125.987 Y166.454 E17.28205
G1 X125.683 Y166.898 E17.30542
G1 X125.33 Y167.332 E17.32968
G1 X124.783 Y167.884 E17.36339
G1 X124.364 Y168.234 E17.38711
G1 X123.918 Y168.546 E17.41073
G1 X123.201 Y168.949 E17.44644
G1 X122.454 Y169.26 E17.48157
G1 X121.965 Y169.409 E17.50375
G1 X121.468 Y169.521 E17.52586
G1 X120.595 Y169.626 E17.56403
G1 X120.198 Y169.639 E17.58131
G1 X99.826 Y169.639 E18.46561
G1 X99.134 Y169.604 E18.49567
G1 X98.329 Y169.478 E18.53103
G1 X97.555 Y169.262 E18.56593
G1 X96.802 Y168.951 E18.60131
G1 X96.323 Y168.696 E18.62486
G1 X95.659 Y168.25 E18.65959
G1 X95.039 Y167.718 E18.69505
G1 X94.501 Y167.133 E18.72954
G1 X94.025 Y166.476 E18.76477
G1 X93.891 Y166.257 E18.77591
G1 X93.631 Y165.762 E18.80016
G1 X93.342 Y165.056 E18.83327
G1 X93.121 Y164.287 E18.86801
G1 X92.974 Y163.577 E18.8995
G1 X92.858 Y162.87 E18.93058
G1 X92.772 Y162.159 E18.96166
G1 X92.716 Y161.435 E18.9932
G1 X92.689 Y160.156 E19.04872
G1 X92.715 Y159.443 E19.07969
G1 X92.771 Y158.721 E19.11112
G1 X92.883 Y157.833 E19.14997
G1 X93.005 Y157.125 E19.18118
G1 X93.241 Y156.124 E19.22582
G1 X93.515 Y155.362 E19.26098
G1 X93.879 Y154.635 E19.29628
G1 X94.015 Y154.408 E19.30776
G1 X94.33 Y153.956 E19.33167
G1 X94.832 Y153.361 E19.36549
G1 X95.221 Y152.98 E19.38909
G1 X95.427 Y152.803 E19.4009
G1 X95.997 Y152.384 E19.43162
G1 X96.263 Y152.745 F18000
G1 F3000
G1 X96.32 Y152.703 E19.43471
G1 X96.529 Y152.572 E19.44541
G1 X96.993 Y152.325 E19.46822
G1 X97.659 Y152.047 E19.49954
G1 X98.11 Y151.906 E19.52006
G1 X98.88 Y151.747 E19.5542
G1 X99.432 Y151.692 E19.57829
G1 X120.32 Y151.683 E20.48501
G1 X121.062 Y151.74 E20.5173
G1 X121.559 Y151.825 E20.53918
G1 X122.053 Y151.952 E20.56135
G1 X122.529 Y152.115 E20.58317
G1 X122.988 Y152.315 E20.60492
G1 X123.423 Y152.545 E20.62626
G1 X123.846 Y152.814 E20.64803
G1 X124.254 Y153.122 E20.67022
G1 X124.63 Y153.455 E20.69202
G1 X124.984 Y153.823 E20.7142
G1 X125.303 Y154.212 E20.73602
G1 X125.593 Y154.631 E20.75816
G1 X125.851 Y155.075 E20.78046
G1 X126.067 Y155.526 E20.80215
G1 X126.243 Y155.984 E20.82346
G1 X126.448 Y156.711 E20.85624
G1 X126.583 Y157.367 E20.8853
G1 X126.765 Y158.608 E20.93976
G1 X126.836 Y159.458 E20.97679
G1 X126.862 Y160.692 E21.03033
G1 X126.826 Y161.569 E21.06846
G1 X126.698 Y162.795 E21.12198
G1 X126.556 Y163.648 E21.1595
G1 X126.398 Y164.363 E21.19128
G1 X126.169 Y165.088 E21.22427
G1 X125.98 Y165.534 E21.24532
G1 X125.608 Y166.214 E21.27895
G1 X125.32 Y166.634 E21.30106
G1 X124.991 Y167.036 E21.32362
G1 X124.484 Y167.548 E21.3549
G1 X124.086 Y167.88 E21.3774
G1 X123.673 Y168.169 E21.39928
G1 X123.012 Y168.541 E21.43223
G1 X122.308 Y168.835 E21.46533
G1 X121.845 Y168.977 E21.48632
G1 X121.386 Y169.079 E21.50677
G1 X120.567 Y169.178 E21.54257
G1 X120.192 Y169.19 E21.55884
G1 X99.841 Y169.191 E22.44227
G1 X99.187 Y169.158 E22.47067
G1 X98.432 Y169.041 E22.50383
G1 X97.709 Y168.839 E22.53642
G1 X97 Y168.548 E22.56973
G1 X96.549 Y168.307 E22.59191
G1 X95.924 Y167.887 E22.62456
G1 X95.346 Y167.389 E22.65771
G1 X94.844 Y166.842 E22.68991
G1 X94.402 Y166.231 E22.72268
G1 X94.279 Y166.031 E22.73285
G1 X94.036 Y165.567 E22.75561
G1 X93.769 Y164.916 E22.78614
G1 X93.558 Y164.184 E22.81919
G1 X93.414 Y163.492 E22.84987
G1 X93.302 Y162.804 E22.88013
G1 X93.219 Y162.118 E22.91015
G1 X93.164 Y161.409 E22.94101
G1 X93.138 Y160.156 E22.99541
G1 X93.163 Y159.466 E23.02538
G1 X93.217 Y158.77 E23.05569
G1 X93.327 Y157.897 E23.0939
G1 X93.446 Y157.211 E23.12411
G1 X93.674 Y156.244 E23.16722
G1 X93.931 Y155.532 E23.20012
G1 X94.278 Y154.842 E23.23364
G1 X94.69 Y154.224 E23.26586
G1 X95.168 Y153.66 E23.29795
G1 X95.71 Y153.151 E23.33025
G1 X96.23 Y152.769 E23.35825
G1 X96.474 Y153.146 F18000
G1 F3000
G1 X96.789 Y152.942 E23.37453
G1 X97.327 Y152.663 E23.40084
G1 X97.872 Y152.446 E23.42631
G1 X98.577 Y152.256 E23.458
G1 X99.173 Y152.163 E23.48418
G1 X99.791 Y152.127 E23.51103
G1 X120.205 Y152.127 E24.3972
G1 X120.955 Y152.179 E24.42981
G1 X121.474 Y152.264 E24.45263
G1 X122.097 Y152.435 E24.48071
G1 X122.646 Y152.652 E24.50633
G1 X123.267 Y152.976 E24.5367
G1 X123.784 Y153.325 E24.56381
G1 X124.319 Y153.782 E24.59435
G1 X124.792 Y154.291 E24.62453
G1 X125.203 Y154.857 E24.6549
G1 X125.512 Y155.399 E24.68196
G1 X125.811 Y156.113 E24.71556
G1 X126.01 Y156.809 E24.74698
G1 X126.226 Y157.945 E24.79717
G1 X126.322 Y158.664 E24.82866
G1 X126.41 Y159.985 E24.88615
G1 X126.41 Y160.867 E24.92441
G1 X126.337 Y162.04 E24.97546
G1 X126.226 Y162.928 E25.01428
G1 X125.974 Y164.199 E25.07053
G1 X125.605 Y165.269 E25.11968
G1 X125.191 Y166.03 E25.15729
G1 X124.724 Y166.66 E25.19132
G1 X124.257 Y167.145 E25.22054
G1 X123.555 Y167.708 E25.25961
G1 X122.904 Y168.094 E25.29246
G1 X122.292 Y168.361 E25.32144
G1 X121.507 Y168.593 E25.35697
