; HEADER_BLOCK_START
; generated by AnycubicSlicerNext 1.3.1 on 2026-02-12 at 22:52:08
; total layer number: 51
; filament_density: 1.24
; filament_diameter: 1.75
; max_z_height: 10.24
; HEADER_BLOCK_END

; THUMBNAIL_BLOCK_START

;
; THUMBNAIL_BLOCK_END

; external perimeters extrusion width = 0.42mm
; perimeters extrusion width = 0.45mm
; infill extrusion width = 0.45mm
; solid infill extrusion width = 0.42mm
; top infill extrusion width = 0.42mm
; support material extrusion width = 0.40mm
; first layer extrusion width = 0.50mm

; external perimeters extrusion width = 0.42mm
; perimeters extrusion width = 0.45mm
; infill extrusion width = 0.45mm
; solid infill extrusion width = 0.42mm
; top infill extrusion width = 0.42mm
; support material extrusion width = 0.40mm
; first layer extrusion width = 0.50mm

; EXECUTABLE_BLOCK_START
M201 X2000 Y2000 Z800 E2000
M203 X300 Y300 Z8 E100
M204 P2000 R2000 T2000
M205 X10.00 Y10.00 Z2.00 E5.00 ; sets the jerk limits, mm/sec
;TYPE:Custom
G90 ; use absolute coordinates
M83 ; extruder relative mode
M104 S220 ; set extruder temp
M140 S60 ; set bed temp
M190 S60 ; wait for bed temp
M109 S220 ; wait for extruder temp
G28                                        ; move X/Y/Z to min endstops
G1 Z0.28                                   ; lift nozzle a bit 
G92 E0 
G1 Y3 F1800                                    ; zero the extruded length 
G1 X60  E25 F500                       ; Extrude 25mm of filament in a 5cm line. 
G92 E0                                     ; zero the extruded length again 
G1 E-2 F500                                ; Retract a little 
G1 X70 F4000                              ; Quickly wipe away from the filament line
M117
G90
G21
M82 ; use absolute distances for extrusion
G92 E0
; filament start gcode
M106 S0
;LAYER_CHANGE
;Z:0.24
;HEIGHT:0.24
; BEFORE_LAYER_CHANGE 0 @ 0.24mm
G1 E-2.5 F6000
G92 E0
; AFTER_LAYER_CHANGE 0 @ 0.24mm
;_SET_FAN_SPEED_CHANGING_LAYER
M204 P500
; printing object "meterconsolehande1p.stl" id:2226232215808 copy 0
M204 T500
G1 X149.519 Y104.224 F18000
G1 Z.24
G1 E2.5 F6000
;TYPE:Support
;WIDTH:0.5
G1 F3000
G3 X150.972 Y104.665 I-.271 J3.504 E2.56642
G2 X152.818 Y104.2 I-3.639 J-18.347 E2.64909
G3 X155.47 Y105.299 I.224 J3.21 E2.77826
G2 X156.879 Y104.759 I-1.383 J-5.714 E2.84395
G3 X159.588 Y105.871 I-.165 J4.255 E2.97371
G3 X161.703 Y106.204 I.524 J3.553 E3.06809
G3 X162.755 Y107.615 I-7.542 J6.724 E3.14456
G1 X162.925 Y107.697 E3.15278
G3 X164.863 Y110.113 I-1.138 J2.898 E3.2935
G1 X164.74 Y110.613 E3.31586
G2 X163.769 Y111.831 I-.072 J.939 E3.3955
G2 X163.291 Y114.386 I12.714 J3.702 E3.50851
G2 X163.793 Y114.905 I1.026 J-.491 E3.54038
G3 X161.203 Y115.846 I-1.967 J-1.379 E3.66775
G3 X159.655 Y116.024 I-1.039 J-2.205 E3.73663
G3 X157.18 Y114.386 I.064 J-2.784 E3.87247
G2 X155.993 Y114.756 I-.34 J1.001 E3.9302
G3 X152.442 Y114.758 I-1.777 J-3.112 E4.09144
G3 X147.746 Y114.393 I-2.152 J-2.709 E4.31637
G1 X146.637 Y114.577 E4.36516
G3 X142.797 Y115.549 I-2.53 J-1.924 E4.55078
G3 X139.238 Y115.273 I-1.54 J-3.228 E4.71305
G1 X139.027 Y114.884 E4.73228
G2 X139.355 Y113.431 I-.557 J-.889 E4.80413
G2 X138.727 Y110.772 I-9.524 J.844 E4.92313
G2 X138.006 Y110.612 I-.553 J.786 E4.95607
G3 X139.411 Y107.929 I2.29 J-.51 E5.099
G2 X140.331 Y106.964 I-.986 J-1.861 E5.15787
G3 X143.454 Y105.7 I10.169 J20.642 E5.30426
G3 X146.852 Y105.29 I2.03 J2.543 E5.46071
G3 X149.452 Y104.219 I2.325 J1.952 E5.58761
G1 X164.346 Y110.423 F18000
G1 F3000
G2 X163.848 Y108.822 I-1.614 J-.376 E5.66392
G1 X163.848 Y110.418 E5.73318
G2 X163.349 Y111.891 I1.1 J1.193 E5.8036
G1 X163.349 Y108.478 E5.95176
G2 X162.851 Y108.109 I-2.528 J2.894 E5.97871
G1 X162.851 Y115.281 E6.29003
G1 X162.353 Y115.46 E6.31301
G1 X162.353 Y107.694 E6.65008
G2 X161.854 Y107.122 I-.74 J.141 E6.68462
G1 X161.854 Y115.518 E7.04909
G1 X161.356 Y115.458 E7.07088
G1 X161.356 Y106.521 E7.45882
G1 X160.858 Y106.368 E7.48144
G1 X160.858 Y115.526 E7.87895
G1 X160.359 Y115.716 E7.9021
G1 X160.359 Y106.246 E8.31317
G2 X159.861 Y106.241 I-.261 J1.269 E8.33494
G1 X159.861 Y115.655 E8.74357
G2 X159.363 Y115.626 I-.312 J1.077 E8.76542
G1 X159.363 Y106.208 E9.17423
G1 X158.864 Y105.807 E9.20201
G1 X158.864 Y115.481 E9.62194
G3 X158.366 Y115.183 I.519 J-1.436 E9.64729
G1 X158.366 Y105.529 E10.06636
G2 X157.868 Y105.347 I-.667 J1.055 E10.08957
G1 X157.868 Y114.712 E10.49606
G1 X157.37 Y113.998 E10.53382
G1 X157.37 Y105.257 E10.91326
G2 X156.871 Y105.241 I-.258 J.263 E10.93703
G1 X156.871 Y113.953 E11.31517
G1 X156.373 Y113.939 E11.33681
G1 X156.373 Y105.46 E11.70486
G2 X155.875 Y105.572 I.026 J1.286 E11.72718
G1 X155.875 Y114.338 E12.10772
G3 X155.376 Y114.588 I-.77 J-.914 E12.13215
G1 X155.344 Y105.784 E12.51432
G2 X154.878 Y105.284 I-1.128 J.584 E12.54435
G1 X154.878 Y114.753 E12.95537
G1 X154.38 Y114.834 E12.97729
G1 X154.38 Y104.932 E13.40715
G2 X153.881 Y104.752 I-.571 J.802 E13.43043
G1 X153.881 Y114.807 E13.8669
G3 X153.383 Y114.723 I-.089 J-.991 E13.88908
G1 X153.383 Y104.645 E14.32654
G1 X152.885 Y104.61 E14.34823
G1 X152.885 Y114.539 E14.77926
G3 X152.424 Y114.255 I.321 J-1.034 E14.803
G1 X152.386 Y104.701 E15.21775
G2 X151.888 Y104.859 I.034 J.969 E15.24073
G1 X151.888 Y114.683 E15.66717
G1 X151.39 Y114.905 E15.69086
G1 X151.39 Y105.044 E16.11895
G1 X150.891 Y105.074 E16.14062
G1 X150.891 Y115.048 E16.57354
G3 X150.393 Y115.128 I-.402 J-.909 E16.59569
G1 X150.393 Y104.833 E17.04258
G1 X149.895 Y104.657 E17.06552
G1 X149.895 Y115.081 E17.51801
G3 X149.396 Y114.975 I-.047 J-1.001 E17.54037
G1 X149.396 Y104.62 E17.98987
G2 X148.898 Y104.64 I-.213 J.898 E18.01179
G1 X148.898 Y114.793 E18.4525
G3 X148.4 Y114.455 I.395 J-1.117 E18.47894
G1 X148.4 Y104.745 E18.90042
G2 X147.901 Y104.979 I.169 J1.007 E18.92462
G1 X147.901 Y113.957 E19.31436
G1 X147.403 Y114.04 E19.33629
G1 X147.403 Y105.327 E19.7145
G1 X146.905 Y105.738 E19.74253
G1 X146.905 Y114.123 E20.10653
G1 X146.406 Y114.23 E20.12865
G1 X146.406 Y105.559 E20.50505
G2 X145.908 Y105.431 I-1.046 J3.036 E20.52741
G1 X145.908 Y114.785 E20.93347
G3 X145.41 Y115.107 I-.784 J-.669 E20.95957
G1 X145.41 Y105.411 E21.38044
G2 X144.911 Y105.476 I-.135 J.903 E21.40254
G1 X144.911 Y115.311 E21.82945
G3 X144.413 Y115.436 I-.458 J-.768 E21.85208
G1 X144.413 Y105.61 E22.2786
G2 X143.915 Y105.884 I1.218 J2.805 E22.30333
G1 X143.915 Y115.418 E22.71719
G3 X143.416 Y115.333 I-.107 J-.873 E22.73945
G1 X143.416 Y106.199 E23.13594
G2 X142.918 Y106.278 I.001 J1.628 E23.15792
G1 X142.918 Y115.164 E23.54367
G2 X142.42 Y115.267 I-.081 J.864 E23.56609
G1 X142.42 Y106.475 E23.94776
G3 X141.921 Y106.744 I-.536 J-.395 E23.97316
G1 X141.921 Y115.415 E24.34956
G3 X141.423 Y115.455 I-.366 J-1.439 E24.37136
G1 X141.423 Y106.843 E24.74519
G2 X140.925 Y107.082 I.161 J.973 E24.76951
G1 X140.924 Y115.515 E25.13556
G1 X140.426 Y115.455 E25.15732
G1 X140.426 Y107.481 E25.50346
G3 X139.928 Y108.11 I-3.224 J-2.041 E25.53837
G1 X139.928 Y115.454 E25.85716
G1 X139.43 Y112.92 F18000
G1 F3000
G1 X139.43 Y108.471 E26.05026
G2 X138.931 Y108.809 I.662 J1.515 E26.07653
G1 X138.931 Y110.422 E26.14659
G2 X138.433 Y110.212 I-.727 J1.027 E26.17025
G1 X138.433 Y109.146 E26.21652
G1 E24.46652 F6000
;WIPE_START
G1 F3000
G1 X138.433 Y110.146 E23.71652
;WIPE_END
G92 E0
G1 X130.902 Y108.64 F18000
G1 E2.5 F6000
;TYPE:Brim
G1 F3000
G1 X130.937 Y108.129 E2.52224
G1 X131.051 Y107.143 E2.56533
G1 X131.213 Y106.164 E2.60842
G1 X131.422 Y105.193 E2.6515
G1 X131.677 Y104.234 E2.69459
G1 X131.979 Y103.289 E2.73767
G1 X132.326 Y102.359 E2.78076
G1 X132.717 Y101.447 E2.82385
G1 X133.152 Y100.554 E2.86693
G1 X133.63 Y99.684 E2.91002
G1 X134.149 Y98.838 E2.9531
G1 X134.708 Y98.018 E2.99619
G1 X135.307 Y97.227 E3.03927
G1 X135.942 Y96.465 E3.08233
G1 X136.765 Y95.58 E3.13477
G1 X137.478 Y94.891 E3.17783
G1 X138.224 Y94.236 E3.22092
G1 X139.001 Y93.619 E3.26401
G1 X139.807 Y93.039 E3.30709
G1 X140.64 Y92.499 E3.35018
G1 X141.498 Y92.001 E3.39326
G1 X142.379 Y91.544 E3.43635
G1 X143.282 Y91.13 E3.47944
G1 X144.203 Y90.76 E3.52252
G1 X145.141 Y90.435 E3.56561
G1 X146.093 Y90.156 E3.60869
G1 X147.058 Y89.924 E3.65178
G1 X148.033 Y89.738 E3.69486
G1 X149.016 Y89.599 E3.73795
G1 X150.004 Y89.508 E3.78104
G1 X150.997 Y89.465 E3.82416
G1 X151.997 Y89.471 E3.86756
G1 X152.98 Y89.523 E3.91032
G1 X153.754 Y89.598 E3.94405
G1 X154.737 Y89.736 E3.98716
G1 X155.712 Y89.922 E4.03025
G1 X156.677 Y90.154 E4.07333
G1 X157.63 Y90.433 E4.11642
G1 X158.568 Y90.757 E4.1595
G1 X159.489 Y91.126 E4.20259
G1 X160.392 Y91.54 E4.24568
G1 X161.273 Y91.996 E4.28876
G1 X162.131 Y92.495 E4.33185
G1 X162.965 Y93.034 E4.37493
G1 X163.771 Y93.613 E4.41802
G1 X164.548 Y94.23 E4.4611
G1 X165.294 Y94.885 E4.50419
G1 X166.008 Y95.574 E4.54728
G1 X166.688 Y96.297 E4.59036
G1 X167.333 Y97.052 E4.63345
G1 X167.939 Y97.838 E4.67653
G1 X168.508 Y98.651 E4.71962
G1 X169.036 Y99.492 E4.76271
G1 X169.523 Y100.357 E4.80579
G1 X169.968 Y101.244 E4.84888
G1 X170.369 Y102.152 E4.89196
G1 X170.726 Y103.078 E4.93505
G1 X171.038 Y104.02 E4.97813
G1 X171.304 Y104.976 E5.02122
G1 X171.523 Y105.944 E5.06431
G1 X171.696 Y106.922 E5.10739
G1 X171.821 Y107.907 E5.15048
G1 X171.898 Y108.896 E5.19356
G1 X171.927 Y109.89 E5.23672
G1 X171.909 Y110.879 E5.27966
G1 X171.842 Y111.871 E5.32282
G1 X171.728 Y112.857 E5.36591
G1 X171.566 Y113.836 E5.40899
G1 X171.358 Y114.807 E5.45208
G1 X171.102 Y115.766 E5.49516
G1 X170.8 Y116.711 E5.53825
G1 X170.454 Y117.641 E5.58134
G1 X170.062 Y118.553 E5.62442
G1 X169.627 Y119.446 E5.66751
G1 X169.149 Y120.316 E5.71059
G1 X168.63 Y121.162 E5.75368
G1 X168.071 Y121.982 E5.79676
G1 X167.473 Y122.773 E5.83985
G1 X166.837 Y123.536 E5.88294
G1 X166.165 Y124.266 E5.92602
G1 X165.458 Y124.963 E5.96911
G1 X164.718 Y125.626 E6.01224
G1 X163.948 Y126.251 E6.05528
G1 X163.148 Y126.839 E6.09836
G1 X162.321 Y127.387 E6.14145
G1 X161.468 Y127.895 E6.18454
G1 X160.592 Y128.361 E6.22762
G1 X159.694 Y128.784 E6.27071
G1 X158.777 Y129.164 E6.31379
G1 X157.843 Y129.498 E6.35685
G1 X156.685 Y129.844 E6.40929
G1 X155.721 Y130.076 E6.45236
G1 X154.746 Y130.262 E6.49544
G1 X153.763 Y130.401 E6.53853
G1 X152.775 Y130.492 E6.58161
G1 X151.783 Y130.535 E6.6247
G1 X150.791 Y130.53 E6.66778
G1 X149.8 Y130.477 E6.71087
G1 X148.812 Y130.376 E6.75396
G1 X147.831 Y130.228 E6.79704
G1 X146.858 Y130.032 E6.84013
G1 X145.895 Y129.79 E6.88321
G1 X144.945 Y129.501 E6.9263
G1 X144.011 Y129.167 E6.96938
G1 X143.093 Y128.788 E7.01247
G1 X142.195 Y128.365 E7.05556
G1 X141.319 Y127.9 E7.09864
G1 X140.466 Y127.392 E7.14173
G1 X139.638 Y126.844 E7.18481
G1 X138.838 Y126.257 E7.2279
G1 X138.067 Y125.631 E7.27099
G1 X137.328 Y124.969 E7.31407
G1 X136.621 Y124.273 E7.35716
G1 X135.948 Y123.542 E7.40027
G1 X135.447 Y122.948 E7.434
G1 X134.84 Y122.162 E7.47711
G1 X134.271 Y121.349 E7.5202
G1 X133.743 Y120.508 E7.56328
G1 X133.256 Y119.643 E7.60637
G1 X132.811 Y118.756 E7.64945
G1 X132.41 Y117.848 E7.69254
G1 X132.053 Y116.922 E7.73562
G1 X131.741 Y115.98 E7.77871
G1 X131.475 Y115.024 E7.8218
G1 X131.256 Y114.056 E7.86488
G1 X131.083 Y113.078 E7.90797
G1 X130.958 Y112.093 E7.95105
G1 X130.881 Y111.104 E7.99414
G1 X130.852 Y110.112 E8.03722
G1 X130.87 Y109.119 E8.08031
G1 X130.9 Y108.68 E8.09942
G1 X131.347 Y108.71 F18000
G1 F3000
G1 X131.383 Y108.173 E8.12278
G1 X131.495 Y107.209 E8.16493
G1 X131.653 Y106.251 E8.20707
G1 X131.857 Y105.302 E8.24922
G1 X132.107 Y104.363 E8.29136
G1 X132.402 Y103.438 E8.3335
G1 X132.743 Y102.523 E8.37593
G1 X133.126 Y101.631 E8.41808
G1 X133.552 Y100.758 E8.46022
G1 X134.019 Y99.907 E8.50236
G1 X134.527 Y99.08 E8.54451
G1 X135.075 Y98.278 E8.58665
G1 X135.66 Y97.503 E8.6288
G1 X136.281 Y96.759 E8.67088
G1 X137.083 Y95.897 E8.72197
G1 X137.779 Y95.223 E8.76405
G1 X138.509 Y94.583 E8.80619
G1 X139.269 Y93.978 E8.84834
G1 X140.057 Y93.412 E8.89048
G1 X140.872 Y92.883 E8.93263
G1 X141.711 Y92.395 E8.97477
G1 X142.573 Y91.948 E9.01692
G1 X143.456 Y91.543 E9.05906
G1 X144.363 Y91.179 E9.10149
G1 X145.28 Y90.862 E9.14363
G1 X146.212 Y90.589 E9.18578
G1 X147.156 Y90.362 E9.22792
G1 X148.11 Y90.18 E9.27007
G1 X149.071 Y90.045 E9.31221
G1 X150.038 Y89.956 E9.35435
G1 X151.009 Y89.914 E9.39654
G1 X151.98 Y89.919 E9.43871
G1 X152.944 Y89.971 E9.4806
G1 X153.698 Y90.043 E9.51349
G1 X154.661 Y90.178 E9.55569
G1 X155.615 Y90.36 E9.59784
G1 X156.559 Y90.587 E9.63998
G1 X157.49 Y90.859 E9.68213
G1 X158.408 Y91.176 E9.72427
G1 X159.309 Y91.537 E9.76642
G1 X160.192 Y91.942 E9.80856
G1 X161.054 Y92.388 E9.85071
G1 X161.894 Y92.875 E9.89285
G1 X162.709 Y93.403 E9.935
G1 X163.498 Y93.969 E9.97714
G1 X164.258 Y94.573 E10.01928
G1 X164.988 Y95.213 E10.06143
G1 X165.687 Y95.887 E10.10357
G1 X166.352 Y96.594 E10.14572
G1 X166.982 Y97.333 E10.18786
G1 X167.576 Y98.101 E10.23001
G1 X168.132 Y98.897 E10.27215
G1 X168.649 Y99.718 E10.31429
G1 X169.125 Y100.564 E10.35644
G1 X169.561 Y101.432 E10.39858
G1 X169.953 Y102.32 E10.44073
G1 X170.303 Y103.226 E10.48287
G1 X170.608 Y104.148 E10.52502
G1 X170.868 Y105.083 E10.56716
G1 X171.083 Y106.03 E10.60931
G1 X171.252 Y106.986 E10.65145
G1 X171.374 Y107.949 E10.69359
G1 X171.45 Y108.917 E10.73574
G1 X171.479 Y109.889 E10.77796
G1 X171.461 Y110.857 E10.81996
G1 X171.396 Y111.827 E10.86217
G1 X171.284 Y112.791 E10.90432
G1 X171.126 Y113.749 E10.94646
G1 X170.922 Y114.698 E10.98861
G1 X170.672 Y115.637 E11.03075
G1 X170.377 Y116.562 E11.0729
G1 X170.038 Y117.471 E11.11504
G1 X169.655 Y118.364 E11.15719
G1 X169.23 Y119.236 E11.19933
G1 X168.763 Y120.087 E11.24147
G1 X168.255 Y120.915 E11.28362
G1 X167.708 Y121.717 E11.32576
G1 X167.123 Y122.492 E11.36791
G1 X166.497 Y123.242 E11.41033
G1 X165.84 Y123.957 E11.45248
G1 X165.148 Y124.639 E11.49462
G1 X164.424 Y125.287 E11.53681
G1 X163.671 Y125.898 E11.57891
G1 X162.889 Y126.473 E11.62106
G1 X162.08 Y127.009 E11.6632
G1 X161.245 Y127.506 E11.70535
G1 X160.388 Y127.962 E11.74749
G1 X159.51 Y128.375 E11.78963
G1 X158.613 Y128.746 E11.83178
G1 X157.7 Y129.073 E11.87386
G1 X156.572 Y129.41 E11.92495
G1 X155.63 Y129.637 E11.96703
G1 X154.676 Y129.819 E12.00917
G1 X153.715 Y129.955 E12.05132
G1 X152.748 Y130.044 E12.09346
G1 X151.771 Y130.086 E12.13589
G1 X150.801 Y130.081 E12.17803
G1 X149.831 Y130.029 E12.22018
G1 X148.865 Y129.93 E12.26232
G1 X147.905 Y129.785 E12.30447
G1 X146.953 Y129.594 E12.34661
G1 X146.012 Y129.356 E12.38876
G1 X145.083 Y129.074 E12.4309
G1 X144.169 Y128.747 E12.47305
G1 X143.272 Y128.376 E12.51519
G1 X142.393 Y127.963 E12.55734
G1 X141.536 Y127.507 E12.59948
G1 X140.702 Y127.011 E12.64162
G1 X139.892 Y126.474 E12.68377
G1 X139.11 Y125.9 E12.72591
G1 X138.356 Y125.288 E12.76806
G1 X137.633 Y124.64 E12.8102
G1 X136.941 Y123.958 E12.85235
G1 X136.283 Y123.243 E12.89455
G1 X135.794 Y122.664 E12.92744
G1 X135.203 Y121.899 E12.9694
G1 X134.647 Y121.103 E13.01154
G1 X134.13 Y120.282 E13.05369
G1 X133.654 Y119.436 E13.09583
G1 X133.219 Y118.568 E13.13797
G1 X132.826 Y117.68 E13.18012
G1 X132.476 Y116.774 E13.22226
G1 X132.171 Y115.852 E13.26441
G1 X131.911 Y114.917 E13.30655
G1 X131.696 Y113.97 E13.3487
G1 X131.527 Y113.014 E13.39084
G1 X131.405 Y112.051 E13.43299
G1 X131.329 Y111.083 E13.47513
G1 X131.3 Y110.113 E13.51728
G1 X131.318 Y109.142 E13.55942
G1 X131.345 Y108.75 E13.57646
G1 X131.792 Y108.78 F18000
G1 F3000
G1 X131.83 Y108.217 E13.60095
G1 X131.94 Y107.268 E13.64243
G1 X132.094 Y106.331 E13.68364
G1 X132.294 Y105.403 E13.72484
G1 X132.538 Y104.486 E13.76604
G1 X132.827 Y103.582 E13.80725
G1 X133.161 Y102.687 E13.84873
G1 X133.536 Y101.814 E13.88993
G1 X133.952 Y100.961 E13.93113
G1 X134.409 Y100.13 E13.97234
G1 X134.906 Y99.321 E14.01354
G1 X135.441 Y98.537 E14.05474
G1 X136.013 Y97.78 E14.09595
G1 X136.62 Y97.053 E14.13705
G1 X137.4 Y96.214 E14.18679
G1 X138.081 Y95.555 E14.22789
G1 X138.795 Y94.929 E14.2691
G1 X139.537 Y94.338 E14.3103
G1 X140.308 Y93.784 E14.3515
G1 X141.104 Y93.267 E14.39271
G1 X141.925 Y92.79 E14.43391
G1 X142.767 Y92.353 E14.47511
G1 X143.63 Y91.957 E14.51632
G1 X144.517 Y91.601 E14.5578
G1 X145.414 Y91.29 E14.599
G1 X146.324 Y91.023 E14.6402
G1 X147.247 Y90.801 E14.6814
G1 X148.18 Y90.623 E14.72261
G1 X149.119 Y90.491 E14.76381
